;FLAVOR:Marlin
;TIME:620
;Filament used: 0.190677m
;Layer height: 0.2
;MINX:129.936
;MINY:124.016
;MINZ:0.2
;MAXX:170.075
;MAXY:175.984
;MAXZ:1.8
;Generated with Cura_SteamEngine 4.11.0
M140 S50
M105
M190 S50
M104 S200
M105
M109 S200
M82 ;absolute extrusion mode
M201 X500.00 Y500.00 Z100.00 E5000.00 ;Setup machine max acceleration
M203 X500.00 Y500.00 Z10.00 E50.00 ;Setup machine max feedrate
M204 P500.00 R1000.00 T500.00 ;Setup Print/Retract/Travel acceleration
M205 X8.00 Y8.00 Z0.40 E5.00 ;Setup Jerk
M220 S100 ;Reset Feedrate
M221 S100 ;Reset Flowrate

G28 ;Home

G92 E0 ;Reset Extruder
G1 Z2.0 F3000 ;Move Z Axis up
G1 X10.1 Y20 Z0.28 F5000.0 ;Move to start position
G1 X10.1 Y200.0 Z0.28 F1500.0 E15 ;Draw the first line
G1 X10.4 Y200.0 Z0.28 F5000.0 ;Move to side a little
G1 X10.4 Y20 Z0.28 F1500.0 E30 ;Draw the second line
G92 E0 ;Reset Extruder
G1 Z2.0 F3000 ;Move Z Axis up

G92 E0
G92 E0
G1 F2700 E-5
;LAYER_COUNT:10
;LAYER:0
M107
G0 F6000 X134.293 Y128.963 Z0.2
;TYPE:SKIRT
G1 F2700 E0
G1 F1200 X134.977 Y128.322 E0.03118
G1 X135.412 Y127.967 E0.04985
G1 X136.008 Y127.505 E0.07493
G1 X136.863 Y126.827 E0.11123
G1 X137.529 Y126.313 E0.13921
G1 X138.436 Y125.683 E0.17594
G1 X139.252 Y125.22 E0.20714
G1 X140.104 Y124.829 E0.23832
G1 X140.987 Y124.511 E0.26954
G1 X141.893 Y124.27 E0.30072
G1 X142.816 Y124.107 E0.33189
G1 X143.751 Y124.023 E0.36312
G1 X144.812 Y124.025 E0.39841
G1 X146.09 Y124.089 E0.44097
G1 X148.752 Y124.184 E0.52956
G1 X150.603 Y124.203 E0.59113
G1 X153.167 Y124.167 E0.67642
G1 X155.498 Y124.072 E0.75401
G1 X156.361 Y124.026 E0.78275
G1 X157.299 Y124.016 E0.81395
G1 X158.234 Y124.086 E0.84514
G1 X159.16 Y124.235 E0.87633
G1 X160.07 Y124.463 E0.90754
G1 X160.957 Y124.767 E0.93872
G1 X161.815 Y125.146 E0.96992
G1 X162.637 Y125.597 E1.0011
G1 X163.627 Y126.271 E1.04094
G1 X164.496 Y126.937 E1.07735
G1 X165.913 Y128.05 E1.13728
G1 X166.622 Y128.663 E1.16846
G1 X167.276 Y129.335 E1.19965
G1 X167.871 Y130.061 E1.23087
G1 X168.402 Y130.834 E1.26206
G1 X168.865 Y131.649 E1.29323
G1 X169.257 Y132.501 E1.32443
G1 X169.575 Y133.384 E1.35564
G1 X169.816 Y134.29 E1.38682
G1 X169.98 Y135.214 E1.41804
G1 X170.064 Y136.148 E1.44923
G1 X170.075 Y136.801 E1.47095
G1 X170.075 Y139.399 E1.55736
G1 X170.044 Y140.228 E1.58495
G1 X169.892 Y142.83 E1.67164
G1 X169.817 Y145.353 E1.75559
G1 X169.813 Y147.876 E1.83951
G1 X169.881 Y150.394 E1.92329
G1 X169.994 Y152.535 E1.9946
G1 X170.033 Y153.097 E2.01333
G1 X170.055 Y153.519 E2.02739
G1 X170.064 Y153.807 E2.03697
G1 X170.053 Y154.745 E2.06817
G1 X169.935 Y155.864 E2.1056
G1 X169.903 Y156.067 E2.11243
G1 X169.666 Y157.188 E2.15054
G1 X169.654 Y157.233 E2.15209
G1 X169.374 Y158.128 E2.18328
G1 X169.115 Y158.78 E2.20661
G1 X168.968 Y159.119 E2.2189
G1 X168.525 Y160.154 E2.25635
G1 X168.48 Y160.258 E2.26012
G1 X167.778 Y161.953 E2.32114
G1 X167.624 Y162.308 E2.33401
G1 X167.2 Y163.144 E2.36519
G1 X166.706 Y163.942 E2.3964
G1 X165.863 Y165.029 E2.44215
G1 X164.894 Y166.128 E2.49088
G1 X164.717 Y166.326 E2.49972
G1 X163.059 Y168.276 E2.58485
G1 X161.487 Y170.233 E2.66834
G1 X161.019 Y170.845 E2.69396
G1 X160.592 Y171.382 E2.71678
G1 X159.977 Y172.091 E2.748
G1 X159.305 Y172.744 E2.77917
G1 X158.83 Y173.145 E2.79984
G1 X158.566 Y173.355 E2.81106
G1 X158.077 Y173.722 E2.8314
G1 X157.291 Y174.234 E2.8626
G1 X156.086 Y174.851 E2.90762
G1 X155.722 Y175.01 E2.92083
G1 X154.848 Y175.349 E2.95201
G1 X153.947 Y175.611 E2.98322
G1 X152.977 Y175.804 E3.01612
G1 X152.636 Y175.856 E3.02759
G1 X152.061 Y175.929 E3.04687
G1 X151.125 Y175.984 E3.07805
G1 X150.188 Y175.96 E3.10923
G1 X149.712 Y175.917 E3.12512
G1 X149.311 Y175.872 E3.13854
G1 X148.385 Y175.728 E3.16971
G1 X147.474 Y175.506 E3.2009
G1 X146.488 Y175.168 E3.23557
G1 X146.137 Y175.029 E3.24812
G1 X145.28 Y174.647 E3.27933
G1 X144.46 Y174.193 E3.31051
G1 X143.625 Y173.63 E3.344
G1 X143.29 Y173.381 E3.35788
G1 X142.562 Y172.79 E3.38907
G1 X141.887 Y172.139 E3.42026
G1 X141.246 Y171.404 E3.4527
G1 X140.296 Y170.21 E3.50345
G1 X140.217 Y170.12 E3.50743
G1 X139.414 Y169.106 E3.55045
G1 X137.782 Y167.161 E3.6349
G1 X136.857 Y166.106 E3.68157
G1 X136.119 Y165.278 E3.71846
G1 X135.919 Y165.047 E3.72862
G1 X135.423 Y164.458 E3.75423
G1 X134.077 Y162.895 E3.82284
G1 X133.27 Y161.978 E3.86346
G1 X132.964 Y161.615 E3.87926
G1 X132.798 Y161.409 E3.88805
G1 X132.194 Y160.584 E3.92206
G1 X132.082 Y160.415 E3.92881
G1 X131.471 Y159.372 E3.96901
G1 X131.366 Y159.168 E3.97664
G1 X130.972 Y158.317 E4.00783
G1 X130.726 Y157.658 E4.03123
G1 X130.611 Y157.318 E4.04317
G1 X130.323 Y156.313 E4.07794
G1 X130.275 Y156.109 E4.08491
G1 X130.194 Y155.732 E4.09773
G1 X130.14 Y155.46 E4.10696
G1 X129.956 Y154.094 E4.1528
G1 X129.949 Y153.995 E4.1561
G1 X129.936 Y152.671 E4.20014
G1 X129.954 Y152.31 E4.21216
G1 X130.046 Y151.333 E4.2448
G1 X130.194 Y150.276 E4.2803
G1 X130.24 Y149.977 E4.29036
G1 X130.564 Y147.461 E4.37473
G1 X130.81 Y145.004 E4.45686
G1 X130.993 Y142.469 E4.5414
G1 X131.102 Y139.951 E4.62522
G1 X131.133 Y137.921 E4.69275
G1 X131.139 Y137.808 E4.69651
G1 X131.149 Y136.577 E4.73746
G1 X131.197 Y135.64 E4.76866
G1 X131.323 Y134.711 E4.79985
G1 X131.529 Y133.796 E4.83104
G1 X131.812 Y132.902 E4.86223
G1 X132.17 Y132.035 E4.89343
G1 X132.6 Y131.202 E4.92461
G1 X133.1 Y130.408 E4.95581
G1 X133.665 Y129.66 E4.98699
G1 X134.293 Y128.963 E5.0182
G0 F6000 X134.686 Y129.135
G1 F1200 X135.657 Y128.283 E5.06116
G1 X136.258 Y127.818 E5.08644
G1 X136.988 Y127.237 E5.11747
G1 X137.774 Y126.63 E5.1505
G1 X138.648 Y126.022 E5.18591
G1 X139.449 Y125.569 E5.21652
G1 X140.287 Y125.186 E5.24716
G1 X141.154 Y124.878 E5.27776
G1 X142.045 Y124.646 E5.30839
G1 X142.953 Y124.493 E5.33901
G1 X143.871 Y124.418 E5.36965
G1 X144.792 Y124.424 E5.40028
G1 X146.129 Y124.49 E5.4448
G1 X148.732 Y124.583 E5.53143
G1 X150.605 Y124.603 E5.59373
G1 X153.188 Y124.567 E5.67965
G1 X155.455 Y124.474 E5.75512
G1 X156.382 Y124.425 E5.78599
G1 X157.303 Y124.416 E5.81663
G1 X158.221 Y124.487 E5.84725
G1 X159.129 Y124.637 E5.87786
G1 X160.021 Y124.866 E5.90849
G1 X160.889 Y125.171 E5.93909
G1 X161.728 Y125.55 E5.96971
G1 X162.531 Y126.001 E6.00034
G1 X163.384 Y126.589 E6.0348
G1 X164.249 Y127.252 E6.07105
G1 X165.664 Y128.363 E6.13089
G1 X166.36 Y128.966 E6.16152
G1 X167.001 Y129.627 E6.19214
G1 X167.582 Y130.341 E6.22276
G1 X168.098 Y131.103 E6.25337
G1 X168.547 Y131.907 E6.28399
G1 X168.925 Y132.747 E6.31463
G1 X169.228 Y133.616 E6.34524
G1 X169.454 Y134.509 E6.37588
G1 X169.602 Y135.417 E6.40648
G1 X169.671 Y136.335 E6.4371
G1 X169.675 Y136.796 E6.45243
G1 X169.675 Y139.399 E6.53901
G1 X169.642 Y140.241 E6.56703
G1 X169.491 Y142.831 E6.65332
G1 X169.417 Y145.34 E6.73681
G1 X169.413 Y147.885 E6.82145
G1 X169.481 Y150.427 E6.90603
G1 X169.592 Y152.525 E6.97591
G1 X169.634 Y153.125 E6.99591
G1 X169.655 Y153.532 E7.00947
G1 X169.664 Y153.82 E7.01905
G1 X169.653 Y154.74 E7.04965
G1 X169.54 Y155.802 E7.08518
G1 X169.508 Y156.005 E7.09201
G1 X169.279 Y157.085 E7.12873
G1 X169.267 Y157.13 E7.13028
G1 X168.991 Y158.009 E7.16092
G1 X168.748 Y158.621 E7.18282
G1 X168.6 Y158.962 E7.19519
G1 X168.103 Y160.124 E7.23722
G1 X167.409 Y161.8 E7.29756
G1 X167.26 Y162.142 E7.30996
G1 X166.843 Y162.963 E7.34059
G1 X166.356 Y163.745 E7.37123
G1 X165.562 Y164.764 E7.4142
G1 X164.439 Y166.037 E7.47066
G1 X162.741 Y168.033 E7.55782
G1 X161.176 Y169.981 E7.64093
G1 X160.848 Y170.413 E7.65897
G1 X160.706 Y170.596 E7.66667
G1 X160.279 Y171.133 E7.68949
G1 X159.675 Y171.828 E7.72012
G1 X159.013 Y172.468 E7.75074
G1 X158.581 Y172.832 E7.76953
G1 X158.317 Y173.042 E7.78075
G1 X157.844 Y173.397 E7.80042
G1 X157.072 Y173.899 E7.83105
G1 X155.926 Y174.485 E7.87386
G1 X155.562 Y174.644 E7.88707
G1 X154.703 Y174.975 E7.91769
G1 X153.819 Y175.231 E7.9483
G1 X152.917 Y175.409 E7.97888
G1 X152.576 Y175.461 E7.99035
G1 X152.021 Y175.531 E8.00896
G1 X151.101 Y175.585 E8.03961
G1 X149.757 Y175.52 E8.08436
G1 X149.356 Y175.475 E8.09778
G1 X148.446 Y175.333 E8.12842
G1 X147.552 Y175.112 E8.15905
G1 X146.635 Y174.796 E8.19131
G1 X146.284 Y174.657 E8.20386
G1 X145.444 Y174.282 E8.23446
G1 X144.639 Y173.834 E8.2651
G1 X143.864 Y173.309 E8.29623
G1 X143.529 Y173.06 E8.31012
G1 X142.814 Y172.48 E8.34074
G1 X142.153 Y171.839 E8.37136
G1 X141.559 Y171.155 E8.40149
G1 X140.627 Y169.984 E8.45127
G1 X140.531 Y169.871 E8.4562
G1 X139.733 Y168.863 E8.49896
G1 X138.086 Y166.9 E8.58419
G1 X137.156 Y165.84 E8.63109
G1 X136.418 Y165.012 E8.66798
G1 X136.225 Y164.79 E8.67777
G1 X135.7 Y164.167 E8.70486
G1 X134.415 Y162.675 E8.77036
G1 X133.57 Y161.714 E8.81292
G1 X133.275 Y161.364 E8.82814
G1 X133.109 Y161.158 E8.83694
G1 X132.527 Y160.363 E8.86971
G1 X132.415 Y160.194 E8.87646
G1 X131.826 Y159.189 E8.9152
G1 X131.721 Y158.985 E8.92283
G1 X131.336 Y158.149 E8.95344
G1 X131.105 Y157.53 E8.97542
G1 X130.99 Y157.19 E8.98736
G1 X130.713 Y156.222 E9.02084
G1 X130.665 Y156.018 E9.02781
G1 X130.586 Y155.654 E9.0402
G1 X130.532 Y155.382 E9.04943
G1 X130.355 Y154.066 E9.09359
G1 X130.348 Y153.967 E9.09689
G1 X130.335 Y152.691 E9.13933
G1 X130.353 Y152.33 E9.15136
G1 X130.442 Y151.388 E9.18283
G1 X130.59 Y150.331 E9.21832
G1 X130.637 Y150.025 E9.22862
G1 X130.96 Y147.519 E9.31266
G1 X131.209 Y145.033 E9.39576
G1 X131.393 Y142.482 E9.48083
G1 X131.502 Y139.974 E9.56432
G1 X131.533 Y137.927 E9.63241
G1 X131.539 Y137.817 E9.63608
G1 X131.549 Y136.58 E9.67722
G1 X131.596 Y135.661 E9.70783
G1 X131.723 Y134.749 E9.73845
G1 X131.928 Y133.851 E9.76909
G1 X132.211 Y132.975 E9.79971
G1 X132.568 Y132.127 E9.83031
G1 X132.998 Y131.312 E9.86096
G1 X133.497 Y130.539 E9.89156
G1 X134.061 Y129.811 E9.92219
G1 X134.686 Y129.135 E9.95281
G0 F6000 X135.078 Y129.311
G1 F1200 X135.902 Y128.599 E9.98903
G1 X136.512 Y128.127 E10.01468
G1 X137.352 Y127.46 E10.05036
G1 X138.018 Y126.946 E10.07834
G1 X138.86 Y126.361 E10.11244
G1 X139.646 Y125.917 E10.14247
G1 X140.469 Y125.544 E10.17252
G1 X141.321 Y125.245 E10.20255
G1 X142.196 Y125.023 E10.23258
G1 X143.088 Y124.879 E10.26263
G1 X143.989 Y124.815 E10.29267
G1 X144.772 Y124.824 E10.31872
G1 X146.094 Y124.89 E10.36274
G1 X148.714 Y124.983 E10.44994
G1 X150.607 Y125.003 E10.5129
G1 X153.172 Y124.967 E10.59822
G1 X155.493 Y124.873 E10.67548
G1 X156.403 Y124.824 E10.70579
G1 X157.306 Y124.816 E10.73583
G1 X158.207 Y124.888 E10.76589
G1 X159.097 Y125.039 E10.79592
G1 X159.971 Y125.269 E10.82597
G1 X160.82 Y125.574 E10.85598
G1 X161.64 Y125.954 E10.88604
G1 X162.422 Y126.405 E10.91606
G1 X163.141 Y126.907 E10.94523
G1 X164.002 Y127.566 E10.98129
G1 X165.416 Y128.676 E11.04108
G1 X166.098 Y129.269 E11.07114
G1 X166.724 Y129.919 E11.10116
G1 X167.291 Y130.622 E11.13119
G1 X167.794 Y131.372 E11.16123
G1 X168.228 Y132.164 E11.19127
G1 X168.591 Y132.991 E11.22131
G1 X168.878 Y133.847 E11.25134
G1 X169.089 Y134.725 E11.28137
G1 X169.222 Y135.618 E11.3114
G1 X169.275 Y136.791 E11.35045
G1 X169.275 Y139.399 E11.43719
G1 X169.248 Y140.127 E11.46142
G1 X169.093 Y142.794 E11.55028
G1 X169.017 Y145.363 E11.63576
G1 X169.013 Y147.896 E11.72001
G1 X169.081 Y150.419 E11.80396
G1 X169.195 Y152.575 E11.87576
G1 X169.235 Y153.153 E11.89504
G1 X169.255 Y153.544 E11.90806
G1 X169.264 Y153.832 E11.91764
G1 X169.252 Y154.735 E11.94768
G1 X169.145 Y155.739 E11.98126
G1 X169.113 Y155.942 E11.98809
G1 X168.893 Y156.982 E12.02345
G1 X168.881 Y157.027 E12.025
G1 X168.609 Y157.889 E12.05506
G1 X168.381 Y158.462 E12.07557
G1 X168.206 Y158.865 E12.09019
G1 X167.792 Y159.835 E12.12527
G1 X167.734 Y159.968 E12.13009
G1 X167.039 Y161.647 E12.19053
G1 X166.896 Y161.977 E12.20249
G1 X166.486 Y162.782 E12.23254
G1 X166.007 Y163.547 E12.26256
G1 X165.262 Y164.5 E12.30279
G1 X164.118 Y165.796 E12.36029
G1 X162.44 Y167.768 E12.44641
G1 X160.88 Y169.71 E12.52926
G1 X160.53 Y170.171 E12.54851
G1 X160.393 Y170.347 E12.55593
G1 X159.966 Y170.884 E12.57875
G1 X159.373 Y171.566 E12.60881
G1 X158.722 Y172.192 E12.63885
G1 X158.332 Y172.519 E12.65577
G1 X158.068 Y172.729 E12.66699
G1 X157.612 Y173.071 E12.68595
G1 X156.854 Y173.563 E12.71601
G1 X155.766 Y174.118 E12.75663
G1 X155.402 Y174.277 E12.76984
G1 X154.559 Y174.602 E12.79989
G1 X153.691 Y174.85 E12.82992
G1 X152.857 Y175.013 E12.85818
G1 X152.516 Y175.065 E12.86965
G1 X151.98 Y175.133 E12.88762
G1 X151.078 Y175.185 E12.91767
G1 X149.802 Y175.122 E12.96017
G1 X149.401 Y175.077 E12.97359
G1 X148.508 Y174.937 E13.00365
G1 X147.632 Y174.718 E13.03368
G1 X146.782 Y174.424 E13.0636
G1 X146.431 Y174.285 E13.07615
G1 X145.607 Y173.916 E13.10618
G1 X144.819 Y173.475 E13.13622
G1 X144.102 Y172.988 E13.16505
G1 X143.767 Y172.739 E13.17893
G1 X143.067 Y172.169 E13.20895
G1 X142.42 Y171.539 E13.23899
G1 X141.872 Y170.906 E13.26684
G1 X140.901 Y169.686 E13.3187
G1 X140.844 Y169.623 E13.32152
G1 X140.037 Y168.604 E13.36476
G1 X138.386 Y166.637 E13.45017
G1 X137.401 Y165.513 E13.49988
G1 X136.717 Y164.746 E13.53406
G1 X136.531 Y164.532 E13.54349
G1 X136.034 Y163.942 E13.56915
G1 X134.754 Y162.455 E13.6344
G1 X133.87 Y161.45 E13.67892
G1 X133.587 Y161.113 E13.69356
G1 X133.421 Y160.907 E13.70236
G1 X132.861 Y160.142 E13.73389
G1 X132.749 Y159.973 E13.74063
G1 X132.182 Y159.006 E13.77792
G1 X132.077 Y158.802 E13.78555
G1 X131.699 Y157.981 E13.81561
G1 X131.484 Y157.402 E13.83615
G1 X131.369 Y157.062 E13.84809
G1 X131.102 Y156.13 E13.88034
G1 X131.054 Y155.926 E13.88731
G1 X130.978 Y155.576 E13.89922
G1 X130.924 Y155.304 E13.90844
G1 X130.754 Y154.037 E13.95096
G1 X130.747 Y153.938 E13.95426
G1 X130.735 Y152.711 E13.99507
G1 X130.753 Y152.35 E14.0071
G1 X130.839 Y151.444 E14.03736
G1 X131.015 Y150.194 E14.07935
G1 X131.034 Y150.073 E14.08342
G1 X131.357 Y147.573 E14.16727
G1 X131.608 Y145.066 E14.25107
G1 X131.793 Y142.494 E14.33683
G1 X131.902 Y139.997 E14.41996
G1 X131.933 Y137.933 E14.48862
G1 X131.939 Y137.826 E14.49218
G1 X131.949 Y136.583 E14.53353
G1 X131.996 Y135.681 E14.56357
G1 X132.123 Y134.787 E14.5936
G1 X132.328 Y133.908 E14.62362
G1 X132.61 Y133.05 E14.65366
G1 X132.967 Y132.22 E14.68371
G1 X133.396 Y131.425 E14.71376
G1 X133.893 Y130.672 E14.74377
G1 X134.456 Y129.965 E14.77382
G1 X135.078 Y129.311 E14.80384
G1 F2700 E9.80384
;MESH:Ravenclaw_Name_Ring.stl
G0 F6000 X142.456 Y135.918
G0 X142.927 Y136.971
G0 X143.742 Y138.156
G0 X143.512 Y138.997
G0 X144.81 Y140.234
G0 X147.094 Y140.519
G0 X148.337 Y140.923
G0 X148.534 Y140.675
G0 X148.954 Y140.445
G0 X152.629 Y140.457
G0 X153.513 Y141.331
G0 X154.322 Y142.378
G0 X155.019 Y143.586
G0 X155.783 Y145.763
G0 X156.011 Y147.334
G0 X156.078 Y149.704
G0 X155.973 Y150.742
G0 X155.008 Y150.832
;TYPE:WALL-OUTER
G1 F2700 E14.80384
G1 F1200 X154.827 Y150.992 E14.81188
G1 X154.724 Y150.807 E14.81892
G1 X155.008 Y150.832 E14.8284
G1 F2700 E9.8284
G0 F6000 X154.648 Y151.649
G0 X154.662 Y151.95
G0 X154.556 Y152.301
G0 X153.924 Y152.302
G0 X153.725 Y152.306
G1 F2700 E14.8284
G1 F1200 X153.621 Y152.233 E14.83263
G1 X153.35 Y152.234 E14.84164
G1 X153.344 Y152.119 E14.84547
G1 X153.575 Y152.152 E14.85323
G1 X153.725 Y152.123 E14.85832
G1 X153.725 Y152.306 E14.8644
G0 F6000 X153.868 Y152.931
G0 X153.54 Y153.428
G1 F1200 X153.725 Y153.352 E14.87105
G1 X153.725 Y153.533 E14.87707
G1 X153.631 Y153.452 E14.8812
G1 X153.54 Y153.428 E14.88433
G1 F2700 E9.88433
G0 F6000 X153.054 Y153.225
G0 X151.257 Y152.477
G0 X151.069 Y151.877
G1 F2700 E14.88433
G1 F1200 X150.992 Y151.848 E14.88707
G1 X151.069 Y151.768 E14.89076
G1 X151.069 Y151.877 E14.89439
G1 F2700 E9.89439
G0 F6000 X150.419 Y151.306
G0 X148.024 Y149.398
G0 X144.037 Y145.81
G0 X144.124 Y147.11
G0 X143.422 Y146.761
G1 F2700 E14.89439
G1 F1200 X143.429 Y146.737 E14.89522
G1 X143.434 Y146.735 E14.8954
G1 X143.422 Y146.761 E14.89635
G1 F2700 E9.89635
G0 F6000 X143.403 Y148.919
G0 X144.13 Y148.83
G0 X144.662 Y149.917
G1 F2700 E14.89635
G1 F1200 X144.345 Y149.917 E14.90689
G1 X144.335 Y149.668 E14.91518
G1 X144.289 Y149.592 E14.91814
G1 X144.316 Y149.559 E14.91956
G1 X144.393 Y149.782 E14.9274
G1 X144.522 Y149.889 E14.93298
G1 X144.662 Y149.917 E14.93772
G1 F2700 E9.93772
G0 F6000 X144.472 Y150.087
G0 X144.376 Y151.562
G1 F2700 E14.93772
G1 F1200 X144.348 Y151.292 E14.94675
G1 X144.344 Y151.021 E14.95577
G1 X144.346 Y150.573 E14.97067
