;FLAVOR:Marlin
;TIME:657
;Filament used: 0.206396m
;Layer height: 0.2
;MINX:129.927
;MINY:124.017
;MINZ:0.2
;MAXX:170.081
;MAXY:175.984
;MAXZ:1.8
;Generated with Cura_SteamEngine 4.11.0
M140 S50
M105
M190 S50
M104 S200
M105
M109 S200
M82 ;absolute extrusion mode
M201 X500.00 Y500.00 Z100.00 E5000.00 ;Setup machine max acceleration
M203 X500.00 Y500.00 Z10.00 E50.00 ;Setup machine max feedrate
M204 P500.00 R1000.00 T500.00 ;Setup Print/Retract/Travel acceleration
M205 X8.00 Y8.00 Z0.40 E5.00 ;Setup Jerk
M220 S100 ;Reset Feedrate
M221 S100 ;Reset Flowrate

G28 ;Home

G92 E0 ;Reset Extruder
G1 Z2.0 F3000 ;Move Z Axis up
G1 X10.1 Y20 Z0.28 F5000.0 ;Move to start position
G1 X10.1 Y200.0 Z0.28 F1500.0 E15 ;Draw the first line
G1 X10.4 Y200.0 Z0.28 F5000.0 ;Move to side a little
G1 X10.4 Y20 Z0.28 F1500.0 E30 ;Draw the second line
G92 E0 ;Reset Extruder
G1 Z2.0 F3000 ;Move Z Axis up

G92 E0
G92 E0
G1 F2700 E-5
;LAYER_COUNT:10
;LAYER:0
M107
G0 F6000 X133.744 Y128.905 Z0.2
;TYPE:SKIRT
G1 F2700 E0
G1 F1200 X134.434 Y128.269 E0.03121
G1 X134.876 Y127.914 E0.05007
G1 X135.866 Y127.16 E0.09146
G1 X136.527 Y126.669 E0.11884
G1 X136.686 Y126.547 E0.12551
G1 X137.14 Y126.207 E0.14437
G1 X137.914 Y125.678 E0.17556
G1 X138.73 Y125.216 E0.20674
G1 X139.583 Y124.825 E0.23795
G1 X140.466 Y124.509 E0.26915
G1 X141.373 Y124.268 E0.30036
G1 X142.296 Y124.106 E0.33153
G1 X143.231 Y124.024 E0.36275
G1 X144.345 Y124.029 E0.3998
G1 X146.485 Y124.148 E0.47109
G1 X149.016 Y124.218 E0.5553
G1 X151.54 Y124.216 E0.63925
G1 X153.998 Y124.145 E0.72103
G1 X154.814 Y124.095 E0.74823
G1 X154.964 Y124.092 E0.75322
G1 X156.318 Y124.024 E0.79831
G1 X157.256 Y124.017 E0.82951
G1 X158.191 Y124.089 E0.8607
G1 X159.116 Y124.241 E0.89187
G1 X160.025 Y124.472 E0.92307
G1 X160.912 Y124.779 E0.95429
G1 X161.769 Y125.16 E0.98548
G1 X162.59 Y125.613 E1.01667
G1 X163.477 Y126.214 E1.0523
G1 X165.584 Y127.796 E1.13994
G1 X166.276 Y128.361 E1.16965
G1 X166.373 Y128.447 E1.17396
G1 X167.048 Y129.099 E1.20518
G1 X167.665 Y129.805 E1.23636
G1 X168.219 Y130.562 E1.26756
G1 X168.707 Y131.363 E1.29876
G1 X169.124 Y132.203 E1.32995
G1 X169.469 Y133.075 E1.36114
G1 X169.738 Y133.973 E1.39232
G1 X169.93 Y134.891 E1.42351
G1 X170.043 Y135.822 E1.45471
G1 X170.076 Y136.583 E1.48004
G1 X170.081 Y137.162 E1.4993
G1 X170.073 Y137.992 E1.52691
G1 X170.075 Y139.379 E1.57304
G1 X170.071 Y139.683 E1.58315
G1 X170.037 Y140.987 E1.62654
G1 X170 Y143.27 E1.70248
G1 X170.026 Y145.777 E1.78587
G1 X170.07 Y147.013 E1.827
G1 X170.051 Y148.155 E1.86499
G1 X170.026 Y148.508 E1.87676
G1 X169.772 Y151.533 E1.97773
G1 X169.697 Y152.665 E2.01546
G1 X169.594 Y153.597 E2.04665
G1 X169.513 Y154.063 E2.06238
G1 X169.318 Y155.05 E2.09584
G1 X168.726 Y158.357 E2.20758
G1 X168.567 Y159.34 E2.2407
G1 X168.378 Y160.259 E2.27191
G1 X168.012 Y161.437 E2.31293
G1 X167.601 Y162.538 E2.35202
G1 X167.28 Y163.428 E2.38349
G1 X167.054 Y164.026 E2.40475
G1 X166.683 Y164.887 E2.43593
G1 X166.37 Y165.489 E2.4585
G1 X166.305 Y165.605 E2.46292
G1 X165.812 Y166.403 E2.49412
G1 X165.253 Y167.156 E2.52531
G1 X164.632 Y167.859 E2.55651
G1 X163.786 Y168.649 E2.59501
G1 X163.331 Y169.03 E2.61475
G1 X162.997 Y169.304 E2.62912
G1 X162.414 Y169.775 E2.65405
G1 X159.811 Y172.024 E2.76846
G1 X159.067 Y172.691 E2.80169
G1 X158.562 Y173.117 E2.82367
G1 X158.256 Y173.36 E2.83667
G1 X157.774 Y173.722 E2.85671
G1 X156.988 Y174.234 E2.88791
G1 X155.783 Y174.851 E2.93294
G1 X155.419 Y175.01 E2.94615
G1 X154.545 Y175.349 E2.97733
G1 X153.644 Y175.611 E3.00854
G1 X152.674 Y175.804 E3.04144
G1 X152.333 Y175.856 E3.05291
G1 X151.758 Y175.929 E3.07219
G1 X150.822 Y175.984 E3.10337
G1 X149.885 Y175.96 E3.13455
G1 X149.4 Y175.916 E3.15074
G1 X149.002 Y175.871 E3.16407
G1 X148.076 Y175.726 E3.19524
G1 X147.165 Y175.503 E3.22643
G1 X146.212 Y175.178 E3.25992
G1 X145.856 Y175.038 E3.27265
G1 X144.999 Y174.658 E3.30383
G1 X144.177 Y174.206 E3.33503
G1 X143.35 Y173.652 E3.36814
G1 X143.018 Y173.407 E3.38186
G1 X142.729 Y173.186 E3.39396
G1 X142.23 Y172.79 E3.41515
G1 X140.935 Y171.736 E3.47068
G1 X138.902 Y170.176 E3.55591
G1 X137.87 Y169.426 E3.59835
G1 X137.459 Y169.118 E3.61543
G1 X136.713 Y168.505 E3.64754
G1 X136.655 Y168.453 E3.65013
G1 X135.984 Y167.798 E3.68132
G1 X135.371 Y167.088 E3.71252
G1 X134.821 Y166.328 E3.74372
G1 X134.338 Y165.525 E3.77489
G1 X133.925 Y164.683 E3.80608
G1 X133.652 Y164 E3.83055
G1 X133.383 Y163.251 E3.85701
G1 X133.092 Y162.404 E3.8868
G1 X132.727 Y161.38 E3.92296
G1 X132.45 Y160.484 E3.95415
G1 X132.256 Y159.595 E3.98442
G1 X132.095 Y158.677 E4.01542
G1 X131.932 Y157.662 E4.04961
G1 X131.469 Y155.211 E4.13257
G1 X130.929 Y152.749 E4.2164
G1 X130.551 Y151.19 E4.26976
G1 X130.316 Y150.255 E4.30182
G1 X130.225 Y149.864 E4.31517
G1 X130.183 Y149.667 E4.32187
G1 X129.994 Y148.453 E4.36274
G1 X129.979 Y148.301 E4.36782
G1 X129.927 Y147.365 E4.399
G1 X129.987 Y146.067 E4.44222
G1 X130.031 Y145.649 E4.4562
G1 X130.269 Y143.061 E4.54264
G1 X130.429 Y140.542 E4.62659
G1 X130.531 Y137.374 E4.73201
G1 X130.544 Y136.496 E4.76122
G1 X130.598 Y135.56 E4.7924
G1 X130.732 Y134.631 E4.82362
G1 X130.945 Y133.718 E4.8548
G1 X131.234 Y132.826 E4.88599
G1 X131.598 Y131.961 E4.9172
G1 X132.035 Y131.131 E4.9484
G1 X132.541 Y130.342 E4.97957
G1 X133.112 Y129.598 E5.01077
G1 X133.744 Y128.905 E5.04196
G0 F6000 X134.136 Y129.08
G1 F1200 X135.118 Y128.232 E5.08511
G1 X136.104 Y127.482 E5.12632
G1 X136.722 Y127.024 E5.1519
G1 X136.926 Y126.868 E5.16044
G1 X137.38 Y126.528 E5.17931
G1 X138.14 Y126.008 E5.20994
G1 X138.943 Y125.557 E5.24057
G1 X139.781 Y125.177 E5.27117
G1 X140.649 Y124.871 E5.30178
G1 X141.541 Y124.641 E5.33242
G1 X142.449 Y124.49 E5.36304
G1 X143.367 Y124.418 E5.39366
G1 X144.323 Y124.428 E5.42546
G1 X146.487 Y124.548 E5.49755
G1 X149.005 Y124.618 E5.58133
G1 X151.517 Y124.616 E5.66488
G1 X154.064 Y124.542 E5.74963
G1 X154.838 Y124.495 E5.77542
G1 X154.95 Y124.493 E5.77915
G1 X156.338 Y124.423 E5.82537
G1 X157.259 Y124.417 E5.856
G1 X158.176 Y124.491 E5.8866
G1 X159.084 Y124.643 E5.91722
G1 X159.975 Y124.875 E5.94784
G1 X160.843 Y125.182 E5.97847
G1 X161.681 Y125.564 E6.0091
G1 X162.483 Y126.017 E6.03973
G1 X163.237 Y126.533 E6.07012
G1 X165.344 Y128.115 E6.15776
G1 X166.011 Y128.66 E6.1864
G1 X166.108 Y128.746 E6.19072
G1 X166.77 Y129.387 E6.22136
G1 X167.373 Y130.082 E6.25197
G1 X167.915 Y130.827 E6.28261
G1 X168.389 Y131.616 E6.31322
G1 X168.793 Y132.443 E6.34384
G1 X169.124 Y133.302 E6.37445
G1 X169.379 Y134.187 E6.40509
G1 X169.556 Y135.09 E6.43569
G1 X169.655 Y136.005 E6.4663
G1 X169.676 Y136.586 E6.48564
G1 X169.681 Y137.165 E6.5049
G1 X169.673 Y137.993 E6.53244
G1 X169.675 Y139.38 E6.57857
G1 X169.671 Y139.672 E6.58828
G1 X169.637 Y140.98 E6.6318
G1 X169.6 Y143.268 E6.70791
G1 X169.627 Y145.794 E6.79193
G1 X169.67 Y147.027 E6.83297
G1 X169.652 Y148.127 E6.86956
G1 X169.627 Y148.474 E6.88113
G1 X169.376 Y151.471 E6.98116
G1 X169.298 Y152.638 E7.02006
G1 X169.12 Y153.985 E7.06525
G1 X168.939 Y154.903 E7.09637
G1 X168.324 Y158.334 E7.21231
G1 X168.172 Y159.276 E7.24404
G1 X167.986 Y160.178 E7.27467
G1 X167.637 Y161.297 E7.31366
G1 X167.244 Y162.349 E7.35101
G1 X166.904 Y163.292 E7.38435
G1 X166.68 Y163.884 E7.4054
G1 X166.316 Y164.729 E7.43601
G1 X166.021 Y165.294 E7.45721
G1 X165.956 Y165.41 E7.46163
G1 X165.472 Y166.192 E7.49222
G1 X164.921 Y166.93 E7.52285
G1 X164.309 Y167.618 E7.55347
G1 X163.528 Y168.343 E7.58892
G1 X163.078 Y168.721 E7.60847
G1 X162.746 Y168.993 E7.62274
G1 X162.154 Y169.472 E7.64807
G1 X159.534 Y171.734 E7.76319
G1 X158.8 Y172.393 E7.796
G1 X158.313 Y172.804 E7.8172
G1 X158.007 Y173.047 E7.83019
G1 X157.541 Y173.397 E7.84958
G1 X156.769 Y173.899 E7.88021
G1 X155.623 Y174.485 E7.92302
G1 X155.259 Y174.644 E7.93623
G1 X154.4 Y174.975 E7.96685
G1 X153.516 Y175.231 E7.99746
G1 X152.614 Y175.409 E8.02803
G1 X152.273 Y175.461 E8.03951
G1 X151.718 Y175.531 E8.05811
G1 X150.798 Y175.585 E8.08877
G1 X149.445 Y175.519 E8.13382
G1 X149.047 Y175.474 E8.14714
G1 X148.138 Y175.331 E8.17775
G1 X147.244 Y175.109 E8.20838
G1 X146.359 Y174.806 E8.2395
G1 X146.003 Y174.666 E8.25222
G1 X145.161 Y174.292 E8.28286
G1 X144.356 Y173.846 E8.31347
G1 X143.588 Y173.33 E8.34425
G1 X143.256 Y173.085 E8.35797
G1 X142.977 Y172.872 E8.36964
G1 X142.482 Y172.479 E8.39067
G1 X141.168 Y171.41 E8.44701
G1 X139.183 Y169.887 E8.53022
G1 X138.239 Y169.201 E8.56903
G1 X137.699 Y168.797 E8.59146
G1 X136.98 Y168.207 E8.6224
G1 X136.922 Y168.155 E8.62499
G1 X136.264 Y167.512 E8.65559
G1 X135.664 Y166.813 E8.68623
G1 X135.127 Y166.065 E8.71685
G1 X134.657 Y165.274 E8.74746
G1 X134.258 Y164.444 E8.77809
G1 X134.028 Y163.864 E8.79884
G1 X133.816 Y163.277 E8.8196
G1 X133.491 Y162.332 E8.85284
G1 X133.104 Y161.246 E8.89118
G1 X132.833 Y160.366 E8.92181
G1 X132.649 Y159.525 E8.95044
G1 X132.49 Y158.614 E8.9812
G1 X132.327 Y157.596 E9.01549
G1 X131.864 Y155.149 E9.09832
G1 X131.308 Y152.613 E9.18467
G1 X130.94 Y151.095 E9.23662
G1 X130.704 Y150.157 E9.26879
G1 X130.616 Y149.78 E9.28167
G1 X130.574 Y149.583 E9.28837
G1 X130.392 Y148.414 E9.32772
G1 X130.377 Y148.262 E9.3328
G1 X130.327 Y147.343 E9.36341
G1 X130.384 Y146.109 E9.4045
G1 X130.436 Y145.616 E9.42098
G1 X130.665 Y143.125 E9.50418
G1 X130.829 Y140.548 E9.59007
G1 X130.93 Y137.44 E9.6935
G1 X130.944 Y136.502 E9.7247
G1 X130.998 Y135.583 E9.75532
G1 X131.132 Y134.672 E9.78594
G1 X131.344 Y133.776 E9.81657
G1 X131.633 Y132.902 E9.84718
G1 X131.996 Y132.056 E9.8778
G1 X132.432 Y131.245 E9.90843
G1 X132.937 Y130.475 E9.93905
G1 X133.506 Y129.752 E9.96966
G1 X134.136 Y129.08 E10.00029
G0 F6000 X134.527 Y129.259
G1 F1200 X135.361 Y128.55 E10.0367
G1 X136.343 Y127.803 E10.07774
G1 X137.018 Y127.301 E10.10572
G1 X137.62 Y126.848 E10.13077
G1 X138.366 Y126.339 E10.16081
G1 X139.154 Y125.898 E10.19085
G1 X139.978 Y125.529 E10.22087
G1 X140.832 Y125.234 E10.25093
G1 X141.708 Y125.015 E10.28096
G1 X142.6 Y124.875 E10.31099
G1 X143.501 Y124.815 E10.34102
G1 X144.301 Y124.828 E10.36763
G1 X146.455 Y124.948 E10.43939
G1 X148.994 Y125.018 E10.52387
G1 X151.528 Y125.016 E10.60815
G1 X154.07 Y124.942 E10.69273
G1 X154.863 Y124.894 E10.71916
G1 X154.993 Y124.892 E10.72348
G1 X156.358 Y124.823 E10.76894
G1 X157.261 Y124.817 E10.79897
G1 X158.161 Y124.892 E10.82901
G1 X159.051 Y125.046 E10.85905
G1 X159.924 Y125.277 E10.88909
G1 X160.773 Y125.585 E10.91913
G1 X161.591 Y125.967 E10.94915
G1 X162.373 Y126.42 E10.97921
G1 X162.996 Y126.853 E11.00445
G1 X165.103 Y128.435 E11.09208
G1 X165.746 Y128.96 E11.11969
G1 X165.843 Y129.046 E11.124
G1 X166.491 Y129.674 E11.15401
G1 X167.082 Y130.358 E11.18408
G1 X167.609 Y131.09 E11.21408
G1 X168.07 Y131.867 E11.24413
G1 X168.46 Y132.682 E11.27418
G1 X168.777 Y133.527 E11.3042
G1 X169.018 Y134.398 E11.33425
G1 X169.181 Y135.286 E11.36428
G1 X169.276 Y136.59 E11.40777
G1 X169.281 Y137.169 E11.42703
G1 X169.273 Y137.993 E11.45444
G1 X169.275 Y139.38 E11.50057
G1 X169.272 Y139.662 E11.50995
G1 X169.235 Y141.075 E11.55696
G1 X169.2 Y143.262 E11.62971
G1 X169.226 Y145.772 E11.7132
G1 X169.271 Y147.041 E11.75543
G1 X169.253 Y148.1 E11.79066
G1 X169.228 Y148.441 E11.80203
G1 X168.974 Y151.473 E11.90323
G1 X168.898 Y152.611 E11.94116
G1 X168.728 Y153.908 E11.98467
G1 X168.539 Y154.867 E12.01718
G1 X167.931 Y158.257 E12.13173
G1 X167.777 Y159.213 E12.16394
G1 X167.594 Y160.097 E12.19396
G1 X167.263 Y161.157 E12.2309
G1 X166.828 Y162.322 E12.27226
G1 X166.465 Y163.326 E12.30777
G1 X166.307 Y163.741 E12.32254
G1 X165.948 Y164.57 E12.35258
G1 X165.672 Y165.098 E12.3724
G1 X165.607 Y165.214 E12.37682
G1 X165.131 Y165.982 E12.40687
G1 X164.589 Y166.704 E12.4369
G1 X163.986 Y167.376 E12.46693
G1 X163.271 Y168.037 E12.49932
G1 X162.824 Y168.412 E12.51872
G1 X162.494 Y168.682 E12.53291
G1 X161.906 Y169.157 E12.55805
G1 X159.235 Y171.465 E12.67546
G1 X158.532 Y172.095 E12.70685
G1 X158.064 Y172.491 E12.72724
G1 X157.758 Y172.734 E12.74024
G1 X157.309 Y173.071 E12.75891
G1 X156.551 Y173.563 E12.78897
G1 X155.463 Y174.118 E12.82959
G1 X155.099 Y174.277 E12.8428
G1 X154.256 Y174.602 E12.87285
G1 X153.388 Y174.85 E12.90288
G1 X152.554 Y175.013 E12.93114
G1 X152.213 Y175.065 E12.94261
G1 X151.677 Y175.133 E12.96058
G1 X150.775 Y175.185 E12.99063
G1 X149.49 Y175.121 E13.03343
G1 X149.092 Y175.076 E13.04675
G1 X148.2 Y174.935 E13.07679
G1 X147.324 Y174.716 E13.10682
G1 X146.505 Y174.433 E13.13564
G1 X146.149 Y174.293 E13.14836
G1 X145.324 Y173.926 E13.17839
G1 X144.535 Y173.487 E13.20842
G1 X143.825 Y173.008 E13.23691
G1 X143.493 Y172.763 E13.25063
G1 X143.225 Y172.558 E13.26186
G1 X142.734 Y172.169 E13.28269
G1 X141.418 Y171.098 E13.33913
G1 X139.398 Y169.548 E13.42381
G1 X138.35 Y168.785 E13.46693
G1 X137.939 Y168.477 E13.48401
G1 X137.247 Y167.91 E13.51376
G1 X137.189 Y167.858 E13.51636
G1 X136.544 Y167.226 E13.54639
G1 X135.957 Y166.539 E13.57644
G1 X135.434 Y165.803 E13.60648
G1 X134.977 Y165.024 E13.63651
G1 X134.591 Y164.207 E13.66657
G1 X134.404 Y163.728 E13.68367
G1 X134.192 Y163.141 E13.70443
G1 X133.853 Y162.155 E13.73911
G1 X133.481 Y161.112 E13.77594
G1 X133.216 Y160.249 E13.80596
G1 X133.043 Y159.456 E13.83296
G1 X132.885 Y158.551 E13.86352
G1 X132.721 Y157.524 E13.89811
G1 X132.256 Y155.068 E13.98124
G1 X131.698 Y152.52 E14.068
G1 X131.329 Y151.001 E14.11999
G1 X131.092 Y150.06 E14.15227
G1 X131.007 Y149.697 E14.16467
G1 X130.965 Y149.5 E14.17137
G1 X130.79 Y148.375 E14.20923
G1 X130.775 Y148.223 E14.21431
G1 X130.726 Y147.321 E14.24436
G1 X130.782 Y146.151 E14.28332
G1 X130.834 Y145.658 E14.29981
G1 X131.068 Y143.113 E14.38481
G1 X131.227 Y140.619 E14.46793
G1 X131.33 Y137.4 E14.57505
G1 X131.344 Y136.508 E14.60472
G1 X131.398 Y135.606 E14.63477
G1 X131.531 Y134.713 E14.6648
G1 X131.743 Y133.835 E14.69484
G1 X132.031 Y132.98 E14.72485
G1 X132.394 Y132.153 E14.75489
G1 X132.829 Y131.361 E14.78495
G1 X133.332 Y130.611 E14.81498
G1 X133.9 Y129.909 E14.84502
G1 X134.527 Y129.259 E14.87505
G1 F2700 E9.87505
;MESH:Hufflepuff_Name_Ring.stl
G0 F6000 X143.014 Y143.503
G0 X143.938 Y143.852
G0 X144.266 Y144.954
G0 X144.545 Y145.022
G0 X144.258 Y145.845
G1 F2700 E14.87505
G0 F6000 X144.243 Y145.874
;TYPE:WALL-OUTER
G1 F1200 X144.295 Y146.125 E14.88358
G1 X144.29 Y146.872 E14.90842
G1 X144.288 Y147.494 E14.92911
G1 X144.199 Y147.57 E14.93301
G1 X144.06 Y147.644 E14.93824
G1 X144.064 Y146.301 E14.98291
G1 X144.097 Y146.208 E14.98619
G1 X144.233 Y146.015 E14.99405
G1 X144.243 Y145.874 E14.99875
G1 F2700 E9.99875
G0 F6000 X144.258 Y145.845
G0 X144.007 Y146.014
G0 X142.94 Y146.783
G0 X142.259 Y147.499
G1 F2700 E14.99875
G1 F1200 X142.505 Y147.64 E15.00818
G1 X142.752 Y147.584 E15.0166
G1 X142.753 Y147.854 E15.02558
G1 X142.492 Y147.843 E15.03427
G1 X142.268 Y147.728 E15.04265
G1 X142.259 Y147.499 E15.05027
G1 F2700 E10.05027
G0 F6000 X142.64 Y147.735
G0 X143.882 Y148.413
G0 X144.071 Y149.703
G1 F2700 E15.05027
G1 F1200 X144.065 Y149.339 E15.06238
G1 X144.066 Y148.786 E15.08077
G1 X144.058 Y148.495 E15.09045
G1 X144.216 Y148.45 E15.09592
G1 X144.22 Y149.22 E15.12153
G1 X144.211 Y149.408 E15.12779
G1 X144.124 Y149.497 E15.13193
G1 X144.071 Y149.703 E15.139
G0 F6000 X144.248 Y150.166
G0 X144.693 Y150.498
G0 X144.825 Y150.211
G0 X145.164 Y150.413
G0 X145.618 Y149.738
G0 X145.601 Y149.009
G0 X145.811 Y147.711
G0 X145.864 Y146.942
;TYPE:WALL-INNER
G1 F1200 X145.864 Y146.779 E15.14442
G1 X145.863 Y146.621 E15.14968
G1 X145.997 Y146.37 E15.15914
G1 X146.191 Y146.475 E15.16317
G1 X146.376 Y146.576 E15.17018
G1 X146.459 Y146.615 E15.17323
G1 X146.632 Y146.696 E15.17958
G1 X146.45 Y146.635 E15.17975
G1 X146.402 Y146.651
G1 X146.125 Y146.745 E15.18521
G1 X146.027 Y146.778 E15.1871
G1 X145.864 Y146.942 E15.18996
G0 F6000 X145.786 Y146.212
G0 X145.78 Y145.913
G0 X145.45 Y145.893
G0 X144.232 Y144.692
G1 F1200 X144.094 Y144.729 E15.19471
G1 X144.11 Y144.662
G1 X144.158 Y144.473 E15.19816
G1 X144.167 Y144.44 E15.19837
G1 X144.197 Y144.132 E15.20866
G1 X144.206 Y144.068 E15.21081
G1 X144.267 Y143.67 E15.2242
G1 X144.353 Y143.443 E15.23227
G1 X144.479 Y143.138 E15.24325
G1 X144.713 Y142.769 E15.25778
G1 X144.769 Y142.764 E15.25965
G1 X145.008 Y142.443 E15.27296
G1 X145.164 Y142.29 E15.28023
