;FLAVOR:Marlin
;TIME:713
;Filament used: 0.190378m
;Layer height: 0.2
;MINX:128.909
;MINY:124.021
;MINZ:0.2
;MAXX:171.088
;MAXY:175.986
;MAXZ:2
;Generated with Cura_SteamEngine 4.11.0
M140 S50
M105
M190 S50
M104 S200
M105
M109 S200
M82 ;absolute extrusion mode
M201 X500.00 Y500.00 Z100.00 E5000.00 ;Setup machine max acceleration
M203 X500.00 Y500.00 Z10.00 E50.00 ;Setup machine max feedrate
M204 P500.00 R1000.00 T500.00 ;Setup Print/Retract/Travel acceleration
M205 X8.00 Y8.00 Z0.40 E5.00 ;Setup Jerk
M220 S100 ;Reset Feedrate
M221 S100 ;Reset Flowrate

G28 ;Home

G92 E0 ;Reset Extruder
G1 Z2.0 F3000 ;Move Z Axis up
G1 X10.1 Y20 Z0.28 F5000.0 ;Move to start position
G1 X10.1 Y200.0 Z0.28 F1500.0 E15 ;Draw the first line
G1 X10.4 Y200.0 Z0.28 F5000.0 ;Move to side a little
G1 X10.4 Y20 Z0.28 F1500.0 E30 ;Draw the second line
G92 E0 ;Reset Extruder
G1 Z2.0 F3000 ;Move Z Axis up

G92 E0
G92 E0
G1 F2700 E-5
;LAYER_COUNT:10
;LAYER:0
M107
G0 F6000 X138.722 Y130.408 Z0.2
;TYPE:SKIRT
G1 F2700 E0
G1 F1200 X138.949 Y130.169 E0.01096
G1 X139.177 Y129.936 E0.02181
G1 X139.437 Y129.678 E0.03399
G1 X139.742 Y129.387 E0.04801
G1 X140.162 Y129.001 E0.06698
G1 X140.364 Y128.82 E0.076
G1 X140.611 Y128.604 E0.08692
G1 X140.818 Y128.427 E0.09598
G1 X141.121 Y128.175 E0.10908
G1 X141.376 Y127.969 E0.11999
G1 X141.661 Y127.746 E0.13202
G1 X141.923 Y127.547 E0.14296
G1 X142.403 Y127.194 E0.16278
G1 X142.978 Y126.786 E0.18623
G1 X143.23 Y126.614 E0.19638
G1 X144.045 Y126.072 E0.22893
G1 X144.863 Y125.577 E0.26073
G1 X145.123 Y125.435 E0.27059
G1 X145.965 Y125.021 E0.30179
G1 X146.577 Y124.773 E0.32376
G1 X146.758 Y124.706 E0.33018
G1 X147.651 Y124.418 E0.36138
G1 X148.565 Y124.208 E0.39258
G1 X149.493 Y124.075 E0.42376
G1 X150.105 Y124.032 E0.44416
G1 X150.361 Y124.021 E0.45269
G1 X151.299 Y124.021 E0.48388
G1 X152.408 Y124.124 E0.52093
G1 X152.567 Y124.147 E0.52627
G1 X153.488 Y124.321 E0.55745
G1 X154.225 Y124.52 E0.58284
G1 X154.716 Y124.671 E0.59992
G1 X155.6 Y124.985 E0.63112
G1 X156.194 Y125.245 E0.65269
G1 X156.386 Y125.336 E0.65976
G1 X157.151 Y125.736 E0.68847
G1 X157.658 Y126.027 E0.70791
G1 X157.892 Y126.165 E0.71695
G1 X158.083 Y126.281 E0.72438
G1 X158.459 Y126.52 E0.7392
G1 X158.724 Y126.696 E0.74978
G1 X159.089 Y126.949 E0.76455
G1 X159.339 Y127.13 E0.77482
G1 X159.602 Y127.326 E0.78572
G1 X159.907 Y127.561 E0.79853
G1 X160.214 Y127.807 E0.81162
G1 X160.372 Y127.938 E0.81844
G1 X160.611 Y128.142 E0.82889
G1 X161.204 Y128.663 E0.85515
G1 X161.538 Y128.969 E0.87021
G1 X161.8 Y129.219 E0.88226
G1 X162.059 Y129.474 E0.89435
G1 X162.471 Y129.894 E0.91392
G1 X162.733 Y130.171 E0.9266
G1 X162.97 Y130.43 E0.93827
G1 X163.183 Y130.67 E0.94895
G1 X163.426 Y130.952 E0.96133
G1 X163.917 Y131.536 E0.9867
G1 X164.155 Y131.83 E0.99929
G1 X164.618 Y132.424 E1.02433
G1 X164.926 Y132.834 E1.04139
G1 X165.117 Y133.096 E1.05217
G1 X165.326 Y133.392 E1.06423
G1 X165.481 Y133.618 E1.07334
G1 X165.815 Y134.117 E1.09331
G1 X166.001 Y134.404 E1.10469
G1 X166.303 Y134.887 E1.12363
G1 X166.547 Y135.298 E1.13953
G1 X166.628 Y135.441 E1.145
G1 X166.781 Y135.72 E1.15558
G1 X166.928 Y135.998 E1.16604
G1 X167.302 Y136.778 E1.19481
G1 X167.356 Y136.903 E1.19934
G1 X167.512 Y137.284 E1.21303
G1 X167.955 Y138.425 E1.25374
G1 X168.254 Y139.302 E1.28456
G1 X168.324 Y139.54 E1.29281
G1 X168.524 Y140.324 E1.31972
G1 X169.073 Y142.868 E1.40628
G1 X169.656 Y145.244 E1.48765
G1 X169.848 Y145.929 E1.51132
G1 X169.881 Y146.068 E1.51607
G1 X170.247 Y147.441 E1.56333
G1 X170.387 Y148.034 E1.58359
G1 X170.563 Y148.88 E1.61233
G1 X170.623 Y149.19 E1.62284
G1 X170.661 Y149.405 E1.6301
G1 X170.892 Y150.627 E1.67146
G1 X171.027 Y151.555 E1.70265
G1 X171.079 Y152.336 E1.72869
G1 X171.088 Y152.631 E1.7385
G1 X171.076 Y153.568 E1.76967
G1 X170.985 Y154.502 E1.80088
G1 X170.856 Y155.239 E1.82577
G1 X170.807 Y155.471 E1.83365
G1 X170.574 Y156.38 E1.86486
G1 X170.25 Y157.301 E1.89734
G1 X170.087 Y157.702 E1.91173
G1 X169.859 Y158.237 E1.93108
G1 X169.363 Y159.375 E1.97237
G1 X168.88 Y160.567 E2.01514
G1 X168.606 Y161.216 E2.03857
G1 X168.205 Y162.064 E2.06977
G1 X167.733 Y162.875 E2.10098
G1 X167.193 Y163.642 E2.13218
G1 X166.6 Y164.35 E2.1629
G1 X166.404 Y164.565 E2.17257
G1 X164.716 Y166.476 E2.25738
G1 X163.098 Y168.414 E2.34135
G1 X161.51 Y170.431 E2.42673
G1 X161.223 Y170.812 E2.4426
G1 X161.071 Y171.01 E2.4509
G1 X160.855 Y171.284 E2.4625
G1 X160.243 Y171.995 E2.49371
G1 X159.573 Y172.651 E2.52489
G1 X159.052 Y173.092 E2.5476
G1 X158.694 Y173.376 E2.56279
G1 X157.935 Y173.927 E2.59399
G1 X157.132 Y174.411 E2.62517
G1 X156.234 Y174.85 E2.65842
G1 X155.925 Y174.984 E2.66962
G1 X155.514 Y175.153 E2.6844
G1 X154.627 Y175.46 E2.71562
G1 X153.718 Y175.69 E2.74681
G1 X153.122 Y175.797 E2.76695
G1 X152.672 Y175.865 E2.78208
G1 X151.739 Y175.965 E2.81329
G1 X150.801 Y175.986 E2.8445
G1 X149.752 Y175.914 E2.87947
G1 X149.341 Y175.866 E2.89323
G1 X148.415 Y175.717 E2.92443
G1 X147.505 Y175.491 E2.95562
G1 X146.58 Y175.173 E2.98815
G1 X146.144 Y175.001 E3.00374
G1 X145.287 Y174.619 E3.03494
G1 X144.466 Y174.167 E3.06612
G1 X143.63 Y173.604 E3.09964
G1 X143.398 Y173.432 E3.10924
G1 X143.103 Y173.206 E3.1216
G1 X142.388 Y172.599 E3.1528
G1 X141.728 Y171.933 E3.18399
G1 X141.256 Y171.378 E3.20822
G1 X139.912 Y169.689 E3.28001
G1 X139.448 Y169.1 E3.30495
G1 X137.801 Y167.115 E3.39074
G1 X136.381 Y165.498 E3.46231
G1 X135.496 Y164.505 E3.50655
G1 X135.293 Y164.271 E3.51686
G1 X134.443 Y163.264 E3.56069
G1 X133.05 Y161.675 E3.63097
G1 X132.103 Y160.565 E3.6795
G1 X131.543 Y159.852 E3.70965
G1 X131.358 Y159.595 E3.72018
G1 X130.843 Y158.812 E3.75136
G1 X130.566 Y158.319 E3.77016
G1 X130.433 Y158.068 E3.77961
G1 X130.03 Y157.222 E3.81078
G1 X129.777 Y156.571 E3.83401
G1 X129.677 Y156.287 E3.84402
G1 X129.513 Y155.78 E3.86175
G1 X129.473 Y155.646 E3.8664
G1 X129.296 Y154.981 E3.88929
G1 X129.249 Y154.778 E3.89622
G1 X129.188 Y154.497 E3.90578
G1 X129.129 Y154.208 E3.91559
G1 X128.981 Y153.282 E3.94678
G1 X128.919 Y152.519 E3.97224
G1 X128.909 Y152.304 E3.9794
G1 X128.909 Y151.28 E4.01346
G1 X128.919 Y151.066 E4.02058
G1 X129.003 Y150.131 E4.05181
G1 X129.104 Y149.505 E4.0729
G1 X129.171 Y149.156 E4.08472
G1 X129.477 Y147.942 E4.12636
G1 X129.534 Y147.76 E4.1327
G1 X129.79 Y147.032 E4.15837
G1 X130.092 Y146.264 E4.18582
G1 X130.302 Y145.746 E4.20441
G1 X130.462 Y145.358 E4.21837
G1 X131.365 Y142.985 E4.30281
G1 X132.031 Y141.101 E4.36928
G1 X132.115 Y140.868 E4.37751
G1 X132.47 Y140 E4.4087
G1 X132.987 Y139.013 E4.44576
G1 X133.594 Y137.985 E4.48547
G1 X133.854 Y137.558 E4.5021
G1 X135.124 Y135.335 E4.58725
G1 X135.353 Y134.924 E4.6029
G1 X135.495 Y134.679 E4.61232
G1 X135.894 Y134.032 E4.6376
G1 X136.135 Y133.66 E4.65234
G1 X136.431 Y133.224 E4.66987
G1 X136.633 Y132.937 E4.68154
G1 X136.811 Y132.692 E4.69162
G1 X137.081 Y132.336 E4.70648
G1 X137.583 Y131.701 E4.7334
G1 X137.943 Y131.269 E4.7521
G1 X138.186 Y130.992 E4.76436
G1 X138.376 Y130.781 E4.7738
G1 X138.722 Y130.408 E4.79072
G0 F6000 X139.012 Y130.683
G1 F1200 X139.239 Y130.444 E4.80169
G1 X139.459 Y130.22 E4.81213
G1 X139.719 Y129.962 E4.82431
G1 X140.012 Y129.681 E4.83781
G1 X140.432 Y129.295 E4.85679
G1 X140.627 Y129.121 E4.86548
G1 X140.874 Y128.905 E4.87639
G1 X141.074 Y128.734 E4.88515
G1 X141.377 Y128.482 E4.89825
G1 X141.623 Y128.284 E4.90876
G1 X141.908 Y128.061 E4.92079
G1 X142.16 Y127.87 E4.93131
G1 X142.64 Y127.517 E4.95113
G1 X143.209 Y127.113 E4.97434
G1 X143.451 Y126.947 E4.9841
G1 X144.266 Y126.405 E5.01665
G1 X145.055 Y125.928 E5.04732
G1 X145.315 Y125.786 E5.05717
G1 X146.142 Y125.38 E5.08781
G1 X146.716 Y125.148 E5.1084
G1 X146.897 Y125.081 E5.11482
G1 X147.774 Y124.799 E5.14546
G1 X148.671 Y124.595 E5.17606
G1 X149.583 Y124.469 E5.20668
G1 X150.122 Y124.432 E5.22465
G1 X150.378 Y124.421 E5.23317
G1 X151.299 Y124.421 E5.2638
G1 X152.351 Y124.52 E5.29895
G1 X152.51 Y124.543 E5.30429
G1 X153.414 Y124.714 E5.33489
G1 X154.108 Y124.902 E5.35881
G1 X154.599 Y125.053 E5.37589
G1 X155.466 Y125.362 E5.40651
G1 X156.023 Y125.606 E5.42673
G1 X156.215 Y125.697 E5.4338
G1 X156.952 Y126.083 E5.46147
G1 X157.459 Y126.374 E5.48091
G1 X157.684 Y126.507 E5.48961
G1 X157.875 Y126.623 E5.49704
G1 X158.237 Y126.853 E5.5113
G1 X158.502 Y127.029 E5.52188
G1 X158.854 Y127.273 E5.53613
G1 X159.104 Y127.454 E5.54639
G1 X159.358 Y127.643 E5.55692
G1 X159.663 Y127.878 E5.56973
G1 X159.959 Y128.115 E5.58234
G1 X160.117 Y128.246 E5.58917
G1 X160.347 Y128.443 E5.59924
G1 X160.94 Y128.964 E5.6255
G1 X161.262 Y129.258 E5.64
G1 X161.524 Y129.508 E5.65204
G1 X161.773 Y129.754 E5.66368
G1 X162.185 Y130.174 E5.68325
G1 X162.438 Y130.441 E5.69549
G1 X162.675 Y130.7 E5.70716
G1 X162.88 Y130.931 E5.71744
G1 X163.119 Y131.21 E5.72965
G1 X163.61 Y131.794 E5.75503
G1 X163.84 Y132.077 E5.76716
G1 X164.298 Y132.664 E5.79192
G1 X164.606 Y133.074 E5.80898
G1 X164.79 Y133.327 E5.81939
G1 X164.999 Y133.623 E5.83144
G1 X165.149 Y133.841 E5.84024
G1 X165.483 Y134.34 E5.86021
G1 X165.662 Y134.616 E5.87115
G1 X165.964 Y135.099 E5.8901
G1 X166.199 Y135.495 E5.90541
G1 X166.428 Y135.907 E5.92109
G1 X166.575 Y136.185 E5.93155
G1 X166.935 Y136.936 E5.95925
G1 X166.989 Y137.061 E5.96378
G1 X167.139 Y137.429 E5.977
G1 X167.582 Y138.57 E6.01771
G1 X167.87 Y139.415 E6.0474
G1 X167.94 Y139.653 E6.05565
G1 X168.133 Y140.408 E6.08157
G1 X168.682 Y142.95 E6.16807
G1 X169.27 Y145.351 E6.25028
G1 X169.463 Y146.037 E6.27398
G1 X169.494 Y146.171 E6.27856
G1 X169.86 Y147.544 E6.32582
G1 X169.996 Y148.115 E6.34534
G1 X170.172 Y148.961 E6.37408
G1 X170.23 Y149.26 E6.38421
G1 X170.284 Y149.563 E6.39445
G1 X170.499 Y150.701 E6.43297
G1 X170.631 Y151.613 E6.46362
G1 X170.679 Y152.348 E6.48812
G1 X170.688 Y152.643 E6.49793
G1 X170.676 Y153.563 E6.52854
G1 X170.584 Y154.479 E6.55916
G1 X170.464 Y155.156 E6.58202
G1 X170.415 Y155.388 E6.58991
G1 X170.186 Y156.28 E6.62054
G1 X169.879 Y157.151 E6.65126
G1 X169.719 Y157.545 E6.6654
G1 X169.492 Y158.077 E6.68464
G1 X169.01 Y159.183 E6.72477
G1 X168.574 Y160.261 E6.76344
G1 X168.237 Y161.061 E6.79231
G1 X167.843 Y161.893 E6.82293
G1 X167.378 Y162.687 E6.85354
G1 X166.845 Y163.438 E6.88417
G1 X166.304 Y164.08 E6.91209
G1 X166.16 Y164.238 E6.9192
G1 X164.393 Y166.239 E7.00799
G1 X162.789 Y168.159 E7.0912
G1 X161.206 Y170.169 E7.1763
G1 X160.904 Y170.571 E7.19302
G1 X160.54 Y171.036 E7.21266
G1 X159.94 Y171.734 E7.24327
G1 X159.281 Y172.377 E7.2739
G1 X158.804 Y172.778 E7.29462
G1 X158.446 Y173.062 E7.30982
G1 X157.7 Y173.603 E7.34047
G1 X156.911 Y174.076 E7.37107
G1 X156.075 Y174.483 E7.402
G1 X155.766 Y174.617 E7.4132
G1 X155.367 Y174.781 E7.42755
G1 X154.496 Y175.081 E7.45819
G1 X153.603 Y175.305 E7.48881
G1 X153.062 Y175.401 E7.50708
G1 X152.612 Y175.469 E7.52222
G1 X151.696 Y175.567 E7.55286
G1 X150.776 Y175.585 E7.58346
G1 X149.798 Y175.516 E7.61607
G1 X149.387 Y175.468 E7.62984
G1 X148.478 Y175.322 E7.66046
G1 X147.586 Y175.097 E7.69105
G1 X146.727 Y174.8 E7.72128
G1 X146.291 Y174.628 E7.73687
G1 X145.45 Y174.254 E7.76749
G1 X144.645 Y173.807 E7.79811
G1 X143.868 Y173.283 E7.82928
G1 X143.636 Y173.111 E7.83889
G1 X143.349 Y172.891 E7.85092
G1 X142.647 Y172.294 E7.88157
G1 X142.001 Y171.639 E7.91216
G1 X141.569 Y171.129 E7.93439
G1 X140.226 Y169.442 E8.00611
G1 X139.734 Y168.818 E8.03254
G1 X138.108 Y166.858 E8.11724
G1 X136.682 Y165.234 E8.18913
G1 X135.794 Y164.238 E8.23351
G1 X135.599 Y164.013 E8.24341
G1 X134.742 Y162.998 E8.28759
G1 X133.354 Y161.416 E8.35759
G1 X132.407 Y160.306 E8.40612
G1 X131.868 Y159.619 E8.43517
G1 X131.683 Y159.362 E8.4457
G1 X131.178 Y158.592 E8.47632
G1 X130.92 Y158.132 E8.49387
G1 X130.787 Y157.881 E8.50331
G1 X130.391 Y157.05 E8.53393
G1 X130.155 Y156.439 E8.55572
G1 X130.055 Y156.155 E8.56573
G1 X129.896 Y155.666 E8.58283
G1 X129.856 Y155.532 E8.58748
G1 X129.686 Y154.891 E8.60954
G1 X129.639 Y154.688 E8.61647
G1 X129.58 Y154.417 E8.6257
G1 X129.521 Y154.128 E8.63551
G1 X129.376 Y153.219 E8.66612
G1 X129.318 Y152.5 E8.69011
G1 X129.308 Y152.285 E8.69727
G1 X129.309 Y151.298 E8.7301
G1 X129.319 Y151.084 E8.73723
G1 X129.401 Y150.167 E8.76785
G1 X129.497 Y149.581 E8.7876
G1 X129.564 Y149.232 E8.79942
G1 X129.858 Y148.062 E8.83954
G1 X129.915 Y147.88 E8.84588
G1 X130.163 Y147.178 E8.87065
G1 X130.463 Y146.413 E8.89798
G1 X130.672 Y145.898 E8.91646
G1 X130.84 Y145.492 E8.93108
G1 X131.746 Y143.111 E9.01581
G1 X132.491 Y141.004 E9.09014
G1 X132.841 Y140.152 E9.12078
G1 X133.331 Y139.216 E9.15591
G1 X133.858 Y138.322 E9.19043
G1 X134.21 Y137.743 E9.21297
G1 X135.435 Y135.598 E9.29513
G1 X135.585 Y135.326 E9.30546
G1 X135.841 Y134.88 E9.32256
G1 X136.122 Y134.421 E9.34046
G1 X136.234 Y134.243 E9.34746
G1 X136.466 Y133.885 E9.36164
G1 X136.762 Y133.449 E9.37917
G1 X136.956 Y133.173 E9.39039
G1 X137.134 Y132.928 E9.40047
G1 X137.395 Y132.584 E9.41483
G1 X137.897 Y131.949 E9.44175
G1 X138.244 Y131.533 E9.45977
G1 X138.487 Y131.256 E9.47202
G1 X138.669 Y131.053 E9.48109
G1 X139.012 Y130.683 E9.49787
G0 F6000 X139.302 Y130.959
G1 F1200 X139.529 Y130.72 E9.50884
G1 X139.74 Y130.504 E9.51888
G1 X140 Y130.246 E9.53106
G1 X140.283 Y129.976 E9.54407
G1 X140.703 Y129.59 E9.56304
G1 X140.89 Y129.422 E9.5714
G1 X141.137 Y129.206 E9.58232
G1 X141.33 Y129.042 E9.59074
G1 X141.633 Y128.79 E9.60385
G1 X141.869 Y128.599 E9.61395
G1 X142.154 Y128.376 E9.62598
G1 X142.397 Y128.192 E9.63612
G1 X143.039 Y127.722 E9.66258
G1 X143.44 Y127.439 E9.67891
G1 X143.673 Y127.28 E9.68829
G1 X144.488 Y126.738 E9.72084
G1 X145.247 Y126.279 E9.75035
G1 X145.507 Y126.137 E9.7602
G1 X146.318 Y125.74 E9.79023
G1 X146.855 Y125.523 E9.8095
G1 X147.036 Y125.456 E9.81592
G1 X147.896 Y125.181 E9.84595
G1 X148.777 Y124.982 E9.87599
G1 X149.672 Y124.862 E9.90602
G1 X150.139 Y124.831 E9.92159
G1 X150.395 Y124.82 E9.93011
G1 X151.298 Y124.822 E9.96014
G1 X152.293 Y124.916 E9.99338
G1 X152.452 Y124.939 E9.99873
G1 X153.339 Y125.108 E10.02876
G1 X153.99 Y125.285 E10.0512
G1 X154.481 Y125.436 E10.06828
G1 X155.332 Y125.739 E10.09833
G1 X155.852 Y125.968 E10.11723
G1 X156.044 Y126.059 E10.12429
G1 X156.753 Y126.43 E10.15091
G1 X157.26 Y126.721 E10.17035
G1 X157.477 Y126.849 E10.17873
G1 X157.668 Y126.965 E10.18616
G1 X158.016 Y127.186 E10.19988
G1 X158.281 Y127.362 E10.21046
G1 X158.62 Y127.597 E10.22418
G1 X158.87 Y127.778 E10.23444
G1 X159.113 Y127.96 E10.24454
G1 X159.418 Y128.195 E10.25735
G1 X159.703 Y128.423 E10.26948
G1 X159.861 Y128.554 E10.27631
G1 X160.083 Y128.743 E10.28601
G1 X160.676 Y129.264 E10.31226
G1 X160.986 Y129.547 E10.32622
G1 X161.248 Y129.797 E10.33827
G1 X161.488 Y130.034 E10.34949
G1 X161.9 Y130.454 E10.36906
G1 X162.143 Y130.711 E10.38082
G1 X162.38 Y130.97 E10.3925
G1 X162.578 Y131.193 E10.40241
G1 X162.813 Y131.467 E10.41442
G1 X163.304 Y132.051 E10.4398
G1 X163.525 Y132.323 E10.45145
G1 X163.851 Y132.739 E10.46903
G1 X164.286 Y133.315 E10.49304
G1 X164.463 Y133.558 E10.50304
G1 X164.672 Y133.854 E10.51509
G1 X164.816 Y134.063 E10.52353
G1 X165.15 Y134.562 E10.5435
G1 X165.323 Y134.828 E10.55406
G1 X165.625 Y135.311 E10.573
G1 X165.851 Y135.692 E10.58774
G1 X165.932 Y135.835 E10.5932
G1 X166.074 Y136.094 E10.60303
G1 X166.221 Y136.372 E10.61349
G1 X166.568 Y137.095 E10.64016
G1 X166.622 Y137.22 E10.64469
G1 X166.766 Y137.573 E10.65737
G1 X167.209 Y138.714 E10.69808
G1 X167.487 Y139.528 E10.72669
G1 X167.557 Y139.766 E10.73494
G1 X167.742 Y140.493 E10.75989
G1 X168.294 Y143.05 E10.8469
G1 X168.879 Y145.436 E10.9286
G1 X169.078 Y146.145 E10.9531
G1 X169.108 Y146.274 E10.9575
G1 X169.474 Y147.647 E11.00476
G1 X169.604 Y148.196 E11.02353
G1 X169.78 Y149.042 E11.05227
G1 X169.836 Y149.33 E11.06203
G1 X169.89 Y149.633 E11.07226
G1 X170.106 Y150.776 E11.11095
G1 X170.235 Y151.67 E11.141
G1 X170.279 Y152.36 E11.16399
G1 X170.288 Y152.655 E11.17381
G1 X170.276 Y153.558 E11.20384
G1 X170.184 Y154.456 E11.23387
G1 X170.073 Y155.074 E11.25475
G1 X170.024 Y155.306 E11.26264
G1 X169.798 Y156.18 E11.29266
G1 X169.508 Y157.002 E11.32166
G1 X169.351 Y157.389 E11.33555
G1 X169.126 Y157.917 E11.35464
G1 X168.631 Y159.053 E11.39585
G1 X168.143 Y160.256 E11.43903
G1 X167.869 Y160.905 E11.46246
G1 X167.481 Y161.721 E11.49251
