;FLAVOR:Marlin
;TIME:736
;Filament used: 0.224916m
;Layer height: 0.2
;MINX:129.024
;MINY:124.014
;MINZ:0.2
;MAXX:170.976
;MAXY:175.977
;MAXZ:1.8
;Generated with Cura_SteamEngine 4.11.0
M140 S50
M105
M190 S50
M104 S200
M105
M109 S200
M82 ;absolute extrusion mode
M201 X500.00 Y500.00 Z100.00 E5000.00 ;Setup machine max acceleration
M203 X500.00 Y500.00 Z10.00 E50.00 ;Setup machine max feedrate
M204 P500.00 R1000.00 T500.00 ;Setup Print/Retract/Travel acceleration
M205 X8.00 Y8.00 Z0.40 E5.00 ;Setup Jerk
M220 S100 ;Reset Feedrate
M221 S100 ;Reset Flowrate

G28 ;Home

G92 E0 ;Reset Extruder
G1 Z2.0 F3000 ;Move Z Axis up
G1 X10.1 Y20 Z0.28 F5000.0 ;Move to start position
G1 X10.1 Y200.0 Z0.28 F1500.0 E15 ;Draw the first line
G1 X10.4 Y200.0 Z0.28 F5000.0 ;Move to side a little
G1 X10.4 Y20 Z0.28 F1500.0 E30 ;Draw the second line
G92 E0 ;Reset Extruder
G1 Z2.0 F3000 ;Move Z Axis up

G92 E0
G92 E0
G1 F2700 E-5
;LAYER_COUNT:10
;LAYER:0
M107
G0 F6000 X133.497 Y129.138 Z0.2
;TYPE:SKIRT
G1 F2700 E0
G1 F1200 X134.181 Y128.496 E0.0312
G1 X134.632 Y128.128 E0.05056
G1 X135.453 Y127.493 E0.08508
G1 X136.436 Y126.713 E0.12682
G1 X136.989 Y126.288 E0.15002
G1 X137.756 Y125.749 E0.1812
G1 X138.567 Y125.277 E0.21241
G1 X139.414 Y124.876 E0.24358
G1 X140.293 Y124.548 E0.27478
G1 X141.197 Y124.297 E0.30598
G1 X142.118 Y124.123 E0.33716
G1 X143.052 Y124.029 E0.36838
G1 X144.24 Y124.024 E0.40789
G1 X145.273 Y124.076 E0.4423
G1 X146.144 Y124.133 E0.47133
G1 X148.596 Y124.224 E0.55294
G1 X151.151 Y124.247 E0.63792
G1 X153.68 Y124.197 E0.72205
G1 X156.184 Y124.077 E0.80543
G1 X156.53 Y124.053 E0.81697
G1 X157.046 Y124.025 E0.83415
G1 X157.984 Y124.014 E0.86535
G1 X158.919 Y124.083 E0.89654
G1 X159.845 Y124.232 E0.92773
G1 X160.755 Y124.459 E0.95893
G1 X161.643 Y124.762 E0.99013
G1 X162.501 Y125.14 E1.02132
G1 X163.324 Y125.59 E1.05251
G1 X164.352 Y126.293 E1.09394
G1 X164.866 Y126.689 E1.11552
G1 X166.214 Y127.754 E1.17266
G1 X166.678 Y128.111 E1.19213
G1 X167.396 Y128.713 E1.22329
G1 X168.061 Y129.375 E1.2545
G1 X168.666 Y130.092 E1.2857
G1 X169.209 Y130.857 E1.31691
G1 X169.684 Y131.665 E1.34808
G1 X170.089 Y132.511 E1.37928
G1 X170.42 Y133.389 E1.41049
G1 X170.675 Y134.291 E1.44166
G1 X170.852 Y135.212 E1.47285
G1 X170.951 Y136.145 E1.50406
G1 X170.971 Y136.709 E1.52283
G1 X170.976 Y137.239 E1.54046
G1 X170.968 Y139.127 E1.60326
G1 X170.974 Y139.721 E1.62301
G1 X170.943 Y140.649 E1.6539
G1 X170.913 Y141.05 E1.66727
G1 X170.752 Y143.687 E1.75514
G1 X170.672 Y146.166 E1.83764
G1 X170.662 Y148.696 E1.92178
G1 X170.722 Y151.208 E2.00536
G1 X170.856 Y153.739 E2.08966
G1 X170.919 Y154.57 E2.11738
G1 X170.961 Y155.245 E2.13987
G1 X170.975 Y156.331 E2.17599
G1 X170.967 Y156.549 E2.18325
G1 X170.892 Y157.484 E2.21445
G1 X170.739 Y158.41 E2.24566
G1 X170.561 Y159.13 E2.27033
G1 X170.488 Y159.389 E2.27928
G1 X170.196 Y160.28 E2.31047
G1 X170.001 Y160.763 E2.32779
G1 X169.574 Y161.749 E2.36353
G1 X169.544 Y161.815 E2.36594
G1 X168.724 Y163.78 E2.43676
G1 X168.574 Y164.151 E2.45007
G1 X168.185 Y165.005 E2.48128
G1 X167.725 Y165.822 E2.51247
G1 X167.198 Y166.597 E2.54364
G1 X166.606 Y167.325 E2.57485
G1 X165.954 Y167.999 E2.60604
G1 X165.279 Y168.59 E2.63588
G1 X164.743 Y169.02 E2.65873
G1 X163.513 Y169.981 E2.71065
G1 X161.513 Y171.636 E2.79699
G1 X160.306 Y172.683 E2.85013
G1 X160.106 Y172.859 E2.85899
G1 X159.376 Y173.448 E2.89019
G1 X158.598 Y173.973 E2.92141
G1 X157.779 Y174.429 E2.95259
G1 X156.924 Y174.814 E2.98377
G1 X156.039 Y175.124 E3.01496
G1 X154.865 Y175.411 E3.05516
G1 X154.069 Y175.56 E3.08209
G1 X153.239 Y175.724 E3.11023
G1 X152.833 Y175.797 E3.12395
G1 X152.55 Y175.842 E3.13348
G1 X151.619 Y175.949 E3.16465
G1 X150.681 Y175.977 E3.19587
G1 X149.745 Y175.925 E3.22704
G1 X148.816 Y175.793 E3.25825
G1 X148.263 Y175.676 E3.27705
G1 X146.627 Y175.284 E3.33301
G1 X145.219 Y174.963 E3.38104
G1 X144.315 Y174.716 E3.41221
G1 X143.829 Y174.548 E3.42931
G1 X143.751 Y174.519 E3.43208
G1 X142.886 Y174.155 E3.46329
G1 X142.056 Y173.719 E3.49448
G1 X141.266 Y173.214 E3.52566
G1 X140.522 Y172.643 E3.55685
G1 X139.606 Y171.782 E3.59867
G1 X138.736 Y170.864 E3.64073
G1 X138.282 Y170.372 E3.663
G1 X136.497 Y168.548 E3.74788
G1 X136.224 Y168.278 E3.76065
G1 X135.922 Y167.97 E3.775
G1 X135.319 Y167.303 E3.80491
G1 X135.198 Y167.157 E3.81121
G1 X133.48 Y165.144 E3.89923
G1 X132.635 Y164.199 E3.9414
G1 X132.332 Y163.85 E3.95677
G1 X131.909 Y163.327 E3.97914
G1 X131.741 Y163.106 E3.98838
G1 X131.379 Y162.601 E4.00904
G1 X131.238 Y162.392 E4.01743
G1 X130.529 Y161.18 E4.06413
G1 X130.435 Y160.993 E4.07109
G1 X130.05 Y160.138 E4.10228
G1 X129.884 Y159.696 E4.11798
G1 X129.778 Y159.394 E4.12863
G1 X129.477 Y158.384 E4.16368
G1 X129.405 Y158.092 E4.17368
G1 X129.312 Y157.684 E4.1876
G1 X129.249 Y157.379 E4.19796
G1 X129.099 Y156.453 E4.22916
G1 X129.038 Y155.751 E4.2526
G1 X129.028 Y155.567 E4.25873
G1 X129.024 Y154.454 E4.29574
G1 X129.037 Y154.177 E4.30497
G1 X129.148 Y153.053 E4.34253
G1 X129.538 Y150.469 E4.42945
G1 X129.841 Y147.989 E4.51255
G1 X130.077 Y145.479 E4.5964
G1 X130.24 Y142.97 E4.68003
G1 X130.352 Y139.526 E4.79464
G1 X130.356 Y139.23 E4.80448
G1 X130.354 Y138.14 E4.84073
G1 X130.363 Y136.756 E4.88677
G1 X130.409 Y135.82 E4.91794
G1 X130.535 Y134.89 E4.94915
G1 X130.739 Y133.975 E4.98033
G1 X131.021 Y133.08 E5.01154
G1 X131.378 Y132.213 E5.04273
G1 X131.807 Y131.379 E5.07392
G1 X132.306 Y130.585 E5.10511
G1 X132.871 Y129.836 E5.13632
G1 X133.497 Y129.138 E5.1675
G0 F6000 X133.89 Y129.31
G1 F1200 X134.877 Y128.444 E5.21117
G1 X135.707 Y127.802 E5.24607
G1 X136.68 Y127.03 E5.28739
G1 X137.233 Y126.605 E5.31058
G1 X137.986 Y126.077 E5.34117
G1 X138.783 Y125.615 E5.37181
G1 X139.617 Y125.225 E5.40243
G1 X140.481 Y124.908 E5.43304
G1 X141.37 Y124.667 E5.46368
G1 X142.276 Y124.505 E5.49429
G1 X143.193 Y124.422 E5.52491
G1 X144.22 Y124.423 E5.55907
G1 X145.082 Y124.466 E5.58778
G1 X146.065 Y124.53 E5.62054
G1 X148.613 Y124.624 E5.70535
G1 X151.156 Y124.647 E5.78993
G1 X153.671 Y124.597 E5.8736
G1 X156.234 Y124.474 E5.95894
G1 X156.552 Y124.453 E5.96954
G1 X157.068 Y124.425 E5.98673
G1 X157.988 Y124.415 E6.01733
G1 X158.906 Y124.485 E6.04795
G1 X159.815 Y124.634 E6.07859
G1 X160.707 Y124.862 E6.10921
G1 X161.576 Y125.166 E6.13983
G1 X162.415 Y125.544 E6.17044
G1 X163.218 Y125.994 E6.20105
G1 X164.108 Y126.61 E6.23705
G1 X164.618 Y127.003 E6.25847
G1 X165.962 Y128.065 E6.31544
G1 X166.434 Y128.428 E6.33524
G1 X167.139 Y129.02 E6.36586
G1 X167.79 Y129.671 E6.39648
G1 X168.381 Y130.377 E6.42711
G1 X168.91 Y131.131 E6.45774
G1 X169.37 Y131.928 E6.48835
G1 X169.76 Y132.762 E6.51897
G1 X170.076 Y133.626 E6.54957
G1 X170.316 Y134.515 E6.5802
G1 X170.478 Y135.422 E6.61084
G1 X170.571 Y136.714 E6.65392
G1 X170.576 Y137.238 E6.67135
G1 X170.568 Y139.129 E6.73425
G1 X170.574 Y139.724 E6.75404
G1 X170.544 Y140.619 E6.78382
G1 X170.511 Y141.064 E6.79866
G1 X170.355 Y143.616 E6.8837
G1 X170.272 Y146.187 E6.96926
G1 X170.262 Y148.703 E7.05294
G1 X170.323 Y151.239 E7.13731
G1 X170.455 Y153.751 E7.22098
G1 X170.52 Y154.595 E7.24913
G1 X170.562 Y155.27 E7.27163
G1 X170.575 Y156.317 E7.30645
G1 X170.567 Y156.535 E7.31371
G1 X170.493 Y157.452 E7.34431
G1 X170.34 Y158.36 E7.37493
G1 X170.176 Y159.022 E7.39762
G1 X170.103 Y159.281 E7.40657
G1 X169.815 Y160.155 E7.43717
G1 X169.634 Y160.604 E7.45328
G1 X169.209 Y161.586 E7.48887
G1 X169.17 Y161.674 E7.49207
G1 X168.37 Y163.589 E7.56109
G1 X168.203 Y164.001 E7.57588
G1 X167.821 Y164.839 E7.60651
G1 X167.368 Y165.64 E7.63712
G1 X166.846 Y166.399 E7.66776
G1 X166.261 Y167.11 E7.69838
G1 X165.617 Y167.767 E7.72898
G1 X165.028 Y168.278 E7.75492
G1 X164.497 Y168.705 E7.77758
G1 X163.258 Y169.674 E7.82989
G1 X161.256 Y171.33 E7.91631
G1 X160.044 Y172.381 E7.96967
G1 X159.842 Y172.559 E7.97862
G1 X159.125 Y173.136 E8.00923
G1 X158.36 Y173.649 E8.03987
G1 X157.554 Y174.094 E8.07049
G1 X156.712 Y174.467 E8.10112
G1 X155.842 Y174.766 E8.13172
G1 X154.791 Y175.018 E8.16766
G1 X154.032 Y175.16 E8.19334
G1 X153.162 Y175.332 E8.22284
G1 X152.771 Y175.401 E8.23605
G1 X152.488 Y175.446 E8.24558
G1 X151.573 Y175.551 E8.27621
G1 X150.653 Y175.577 E8.30682
G1 X149.734 Y175.522 E8.33744
G1 X148.823 Y175.388 E8.36807
G1 X148.356 Y175.287 E8.38396
G1 X146.634 Y174.875 E8.44285
G1 X145.308 Y174.573 E8.48808
G1 X144.42 Y174.33 E8.5187
G1 X143.968 Y174.174 E8.53461
G1 X143.89 Y174.145 E8.53738
G1 X143.042 Y173.787 E8.56799
G1 X142.228 Y173.356 E8.59863
G1 X141.454 Y172.857 E8.62926
G1 X140.727 Y172.292 E8.65988
G1 X139.896 Y171.507 E8.6979
G1 X139.128 Y170.698 E8.735
G1 X138.578 Y170.103 E8.76195
G1 X136.792 Y168.278 E8.84688
G1 X136.509 Y167.998 E8.86012
G1 X136.207 Y167.69 E8.87447
G1 X135.627 Y167.048 E8.90325
G1 X135.489 Y166.883 E8.9104
G1 X133.782 Y164.881 E8.99791
G1 X132.933 Y163.932 E9.04026
G1 X132.635 Y163.589 E9.05537
G1 X132.227 Y163.085 E9.07694
G1 X132.059 Y162.864 E9.08617
G1 X131.711 Y162.377 E9.10608
G1 X131.57 Y162.168 E9.11446
G1 X130.886 Y161.001 E9.15945
G1 X130.792 Y160.814 E9.16641
G1 X130.261 Y159.564 E9.21159
G1 X130.155 Y159.262 E9.22223
G1 X129.865 Y158.289 E9.256
G1 X129.793 Y157.997 E9.266
G1 X129.704 Y157.603 E9.27944
G1 X129.641 Y157.298 E9.2898
G1 X129.494 Y156.389 E9.32042
G1 X129.438 Y155.729 E9.34245
G1 X129.428 Y155.545 E9.34858
G1 X129.424 Y154.473 E9.38424
G1 X129.437 Y154.196 E9.39346
G1 X129.543 Y153.113 E9.42965
G1 X129.936 Y150.506 E9.51734
G1 X130.238 Y148.04 E9.59997
G1 X130.475 Y145.51 E9.68449
G1 X130.64 Y142.978 E9.76888
G1 X130.752 Y139.545 E9.88313
G1 X130.756 Y139.229 E9.89364
G1 X130.754 Y138.143 E9.92976
G1 X130.763 Y136.759 E9.97579
G1 X130.809 Y135.84 E10.0064
G1 X130.935 Y134.928 E10.03702
G1 X131.139 Y134.03 E10.06765
G1 X131.42 Y133.153 E10.09828
G1 X131.777 Y132.304 E10.12891
G1 X132.205 Y131.49 E10.1595
G1 X132.703 Y130.715 E10.19014
G1 X133.266 Y129.987 E10.22075
G1 X133.89 Y129.31 E10.25137
G0 F6000 X134.283 Y129.485
G1 F1200 X135.122 Y128.76 E10.28825
G1 X135.96 Y128.112 E10.32348
G1 X136.923 Y127.348 E10.36437
G1 X137.476 Y126.923 E10.38756
G1 X138.216 Y126.404 E10.41763
G1 X138.999 Y125.954 E10.44766
G1 X139.818 Y125.574 E10.47769
G1 X140.668 Y125.269 E10.50773
G1 X141.542 Y125.039 E10.53779
G1 X142.432 Y124.888 E10.56781
G1 X143.332 Y124.816 E10.59784
G1 X144.2 Y124.823 E10.62671
G1 X145.22 Y124.875 E10.66068
G1 X146.06 Y124.93 E10.68868
G1 X148.595 Y125.024 E10.77305
G1 X151.16 Y125.047 E10.85837
G1 X153.698 Y124.997 E10.9428
G1 X156.204 Y124.877 E11.02624
G1 X156.573 Y124.852 E11.03855
G1 X157.089 Y124.824 E11.05573
G1 X157.992 Y124.815 E11.08577
G1 X158.893 Y124.886 E11.11583
G1 X159.783 Y125.036 E11.14585
G1 X160.657 Y125.265 E11.1759
G1 X161.507 Y125.57 E11.20593
G1 X162.327 Y125.949 E11.23598
G1 X163.11 Y126.398 E11.266
G1 X163.864 Y126.926 E11.29662
G1 X164.37 Y127.317 E11.31789
G1 X165.71 Y128.376 E11.37469
G1 X166.19 Y128.745 E11.39483
G1 X166.881 Y129.326 E11.42486
G1 X167.518 Y129.967 E11.45491
G1 X168.095 Y130.661 E11.48493
G1 X168.609 Y131.404 E11.51498
G1 X169.055 Y132.189 E11.54501
G1 X169.43 Y133.011 E11.57506
G1 X169.731 Y133.862 E11.60508
G1 X169.955 Y134.737 E11.63512
G1 X170.101 Y135.629 E11.66519
G1 X170.171 Y136.718 E11.70148
G1 X170.176 Y137.236 E11.71871
G1 X170.168 Y139.131 E11.78174
G1 X170.174 Y139.728 E11.8016
G1 X170.145 Y140.589 E11.83025
G1 X170.113 Y141.013 E11.84439
G1 X169.955 Y143.612 E11.931
G1 X169.872 Y146.172 E12.01619
G1 X169.862 Y148.711 E12.10063
G1 X169.922 Y151.237 E12.18467
G1 X170.058 Y153.801 E12.27007
G1 X170.12 Y154.62 E12.29739
G1 X170.162 Y155.295 E12.31988
G1 X170.175 Y156.302 E12.35338
G1 X170.167 Y156.52 E12.36064
G1 X170.094 Y157.42 E12.39067
G1 X169.942 Y158.31 E12.4207
G1 X169.791 Y158.913 E12.44137
G1 X169.718 Y159.172 E12.45032
G1 X169.267 Y160.446 E12.49527
G1 X168.902 Y161.292 E12.52592
G1 X168.807 Y161.504 E12.53364
G1 X167.964 Y163.524 E12.60645
G1 X167.832 Y163.851 E12.61817
G1 X167.457 Y164.672 E12.6482
G1 X167.01 Y165.457 E12.67824
G1 X166.496 Y166.2 E12.70829
G1 X165.918 Y166.894 E12.73833
G1 X165.281 Y167.534 E12.76836
G1 X164.777 Y167.967 E12.79046
G1 X164.251 Y168.39 E12.81291
G1 X163.002 Y169.366 E12.86563
G1 X160.999 Y171.023 E12.9521
G1 X159.835 Y172.033 E13.00335
G1 X159.578 Y172.259 E13.01474
G1 X158.874 Y172.824 E13.04476
G1 X158.123 Y173.326 E13.0748
G1 X157.33 Y173.759 E13.10485
G1 X156.502 Y174.12 E13.1349
G1 X155.646 Y174.406 E13.16492
G1 X154.718 Y174.625 E13.19663
G1 X153.868 Y174.784 E13.22539
G1 X153.084 Y174.939 E13.25197
G1 X152.708 Y175.006 E13.26467
G1 X152.425 Y175.051 E13.2742
G1 X151.527 Y175.154 E13.30427
G1 X150.625 Y175.176 E13.33428
G1 X149.723 Y175.119 E13.36434
G1 X148.45 Y174.898 E13.40731
G1 X146.727 Y174.486 E13.46623
G1 X145.397 Y174.183 E13.5116
G1 X144.107 Y173.799 E13.55637
G1 X144.029 Y173.77 E13.55914
G1 X143.198 Y173.418 E13.58915
G1 X142.4 Y172.994 E13.61921
G1 X141.644 Y172.501 E13.64923
G1 X140.933 Y171.943 E13.67929
G1 X140.186 Y171.232 E13.71359
G1 X139.323 Y170.321 E13.75533
G1 X138.874 Y169.835 E13.77733
G1 X137.038 Y167.959 E13.86464
G1 X136.795 Y167.718 E13.87602
G1 X136.493 Y167.41 E13.89037
G1 X135.934 Y166.792 E13.91809
G1 X135.78 Y166.607 E13.92609
G1 X134.06 Y164.591 E14.01423
G1 X133.106 Y163.523 E14.06186
G1 X132.938 Y163.328 E14.07042
G1 X132.546 Y162.843 E14.09116
G1 X132.378 Y162.622 E14.1004
G1 X132.042 Y162.154 E14.11956
G1 X131.901 Y161.945 E14.12794
G1 X131.244 Y160.821 E14.17125
G1 X131.15 Y160.634 E14.17821
G1 X130.639 Y159.431 E14.22168
G1 X130.533 Y159.129 E14.23233
G1 X130.254 Y158.193 E14.26481
G1 X130.182 Y157.901 E14.27481
G1 X130.096 Y157.522 E14.28774
G1 X130.033 Y157.217 E14.2981
G1 X129.89 Y156.326 E14.32811
G1 X129.837 Y155.708 E14.34874
G1 X129.827 Y155.524 E14.35487
G1 X129.823 Y154.492 E14.3892
G1 X129.836 Y154.215 E14.39842
G1 X129.939 Y153.172 E14.43328
G1 X130.331 Y150.573 E14.5207
G1 X130.639 Y148.058 E14.60497
G1 X130.875 Y145.537 E14.68919
G1 X131.038 Y143.048 E14.77215
G1 X131.153 Y139.51 E14.88989
G1 X131.156 Y139.227 E14.8993
G1 X131.154 Y138.146 E14.93525
G1 X131.163 Y136.762 E14.98129
G1 X131.209 Y135.86 E15.01133
G1 X131.335 Y134.965 E15.04139
G1 X131.539 Y134.086 E15.0714
G1 X131.82 Y133.227 E15.10146
G1 X132.176 Y132.397 E15.1315
G1 X132.603 Y131.602 E15.16151
G1 X133.1 Y130.848 E15.19155
G1 X133.661 Y130.14 E15.22159
G1 X134.283 Y129.485 E15.25164
G1 F2700 E10.25164
;MESH:Ravenclaw_Name.stl
G0 F6000 X147.735 Y143.496
G0 X147.925 Y143.774
G0 X155.439 Y151.519
G0 X154.899 Y152.111
G0 X155.279 Y152.702
;TYPE:WALL-OUTER
G1 F2700 E15.25164
G1 F1200 X155.291 Y152.6 E15.25505
G1 X155.214 Y152.431 E15.26123
G1 X155.141 Y152.362 E15.26457
G1 X155.513 Y152.396 E15.277
G1 X155.571 Y152.4 E15.27893
G1 X155.384 Y152.537 E15.28664
G1 X155.37 Y152.593 E15.28856
G1 X155.315 Y152.62 E15.2906
G1 X155.279 Y152.702 E15.29358
G1 F2700 E10.29358
G0 F6000 X155.012 Y154.068
G0 X154.297 Y154.066
G0 X154.116 Y154.075
G1 F2700 E15.29358
G1 F1200 X153.984 Y153.977 E15.29904
G1 X153.705 Y153.971 E15.30833
G1 X153.666 Y153.994 E15.30983
G1 X153.659 Y153.804 E15.31615
G1 X153.775 Y153.853 E15.32034
G1 X154.025 Y153.825 E15.32871
G1 X154.117 Y153.812 E15.3318
G1 X154.116 Y154.075 E15.34055
G1 F2700 E10.34055
G0 F6000 X153.479 Y153.72
G0 X152.768 Y153.72
G0 X152.765 Y152.753
G0 X153.07 Y152.673
G0 X152.961 Y152.409
G0 X152.386 Y151.899
G0 X151.984 Y151.942
G0 X151.211 Y152.36
G0 X151.164 Y152.63
G0 X151.196 Y153.608
G1 F2700 E15.34055
G1 F1200 X151.041 Y153.535 E15.34625
G1 X151.123 Y153.494 E15.3493
G1 X151.136 Y153.438 E15.35121
G1 X151.197 Y153.377 E15.35408
G1 X151.196 Y153.608 E15.36176
G1 F2700 E10.36176
G0 F6000 X151.238 Y152.687
G0 X150.978 Y152.263
G0 X150.687 Y152.072
G0 X146.913 Y152
G0 X146.489 Y152.365
G0 X145.288 Y153.84
G0 X144.784 Y153.861
G0 X144.775 Y152.798
G0 X141.299 Y152.872
G0 X141.51 Y153.605
G0 X140.477 Y153.994
G1 F2700 E15.36176
G1 F1200 X140.514 Y153.945 E15.3638
G1 X140.576 Y153.942 E15.36587
G1 X140.601 Y153.867 E15.3685
G1 X140.644 Y153.859 E15.36995
G1 X140.593 Y153.939 E15.37311
G1 X140.477 Y153.994 E15.37738
G0 F6000 X140.209 Y155.118
G1 F1200 X140.204 Y154.825 E15.38712
