;FLAVOR:Marlin
;TIME:756
;Filament used: 0.229698m
;Layer height: 0.2
;MINX:129.715
;MINY:124.017
;MINZ:0.2
;MAXX:170.263
;MAXY:175.985
;MAXZ:1.8
;Generated with Cura_SteamEngine 4.11.0
M140 S50
M105
M190 S50
M104 S200
M105
M109 S200
M82 ;absolute extrusion mode
M201 X500.00 Y500.00 Z100.00 E5000.00 ;Setup machine max acceleration
M203 X500.00 Y500.00 Z10.00 E50.00 ;Setup machine max feedrate
M204 P500.00 R1000.00 T500.00 ;Setup Print/Retract/Travel acceleration
M205 X8.00 Y8.00 Z0.40 E5.00 ;Setup Jerk
M220 S100 ;Reset Feedrate
M221 S100 ;Reset Flowrate

G28 ;Home

G92 E0 ;Reset Extruder
G1 Z2.0 F3000 ;Move Z Axis up
G1 X10.1 Y20 Z0.28 F5000.0 ;Move to start position
G1 X10.1 Y200.0 Z0.28 F1500.0 E15 ;Draw the first line
G1 X10.4 Y200.0 Z0.28 F5000.0 ;Move to side a little
G1 X10.4 Y20 Z0.28 F1500.0 E30 ;Draw the second line
G92 E0 ;Reset Extruder
G1 Z2.0 F3000 ;Move Z Axis up

G92 E0
G92 E0
G1 F2700 E-5
;LAYER_COUNT:10
;LAYER:0
M107
G0 F6000 X132.946 Y128.929 Z0.2
;TYPE:SKIRT
G1 F2700 E0
G1 F1200 X133.637 Y128.294 E0.03121
G1 X134.073 Y127.945 E0.04979
G1 X134.984 Y127.254 E0.08782
G1 X135.242 Y127.064 E0.09848
G1 X136.346 Y126.231 E0.14447
G1 X137.118 Y125.699 E0.17566
G1 X137.932 Y125.234 E0.20684
G1 X138.784 Y124.84 E0.23806
G1 X139.665 Y124.52 E0.26923
G1 X140.571 Y124.276 E0.30044
G1 X141.494 Y124.111 E0.33163
G1 X142.428 Y124.025 E0.36282
G1 X143.633 Y124.031 E0.4029
G1 X144.237 Y124.067 E0.42303
G1 X146.81 Y124.186 E0.5087
G1 X149.338 Y124.23 E0.59279
G1 X151.823 Y124.205 E0.67545
G1 X154.394 Y124.105 E0.76102
G1 X154.926 Y124.07 E0.77876
G1 X155.877 Y124.023 E0.81042
G1 X156.815 Y124.017 E0.84162
G1 X157.75 Y124.091 E0.87282
G1 X158.675 Y124.244 E0.904
G1 X159.584 Y124.475 E0.9352
G1 X160.47 Y124.783 E0.9664
G1 X161.326 Y125.165 E0.99757
G1 X162.147 Y125.619 E1.02878
G1 X162.926 Y126.141 E1.05996
G1 X163.109 Y126.288 E1.06777
G1 X164.498 Y127.335 E1.12562
G1 X165.213 Y127.865 E1.15523
G1 X165.942 Y128.455 E1.18642
G1 X166.618 Y129.105 E1.21761
G1 X167.237 Y129.811 E1.24884
G1 X167.793 Y130.566 E1.28003
G1 X168.282 Y131.366 E1.31121
G1 X168.702 Y132.205 E1.34242
G1 X169.048 Y133.076 E1.37359
G1 X169.319 Y133.974 E1.40479
G1 X169.513 Y134.892 E1.43599
G1 X169.628 Y135.822 E1.46716
G1 X169.663 Y136.693 E1.49615
G1 X169.663 Y138.067 E1.54185
G1 X169.661 Y138.233 E1.54738
G1 X169.662 Y139.482 E1.58892
G1 X169.658 Y139.787 E1.59906
G1 X169.633 Y140.688 E1.62904
G1 X169.58 Y141.97 E1.67172
G1 X169.548 Y144.448 E1.75414
G1 X169.588 Y146.98 E1.83837
G1 X169.698 Y149.521 E1.92296
G1 X169.875 Y151.968 E2.00456
G1 X170.2 Y155.017 E2.10655
G1 X170.262 Y156.149 E2.14425
G1 X170.263 Y156.484 E2.1554
G1 X170.226 Y157.421 E2.18658
G1 X170.109 Y158.352 E2.21779
G1 X169.913 Y159.269 E2.24898
G1 X169.64 Y160.166 E2.28017
G1 X169.371 Y160.857 E2.30483
G1 X169.196 Y161.262 E2.3195
G1 X168.215 Y163.51 E2.40108
G1 X167.931 Y164.184 E2.42541
G1 X167.644 Y164.809 E2.44828
G1 X167.559 Y164.98 E2.45463
G1 X167.106 Y165.802 E2.48585
G1 X166.585 Y166.581 E2.51702
G1 X165.999 Y167.314 E2.54823
G1 X165.353 Y167.994 E2.57943
G1 X164.652 Y168.616 E2.6106
G1 X163.9 Y169.177 E2.6418
G1 X163.374 Y169.513 E2.66256
G1 X162.672 Y169.935 E2.68981
G1 X160.478 Y171.295 E2.77566
G1 X157.245 Y173.46 E2.90508
G1 X156.812 Y173.765 E2.92269
G1 X156.022 Y174.272 E2.95391
G1 X154.832 Y174.872 E2.99824
G1 X154.465 Y175.03 E3.01153
G1 X153.588 Y175.364 E3.04274
G1 X152.687 Y175.622 E3.07391
G1 X151.763 Y175.803 E3.10523
G1 X151.367 Y175.863 E3.11855
G1 X150.434 Y175.964 E3.14976
G1 X149.497 Y175.985 E3.18094
G1 X148.465 Y175.915 E3.21534
G1 X148.064 Y175.869 E3.22876
G1 X147.138 Y175.723 E3.25994
G1 X146.228 Y175.498 E3.29112
G1 X145.233 Y175.154 E3.32614
G1 X144.833 Y174.994 E3.34047
G1 X143.978 Y174.609 E3.37165
G1 X142.784 Y173.912 E3.41764
G1 X140.597 Y172.443 E3.50526
G1 X138.497 Y171.116 E3.58789
G1 X137.208 Y170.359 E3.63761
G1 X135.997 Y169.632 E3.68458
G1 X135.214 Y169.115 E3.71579
G1 X134.479 Y168.534 E3.74695
G1 X133.795 Y167.892 E3.77815
G1 X133.168 Y167.194 E3.80936
G1 X132.603 Y166.446 E3.84054
G1 X132.104 Y165.652 E3.87173
G1 X131.831 Y165.142 E3.89097
G1 X131.739 Y164.959 E3.89778
G1 X131.354 Y164.104 E3.92897
G1 X131.043 Y163.219 E3.96017
G1 X130.809 Y162.311 E3.99136
G1 X130.629 Y161.182 E4.02938
G1 X130.539 Y160.34 E4.05755
G1 X130.471 Y159.74 E4.07763
G1 X130.131 Y157.165 E4.16402
G1 X130.041 Y156.597 E4.18315
G1 X129.843 Y155.251 E4.2284
G1 X129.761 Y154.528 E4.2526
G1 X129.723 Y153.512 E4.28641
G1 X129.727 Y153.082 E4.30072
G1 X129.742 Y152.619 E4.31612
G1 X129.891 Y149.715 E4.41284
G1 X129.949 Y147.193 E4.49674
G1 X129.936 Y144.669 E4.58069
G1 X129.85 Y142.107 E4.66595
G1 X129.762 Y140.57 E4.71716
G1 X129.739 Y140.223 E4.72872
G1 X129.715 Y139.457 E4.75421
G1 X129.725 Y136.985 E4.83643
G1 X129.733 Y136.514 E4.8521
G1 X129.788 Y135.578 E4.88329
G1 X129.924 Y134.65 E4.91448
G1 X130.138 Y133.737 E4.94567
G1 X130.429 Y132.845 E4.97688
G1 X130.795 Y131.982 E5.00805
G1 X131.233 Y131.152 E5.03927
G1 X131.74 Y130.364 E5.07043
G1 X132.313 Y129.621 E5.10164
G1 X132.946 Y128.929 E5.13283
G0 F6000 X133.338 Y129.105
G1 F1200 X134.315 Y128.263 E5.17573
G1 X135.221 Y127.576 E5.21355
G1 X135.531 Y127.348 E5.22635
G1 X136.587 Y126.551 E5.27035
G1 X137.345 Y126.028 E5.30098
G1 X138.146 Y125.574 E5.3316
G1 X138.983 Y125.191 E5.36222
G1 X139.85 Y124.881 E5.39284
G1 X140.741 Y124.649 E5.42347
G1 X141.648 Y124.494 E5.45407
G1 X142.566 Y124.419 E5.48471
G1 X143.609 Y124.43 E5.5194
G1 X144.193 Y124.465 E5.53886
G1 X146.82 Y124.586 E5.62632
G1 X149.335 Y124.63 E5.70999
G1 X151.844 Y124.605 E5.79344
G1 X154.398 Y124.505 E5.87845
G1 X154.946 Y124.47 E5.89671
G1 X155.897 Y124.423 E5.92838
G1 X156.817 Y124.417 E5.95898
G1 X157.735 Y124.492 E5.98962
G1 X158.643 Y124.646 E6.02025
G1 X159.534 Y124.878 E6.05087
G1 X160.401 Y125.186 E6.08147
G1 X161.239 Y125.569 E6.11212
G1 X162.04 Y126.022 E6.14273
G1 X162.798 Y126.544 E6.17334
G1 X162.939 Y126.66 E6.17941
G1 X164.26 Y127.656 E6.23444
G1 X164.975 Y128.186 E6.26404
G1 X165.69 Y128.766 E6.29466
G1 X166.352 Y129.406 E6.32528
G1 X166.957 Y130.101 E6.35593
G1 X167.498 Y130.845 E6.38653
G1 X167.973 Y131.634 E6.41716
G1 X168.378 Y132.461 E6.44779
G1 X168.709 Y133.32 E6.4784
G1 X168.965 Y134.204 E6.50901
G1 X169.142 Y135.108 E6.53965
G1 X169.241 Y136.023 E6.57026
G1 X169.263 Y136.693 E6.59256
G1 X169.263 Y138.062 E6.63809
G1 X169.261 Y138.191 E6.64238
G1 X169.262 Y139.482 E6.68532
G1 X169.258 Y139.776 E6.6951
G1 X169.233 Y140.671 E6.72488
G1 X169.18 Y141.947 E6.76736
G1 X169.148 Y144.449 E6.85058
G1 X169.188 Y147.003 E6.93554
G1 X169.298 Y149.533 E7.01977
G1 X169.477 Y152.008 E7.1023
G1 X169.802 Y155.059 E7.20435
G1 X169.862 Y156.15 E7.24069
G1 X169.863 Y156.485 E7.25183
G1 X169.826 Y157.405 E7.28246
G1 X169.709 Y158.318 E7.31307
G1 X169.513 Y159.218 E7.34371
G1 X169.24 Y160.097 E7.37432
G1 X169.003 Y160.699 E7.39584
G1 X168.83 Y161.102 E7.41043
G1 X167.811 Y163.437 E7.49516
G1 X167.562 Y164.029 E7.51652
G1 X167.286 Y164.631 E7.53855
G1 X167.201 Y164.802 E7.5449
G1 X166.756 Y165.608 E7.57552
G1 X166.242 Y166.372 E7.60615
G1 X165.664 Y167.089 E7.63678
G1 X165.027 Y167.753 E7.66739
G1 X164.334 Y168.359 E7.698
G1 X163.591 Y168.903 E7.72863
G1 X163.168 Y169.17 E7.74527
G1 X162.46 Y169.595 E7.77274
G1 X160.28 Y170.947 E7.85805
G1 X156.984 Y173.154 E7.98999
G1 X156.581 Y173.438 E8.00638
G1 X155.806 Y173.935 E8.03701
G1 X154.674 Y174.505 E8.07916
G1 X154.307 Y174.663 E8.09245
G1 X153.446 Y174.99 E8.12308
G1 X152.56 Y175.241 E8.15371
G1 X151.703 Y175.407 E8.18274
G1 X151.307 Y175.467 E8.19607
G1 X150.392 Y175.566 E8.22668
G1 X149.471 Y175.584 E8.25731
G1 X148.511 Y175.518 E8.28932
G1 X148.11 Y175.472 E8.30274
G1 X147.201 Y175.327 E8.33336
G1 X146.307 Y175.104 E8.36401
G1 X145.381 Y174.783 E8.3966
G1 X144.981 Y174.623 E8.41093
G1 X144.142 Y174.244 E8.44155
G1 X143.007 Y173.58 E8.48529
G1 X140.828 Y172.116 E8.5726
G1 X138.685 Y170.762 E8.65691
G1 X137.414 Y170.016 E8.70593
G1 X136.203 Y169.289 E8.75291
G1 X135.435 Y168.781 E8.78353
G1 X134.714 Y168.209 E8.81414
G1 X134.045 Y167.576 E8.84478
G1 X133.434 Y166.888 E8.87538
G1 X132.885 Y166.149 E8.906
G1 X132.188 Y164.962 E8.95178
G1 X132.096 Y164.779 E8.9586
G1 X131.719 Y163.939 E8.98922
G1 X131.416 Y163.07 E9.01983
G1 X131.189 Y162.178 E9.05044
G1 X131.027 Y161.14 E9.08538
G1 X130.937 Y160.295 E9.11365
G1 X130.869 Y159.692 E9.13383
G1 X130.529 Y157.12 E9.22012
G1 X130.437 Y156.539 E9.23969
G1 X130.239 Y155.193 E9.28494
G1 X130.16 Y154.494 E9.30833
G1 X130.123 Y153.515 E9.34092
G1 X130.127 Y153.085 E9.35522
G1 X130.141 Y152.64 E9.37003
G1 X130.292 Y149.71 E9.46761
G1 X130.349 Y147.2 E9.55111
G1 X130.336 Y144.654 E9.6358
G1 X130.251 Y142.119 E9.72016
G1 X130.155 Y140.447 E9.77586
G1 X130.138 Y140.196 E9.78423
G1 X130.115 Y139.458 E9.80878
G1 X130.123 Y137.135 E9.88605
G1 X130.133 Y136.521 E9.90647
G1 X130.188 Y135.602 E9.93709
G1 X130.323 Y134.691 E9.96772
G1 X130.537 Y133.796 E9.99833
G1 X130.827 Y132.922 E10.02896
G1 X131.193 Y132.077 E10.05959
G1 X131.63 Y131.267 E10.0902
G1 X132.136 Y130.498 E10.12082
G1 X132.706 Y129.775 E10.15144
G1 X133.338 Y129.105 E10.18207
G0 F6000 X133.728 Y129.284
G1 F1200 X134.557 Y128.582 E10.2182
G1 X135.325 Y127.998 E10.25029
G1 X135.718 Y127.708 E10.26654
G1 X136.828 Y126.87 E10.3128
G1 X137.572 Y126.358 E10.34283
G1 X138.359 Y125.914 E10.37289
G1 X139.181 Y125.542 E10.4029
G1 X140.034 Y125.244 E10.43295
G1 X140.909 Y125.022 E10.46297
G1 X141.801 Y124.879 E10.49302
G1 X142.702 Y124.815 E10.52306
G1 X143.585 Y124.829 E10.55244
G1 X144.22 Y124.867 E10.57359
G1 X146.796 Y124.986 E10.65936
G1 X149.333 Y125.031 E10.74376
G1 X151.863 Y125.005 E10.82791
G1 X154.406 Y124.906 E10.91256
G1 X154.966 Y124.869 E10.93122
G1 X155.917 Y124.822 E10.96289
G1 X156.82 Y124.818 E10.99293
G1 X157.72 Y124.893 E11.02296
G1 X158.609 Y125.048 E11.05298
G1 X159.482 Y125.28 E11.08302
G1 X160.331 Y125.589 E11.11307
G1 X161.149 Y125.972 E11.14311
G1 X161.929 Y126.426 E11.17313
G1 X162.667 Y126.947 E11.20318
G1 X162.76 Y127.025 E11.20721
G1 X164.082 Y128.022 E11.26229
G1 X164.737 Y128.508 E11.28941
G1 X165.438 Y129.077 E11.31944
G1 X166.086 Y129.706 E11.34948
G1 X166.676 Y130.39 E11.37952
G1 X167.203 Y131.124 E11.40958
G1 X167.662 Y131.901 E11.43959
G1 X168.052 Y132.716 E11.46964
G1 X168.368 Y133.562 E11.49968
G1 X168.607 Y134.433 E11.52972
G1 X168.769 Y135.321 E11.55974
G1 X168.852 Y136.22 E11.58977
G1 X168.863 Y136.694 E11.60554
G1 X168.863 Y138.057 E11.65087
G1 X168.861 Y138.191 E11.65533
G1 X168.862 Y139.482 E11.69827
G1 X168.858 Y139.765 E11.70768
G1 X168.833 Y140.655 E11.7373
G1 X168.78 Y141.926 E11.77961
G1 X168.748 Y144.45 E11.86356
G1 X168.788 Y147.026 E11.94925
G1 X168.898 Y149.546 E12.03315
G1 X169.077 Y152.019 E12.11561
G1 X169.405 Y155.101 E12.2187
G1 X169.462 Y156.152 E12.25371
G1 X169.463 Y156.487 E12.26485
G1 X169.426 Y157.389 E12.29488
G1 X169.309 Y158.284 E12.3249
G1 X169.113 Y159.166 E12.35495
G1 X168.84 Y160.027 E12.38499
G1 X168.635 Y160.541 E12.4034
G1 X168.463 Y160.942 E12.41791
G1 X167.478 Y163.2 E12.49984
G1 X167.194 Y163.874 E12.52417
G1 X166.928 Y164.453 E12.54536
G1 X166.843 Y164.624 E12.55171
G1 X166.405 Y165.414 E12.58176
G1 X165.9 Y166.163 E12.6118
G1 X165.33 Y166.863 E12.64183
G1 X164.701 Y167.511 E12.67186
G1 X164.016 Y168.1 E12.70191
G1 X162.962 Y168.827 E12.7445
G1 X162.249 Y169.255 E12.77216
G1 X160.048 Y170.62 E12.8583
G1 X156.793 Y172.8 E12.9886
G1 X156.351 Y173.111 E13.00657
G1 X155.59 Y173.598 E13.03662
G1 X154.515 Y174.138 E13.07663
G1 X154.148 Y174.296 E13.08992
G1 X153.304 Y174.616 E13.11995
G1 X152.434 Y174.86 E13.15
G1 X151.643 Y175.012 E13.17679
G1 X151.247 Y175.072 E13.19011
G1 X150.349 Y175.168 E13.22015
G1 X149.446 Y175.183 E13.25019
G1 X148.557 Y175.121 E13.27983
G1 X148.156 Y175.075 E13.29325
G1 X147.264 Y174.932 E13.3233
G1 X146.388 Y174.711 E13.35335
G1 X145.53 Y174.411 E13.38358
G1 X145.13 Y174.251 E13.39791
G1 X144.307 Y173.879 E13.42795
G1 X143.231 Y173.248 E13.46943
G1 X141.06 Y171.79 E13.55641
G1 X138.9 Y170.424 E13.64142
G1 X137.62 Y169.673 E13.69078
G1 X136.409 Y168.946 E13.73776
G1 X135.656 Y168.447 E13.7678
G1 X134.95 Y167.884 E13.79783
G1 X134.297 Y167.261 E13.82785
G1 X133.701 Y166.582 E13.8579
G1 X133.168 Y165.853 E13.88794
G1 X132.546 Y164.782 E13.92913
G1 X132.454 Y164.599 E13.93594
G1 X132.084 Y163.775 E13.96599
G1 X131.789 Y162.922 E13.99601
G1 X131.571 Y162.046 E14.02603
G1 X131.424 Y161.097 E14.05797
G1 X131.326 Y160.176 E14.08878
G1 X131.26 Y159.597 E14.10816
G1 X130.927 Y157.075 E14.19277
G1 X130.833 Y156.48 E14.2128
G1 X130.635 Y155.134 E14.25805
G1 X130.558 Y154.461 E14.28058
G1 X130.523 Y153.519 E14.31194
G1 X130.527 Y153.089 E14.32624
G1 X130.54 Y152.66 E14.34051
G1 X130.692 Y149.703 E14.43899
G1 X130.749 Y147.208 E14.522
G1 X130.736 Y144.638 E14.60748
G1 X130.65 Y142.083 E14.69251
G1 X130.56 Y140.517 E14.74468
G1 X130.537 Y140.17 E14.75624
G1 X130.515 Y139.46 E14.77987
G1 X130.524 Y136.999 E14.86172
G1 X130.532 Y136.528 E14.87739
G1 X130.588 Y135.626 E14.90745
G1 X130.723 Y134.733 E14.93749
G1 X130.936 Y133.856 E14.96751
G1 X131.226 Y133.001 E14.99754
G1 X131.59 Y132.174 E15.02759
G1 X132.027 Y131.384 E15.05762
G1 X132.531 Y130.634 E15.08767
G1 X133.1 Y129.933 E15.1177
G1 X133.728 Y129.284 E15.14774
G1 F2700 E10.14774
;MESH:Slytherin_Name_Ring.stl
G0 F6000 X141.274 Y135.891
G0 X141.598 Y136.819
G0 X142.304 Y138.637
G0 X142.132 Y139.087
G0 X143.847 Y141.615
G0 X143.35 Y141.862
G0 X143.369 Y142.344
G0 X146.793 Y140.629
G0 X147.108 Y140.705
G0 X147.282 Y141.13
G0 X146.699 Y143.339
G0 X146.646 Y144.609
G0 X146.88 Y145.954
G0 X147.256 Y146.8
G0 X148.501 Y148.811
G0 X148.884 Y149.325
G0 X147.067 Y144.153
G0 X148.18 Y142.563
G0 X148.966 Y142.055
G0 X149.657 Y141.912
G0 X150.628 Y142.029
G0 X151.541 Y142.447
G0 X152.021 Y142.897
G0 X152.633 Y143.842
G0 X152.831 Y144.527
G0 X152.809 Y144.877
G0 X152.091 Y145.905
G0 X152.295 Y146.157
G0 X152.331 Y147.026
;TYPE:WALL-INNER
G1 F2700 E15.14774
G1 F1200 X152.611 Y146.556 E15.16593
G1 X152.573 Y146.082 E15.18175
G1 X152.345 Y145.804 E15.19371
G1 X152.287 Y145.733 E15.19676
G1 X152.097 Y145.533 E15.20593
G1 X151.885 Y145.329 E15.21572
G1 X151.628 Y145.137 E15.22639
G1 X151.909 Y145.28 E15.22705
G1 X152.16 Y145.408 E15.22967
G1 X152.194 Y145.426
G1 X152.28 Y145.425 E15.23008
G1 X152.373 Y145.423 E15.23286
G1 X152.572 Y145.418 E15.23948
G1 X152.862 Y145.252 E15.25059
G1 X153.067 Y144.967 E15.26227
G1 X153.093 Y144.508 E15.27756
G1 X152.998 Y144.041 E15.29341
G1 X152.868 Y143.728 E15.30468
G1 X152.701 Y143.396 E15.31704
G1 X152.443 Y143.015 E15.33235
G1 X152.217 Y142.724 E15.3446
G1 X151.995 Y142.482 E15.35553
G1 X151.687 Y142.23 E15.36876
G1 X151.413 Y142.085 E15.37907
G1 X151.035 Y141.894 E15.39316
G1 X150.697 Y141.777 E15.40505
G1 X150.348 Y141.696 E15.41697
G1 X150.044 Y141.661 E15.42715
G1 X149.642 Y141.65 E15.44052
G1 X149.209 Y141.715 E15.45509
G1 X148.869 Y141.81 E15.46683
G1 X148.545 Y141.982 E15.47903
G1 X147.984 Y142.381 E15.50193
G1 X147.91 Y142.504 E15.5067
G1 X147.841 Y142.533 E15.50919
G1 X147.646 Y142.907 E15.52322
G1 X147.5 Y143.159 E15.53291
G1 X147.38 Y143.488 E15.54455
G1 X147.288 Y143.823 E15.55611
G1 X147.237 Y144.171 E15.56781
G1 X147.229 Y144.291 E15.57181
G1 X147.225 Y144.631 E15.58312
G1 X147.241 Y145.076 E15.59793
G1 X147.296 Y145.454 E15.61063
G1 X147.313 Y145.557 E15.6141
G1 X147.41 Y145.95 E15.62757
G1 X147.488 Y146.22 E15.63691
G1 X147.608 Y146.587 E15.64976
G1 X147.732 Y146.903 E15.66105
G1 X147.815 Y147.1 E15.66816
G1 X147.947 Y147.368 E15.67809
G1 X148.115 Y147.674 E15.6897
G1 X148.285 Y147.944 E15.70032
G1 X148.527 Y148.293 E15.71444
G1 X148.77 Y148.677 E15.72956
G1 X148.938 Y148.96 E15.7405
G1 X149.047 Y149.179 E15.74864
G1 X149.182 Y149.459 E15.75898
G1 X149.305 Y149.739 E15.76915
G1 X149.338 Y149.815 E15.7719
G1 X149.436 Y150.062 E15.78074
G1 X149.447 Y150.089 E15.78171
G1 X149.46 Y150.127 E15.78305
G1 X149.526 Y150.317 E15.78974
G1 X149.629 Y150.677 E15.80219
G1 X149.688 Y151.026 E15.81396
G1 X149.713 Y151.267 E15.82202
G1 X149.658 Y151.687 E15.83611
G1 X149.539 Y152.099 E15.85037
G1 X149.315 Y152.518 E15.86618
