;FLAVOR:Marlin
;TIME:791
;Filament used: 0.205036m
;Layer height: 0.2
;MINX:128.903
;MINY:124.016
;MINZ:0.2
;MAXX:171.114
;MAXY:175.986
;MAXZ:2
;Generated with Cura_SteamEngine 4.11.0
M140 S50
M105
M190 S50
M104 S200
M105
M109 S200
M82 ;absolute extrusion mode
M201 X500.00 Y500.00 Z100.00 E5000.00 ;Setup machine max acceleration
M203 X500.00 Y500.00 Z10.00 E50.00 ;Setup machine max feedrate
M204 P500.00 R1000.00 T500.00 ;Setup Print/Retract/Travel acceleration
M205 X8.00 Y8.00 Z0.40 E5.00 ;Setup Jerk
M220 S100 ;Reset Feedrate
M221 S100 ;Reset Flowrate

G28 ;Home

G92 E0 ;Reset Extruder
G1 Z2.0 F3000 ;Move Z Axis up
G1 X10.1 Y20 Z0.28 F5000.0 ;Move to start position
G1 X10.1 Y200.0 Z0.28 F1500.0 E15 ;Draw the first line
G1 X10.4 Y200.0 Z0.28 F5000.0 ;Move to side a little
G1 X10.4 Y20 Z0.28 F1500.0 E30 ;Draw the second line
G92 E0 ;Reset Extruder
G1 Z2.0 F3000 ;Move Z Axis up

G92 E0
G92 E0
G1 F2700 E-5
;LAYER_COUNT:10
;LAYER:0
M107
G0 F6000 X135.996 Y131.776 Z0.2
;TYPE:SKIRT
G1 F2700 E0
G1 F1200 X136.213 Y131.556 E0.01028
G1 X136.724 Y131.07 E0.03373
G1 X136.945 Y130.873 E0.04358
G1 X137.554 Y130.369 E0.06987
G1 X137.741 Y130.225 E0.07772
G1 X138.177 Y129.905 E0.09571
G1 X138.416 Y129.739 E0.10539
G1 X138.682 Y129.56 E0.11605
G1 X139.019 Y129.342 E0.1294
G1 X140.1 Y128.662 E0.17188
G1 X142.209 Y127.272 E0.25589
G1 X143.298 Y126.508 E0.30013
G1 X144.131 Y125.938 E0.3337
G1 X144.927 Y125.442 E0.3649
G1 X145.762 Y125.015 E0.39609
G1 X146.631 Y124.661 E0.4273
G1 X147.526 Y124.383 E0.45847
G1 X148.442 Y124.181 E0.48967
G1 X149.372 Y124.059 E0.52087
G1 X150.309 Y124.016 E0.55206
G1 X151.246 Y124.053 E0.58325
G1 X152.177 Y124.17 E0.61446
G1 X153.094 Y124.366 E0.64565
G1 X153.991 Y124.639 E0.67684
G1 X154.862 Y124.987 E0.70803
G1 X155.976 Y125.568 E0.74982
G1 X156.405 Y125.834 E0.76661
G1 X156.871 Y126.14 E0.78515
G1 X157.527 Y126.585 E0.81152
G1 X159.693 Y127.985 E0.8973
G1 X160.778 Y128.654 E0.93969
G1 X161.514 Y129.1 E0.96832
G1 X161.768 Y129.26 E0.9783
G1 X162.032 Y129.43 E0.98874
G1 X162.612 Y129.829 E1.01216
G1 X162.895 Y130.038 E1.02386
G1 X163.651 Y130.65 E1.05621
G1 X163.86 Y130.835 E1.06549
G1 X164.249 Y131.197 E1.08317
G1 X164.33 Y131.276 E1.08693
G1 X164.772 Y131.733 E1.10808
G1 X164.909 Y131.883 E1.11483
G1 X165.125 Y132.126 E1.12565
G1 X165.422 Y132.477 E1.14094
G1 X165.754 Y132.884 E1.15841
G1 X166.253 Y133.545 E1.18596
G1 X166.412 Y133.773 E1.1952
G1 X166.91 Y134.557 E1.22609
G1 X166.98 Y134.678 E1.23074
G1 X167.232 Y135.137 E1.24816
G1 X167.561 Y135.777 E1.27209
G1 X168.106 Y136.875 E1.31286
G1 X169.299 Y139.118 E1.39736
G1 X169.55 Y139.567 E1.41447
G1 X169.663 Y139.774 E1.42232
G1 X169.807 Y140.045 E1.43252
G1 X170.211 Y140.892 E1.46373
G1 X170.542 Y141.769 E1.49491
G1 X170.797 Y142.672 E1.52612
G1 X171.022 Y143.955 E1.56944
G1 X171.048 Y144.182 E1.57704
G1 X171.114 Y145.118 E1.60825
G1 X171.075 Y146.422 E1.65164
G1 X170.853 Y148.879 E1.7337
G1 X170.8 Y149.781 E1.76375
G1 X170.703 Y151.146 E1.80926
G1 X170.596 Y152.084 E1.84066
G1 X170.556 Y152.337 E1.84918
G1 X170.493 Y152.695 E1.86127
G1 X170.311 Y153.638 E1.89322
G1 X170.137 Y154.48 E1.92181
G1 X169.507 Y158.171 E2.04635
G1 X169.484 Y158.322 E2.05143
G1 X169.361 Y159.002 E2.07442
G1 X169.129 Y159.911 E2.10562
G1 X168.943 Y160.473 E2.12531
G1 X168.565 Y161.518 E2.16227
G1 X168.058 Y162.883 E2.2107
G1 X167.808 Y163.54 E2.23408
G1 X167.437 Y164.402 E2.26529
G1 X166.995 Y165.228 E2.29645
G1 X166.483 Y166.015 E2.32768
G1 X165.907 Y166.754 E2.35884
G1 X165.252 Y167.459 E2.39085
G1 X165.178 Y167.532 E2.39431
G1 X164.436 Y168.2 E2.42751
G1 X162.376 Y169.893 E2.5162
G1 X160.47 Y171.551 E2.60022
G1 X160.261 Y171.741 E2.60962
G1 X159.265 Y172.634 E2.65411
G1 X158.791 Y173.036 E2.67478
G1 X158.452 Y173.307 E2.68921
G1 X158.047 Y173.616 E2.70616
G1 X157.268 Y174.138 E2.73735
G1 X156.448 Y174.593 E2.76854
G1 X155.914 Y174.841 E2.78812
G1 X155.527 Y175.009 E2.80215
G1 X154.652 Y175.346 E2.83334
G1 X153.751 Y175.606 E2.86453
G1 X152.796 Y175.795 E2.89691
G1 X152.341 Y175.864 E2.91221
G1 X151.409 Y175.965 E2.94339
G1 X150.471 Y175.986 E2.9746
G1 X149.417 Y175.914 E3.00974
G1 X148.997 Y175.865 E3.0238
G1 X148.071 Y175.717 E3.05499
G1 X147.161 Y175.49 E3.08619
G1 X146.217 Y175.164 E3.1194
G1 X145.806 Y175.001 E3.13411
G1 X144.949 Y174.619 E3.16532
G1 X144.129 Y174.164 E3.19651
G1 X143.317 Y173.618 E3.22905
G1 X142.963 Y173.356 E3.2437
G1 X142.67 Y173.131 E3.25599
G1 X142.437 Y172.945 E3.2659
G1 X140.593 Y171.442 E3.34503
G1 X138.595 Y169.906 E3.42885
G1 X136.798 Y168.592 E3.50289
G1 X136.067 Y168.004 E3.53409
G1 X135.389 Y167.356 E3.56529
G1 X134.768 Y166.653 E3.59649
G1 X134.21 Y165.899 E3.62768
G1 X133.894 Y165.403 E3.64724
G1 X133.442 Y164.581 E3.67845
G1 X133.063 Y163.724 E3.70961
G1 X132.899 Y163.278 E3.72542
G1 X132.7 Y162.699 E3.74578
G1 X131.931 Y160.545 E3.82185
G1 X131.654 Y159.65 E3.85301
G1 X131.423 Y158.547 E3.89049
G1 X131.327 Y157.934 E3.91113
G1 X130.884 Y155.347 E3.99843
G1 X130.405 Y152.954 E4.0796
G1 X129.823 Y150.429 E4.16578
G1 X129.619 Y149.645 E4.19273
G1 X129.293 Y148.325 E4.23795
G1 X129.242 Y148.111 E4.24527
G1 X129.158 Y147.739 E4.25795
G1 X128.991 Y146.816 E4.28915
G1 X128.903 Y145.882 E4.32035
G1 X128.91 Y144.613 E4.36256
G1 X128.923 Y144.41 E4.36932
G1 X129.023 Y143.477 E4.40053
G1 X129.202 Y142.557 E4.43171
G1 X129.459 Y141.655 E4.4629
G1 X129.818 Y140.717 E4.49631
G1 X129.91 Y140.506 E4.50396
G1 X130.277 Y139.744 E4.53209
G1 X130.447 Y139.431 E4.54394
G1 X130.732 Y138.924 E4.56328
G1 X131.187 Y138.102 E4.59453
G1 X131.739 Y137.131 E4.63168
G1 X132.502 Y135.967 E4.67797
G1 X132.841 Y135.536 E4.69621
G1 X133.622 Y134.591 E4.73699
G1 X133.741 Y134.432 E4.74359
G1 X134.468 Y133.567 E4.78117
G1 X135.143 Y132.732 E4.81689
G1 X135.463 Y132.353 E4.83338
G1 X135.596 Y132.203 E4.84005
G1 X135.996 Y131.776 E4.85951
G0 F6000 X136.28 Y132.057
G1 F1200 X136.497 Y131.837 E4.86979
G1 X136.991 Y131.368 E4.89244
G1 X137.212 Y131.171 E4.90229
G1 X137.798 Y130.686 E4.92759
G1 X137.985 Y130.542 E4.93544
G1 X138.405 Y130.234 E4.95276
G1 X138.644 Y130.068 E4.96244
G1 X138.901 Y129.895 E4.97275
G1 X139.232 Y129.681 E4.98586
G1 X140.3 Y129.009 E5.02783
G1 X142.43 Y127.605 E5.11268
G1 X143.524 Y126.838 E5.15711
G1 X144.357 Y126.268 E5.19068
G1 X145.139 Y125.782 E5.22131
G1 X145.96 Y125.365 E5.25193
G1 X146.814 Y125.021 E5.28256
G1 X147.694 Y124.752 E5.31316
G1 X148.595 Y124.561 E5.3438
G1 X149.509 Y124.449 E5.37442
G1 X150.429 Y124.416 E5.40504
G1 X151.348 Y124.464 E5.43565
G1 X152.26 Y124.591 E5.46628
G1 X153.157 Y124.796 E5.49688
G1 X154.033 Y125.079 E5.5275
G1 X154.882 Y125.437 E5.55814
G1 X155.771 Y125.911 E5.59165
G1 X156.186 Y126.169 E5.6079
G1 X156.646 Y126.471 E5.62621
G1 X157.296 Y126.912 E5.65233
G1 X159.465 Y128.314 E5.73823
G1 X160.642 Y129.04 E5.78423
G1 X161.306 Y129.443 E5.81006
G1 X161.552 Y129.596 E5.8197
G1 X161.816 Y129.766 E5.83014
G1 X162.374 Y130.151 E5.85269
G1 X162.657 Y130.36 E5.86439
G1 X163.386 Y130.95 E5.89558
G1 X163.595 Y131.135 E5.90487
G1 X163.97 Y131.484 E5.9219
G1 X164.051 Y131.563 E5.92567
G1 X164.477 Y132.003 E5.94604
G1 X164.614 Y132.153 E5.95279
G1 X164.822 Y132.387 E5.96321
G1 X164.933 Y132.516 E5.96887
G1 X165.112 Y132.73 E5.97815
G1 X165.444 Y133.137 E5.99562
G1 X165.925 Y133.774 E6.02216
G1 X166.084 Y134.002 E6.03141
G1 X166.564 Y134.757 E6.06117
G1 X166.634 Y134.878 E6.06582
G1 X166.877 Y135.321 E6.08262
G1 X167.203 Y135.955 E6.10633
G1 X167.752 Y137.062 E6.14743
G1 X168.964 Y139.34 E6.23325
G1 X169.31 Y139.962 E6.25693
G1 X169.454 Y140.233 E6.26713
G1 X169.85 Y141.064 E6.29775
G1 X170.173 Y141.926 E6.32837
G1 X170.419 Y142.813 E6.35898
G1 X170.624 Y144.001 E6.39908
G1 X170.65 Y144.228 E6.40668
G1 X170.715 Y145.146 E6.43729
G1 X170.676 Y146.386 E6.47855
G1 X170.456 Y148.821 E6.55987
G1 X170.401 Y149.752 E6.59089
G1 X170.304 Y151.117 E6.6364
G1 X170.201 Y152.021 E6.66667
G1 X170.161 Y152.274 E6.67518
G1 X170.101 Y152.619 E6.68683
G1 X169.949 Y153.41 E6.71362
G1 X169.746 Y154.392 E6.74697
G1 X169.115 Y158.087 E6.87165
G1 X169.089 Y158.263 E6.87757
G1 X168.97 Y158.92 E6.89977
G1 X168.741 Y159.812 E6.9304
G1 X168.566 Y160.338 E6.94884
G1 X168.19 Y161.379 E6.98565
G1 X167.684 Y162.741 E7.03398
G1 X167.434 Y163.398 E7.05736
G1 X167.07 Y164.243 E7.08796
G1 X166.633 Y165.054 E7.1186
G1 X166.128 Y165.824 E7.14923
G1 X165.558 Y166.546 E7.17983
G1 X164.971 Y167.174 E7.20842
G1 X164.897 Y167.247 E7.21187
G1 X164.182 Y167.891 E7.24388
G1 X162.125 Y169.581 E7.33242
G1 X160.198 Y171.258 E7.41739
G1 X158.998 Y172.336 E7.47104
G1 X158.541 Y172.724 E7.49098
G1 X158.202 Y172.995 E7.50541
G1 X157.81 Y173.293 E7.52179
G1 X157.045 Y173.806 E7.55243
G1 X156.239 Y174.25 E7.58303
G1 X155.755 Y174.474 E7.60077
G1 X155.368 Y174.642 E7.6148
G1 X154.508 Y174.972 E7.64544
G1 X153.623 Y175.226 E7.67607
G1 X152.736 Y175.399 E7.70612
G1 X152.281 Y175.468 E7.72143
G1 X151.366 Y175.567 E7.75204
G1 X150.445 Y175.585 E7.78268
G1 X149.464 Y175.517 E7.81538
G1 X149.044 Y175.468 E7.82945
G1 X148.135 Y175.321 E7.86007
G1 X147.242 Y175.097 E7.8907
G1 X146.364 Y174.792 E7.92161
G1 X145.953 Y174.629 E7.93632
G1 X145.113 Y174.253 E7.96693
G1 X144.309 Y173.805 E7.99754
G1 X143.555 Y173.296 E8.0278
G1 X143.201 Y173.034 E8.04244
G1 X142.919 Y172.818 E8.05426
G1 X142.69 Y172.635 E8.06401
G1 X140.844 Y171.131 E8.1432
G1 X138.835 Y169.586 E8.2275
G1 X137.035 Y168.27 E8.30166
G1 X136.318 Y167.692 E8.33229
G1 X135.654 Y167.055 E8.3629
G1 X135.048 Y166.362 E8.39352
G1 X134.504 Y165.619 E8.42414
G1 X134.236 Y165.196 E8.4408
G1 X133.793 Y164.389 E8.47142
G1 X133.277 Y163.148 E8.51612
G1 X133.077 Y162.565 E8.53662
G1 X132.308 Y160.411 E8.61269
G1 X132.037 Y159.531 E8.64332
G1 X131.818 Y158.485 E8.67886
G1 X131.722 Y157.87 E8.69956
G1 X131.278 Y155.279 E8.787
G1 X130.792 Y152.85 E8.86939
G1 X130.214 Y150.343 E8.95496
G1 X130.007 Y149.55 E8.98222
G1 X129.681 Y148.23 E9.02744
G1 X129.548 Y147.651 E9.0472
G1 X129.385 Y146.745 E9.07781
G1 X129.3 Y145.828 E9.10845
G1 X129.31 Y144.639 E9.14799
G1 X129.323 Y144.436 E9.15476
G1 X129.421 Y143.52 E9.1854
G1 X129.599 Y142.617 E9.21601
G1 X129.855 Y141.732 E9.24665
G1 X130.184 Y140.876 E9.27715
G1 X130.276 Y140.665 E9.28481
G1 X130.63 Y139.932 E9.31188
G1 X130.796 Y139.627 E9.32343
G1 X131.044 Y139.185 E9.34029
G1 X131.535 Y138.299 E9.37398
G1 X132.087 Y137.328 E9.41113
G1 X132.822 Y136.207 E9.45571
G1 X133.149 Y135.791 E9.47331
G1 X133.883 Y134.903 E9.51163
G1 X134.047 Y134.69 E9.52057
G1 X134.755 Y133.846 E9.55721
G1 X135.454 Y132.983 E9.59415
G1 X135.763 Y132.619 E9.61003
G1 X135.896 Y132.469 E9.6167
G1 X136.28 Y132.057 E9.63543
G0 F6000 X136.565 Y132.338
G1 F1200 X136.782 Y132.118 E9.64571
G1 X137.257 Y131.667 E9.6675
G1 X137.478 Y131.47 E9.67734
G1 X138.042 Y131.002 E9.70172
G1 X138.229 Y130.858 E9.70957
G1 X138.633 Y130.562 E9.72623
G1 X138.872 Y130.396 E9.7359
G1 X139.119 Y130.23 E9.7458
G1 X139.445 Y130.019 E9.75872
G1 X140.533 Y129.335 E9.80146
G1 X142.65 Y127.939 E9.88581
G1 X143.75 Y127.168 E9.93048
G1 X144.583 Y126.598 E9.96405
G1 X145.35 Y126.122 E9.99408
G1 X146.156 Y125.715 E10.02411
G1 X146.995 Y125.381 E10.05415
G1 X147.861 Y125.123 E10.0842
G1 X148.746 Y124.942 E10.11424
G1 X149.643 Y124.84 E10.14427
G1 X150.546 Y124.818 E10.17431
G1 X151.447 Y124.876 E10.20434
G1 X152.34 Y125.013 E10.23439
G1 X153.217 Y125.229 E10.26443
G1 X154.071 Y125.522 E10.29446
G1 X154.896 Y125.889 E10.32449
G1 X155.566 Y126.255 E10.34989
G1 X155.968 Y126.504 E10.36561
G1 X156.422 Y126.802 E10.38368
G1 X157.066 Y127.239 E10.40956
G1 X159.305 Y128.686 E10.49823
G1 X160.415 Y129.37 E10.54159
G1 X161.099 Y129.785 E10.5682
G1 X161.335 Y129.932 E10.57745
G1 X161.599 Y130.102 E10.5879
G1 X162.137 Y130.473 E10.60963
G1 X162.42 Y130.682 E10.62133
G1 X163.121 Y131.249 E10.65132
G1 X163.33 Y131.434 E10.6606
G1 X163.691 Y131.77 E10.67701
G1 X163.772 Y131.849 E10.68077
G1 X164.181 Y132.272 E10.70034
G1 X164.318 Y132.422 E10.7071
G1 X164.519 Y132.648 E10.71716
G1 X164.63 Y132.777 E10.72282
G1 X164.802 Y132.983 E10.73174
G1 X165.134 Y133.39 E10.74921
G1 X165.596 Y134.002 E10.77472
G1 X165.755 Y134.23 E10.78396
G1 X166.218 Y134.957 E10.81263
G1 X166.288 Y135.078 E10.81728
G1 X166.521 Y135.504 E10.83343
G1 X166.844 Y136.133 E10.85695
G1 X167.376 Y137.206 E10.89678
G1 X168.62 Y139.544 E10.98486
G1 X168.851 Y139.957 E11.0006
G1 X169.1 Y140.421 E11.01812
G1 X169.488 Y141.236 E11.04814
G1 X169.803 Y142.083 E11.0782
G1 X170.041 Y142.954 E11.10823
G1 X170.227 Y144.046 E11.14507
G1 X170.253 Y144.273 E11.15267
G1 X170.316 Y145.174 E11.18271
G1 X170.278 Y146.35 E11.22185
G1 X170.058 Y148.793 E11.30343
G1 X170.002 Y149.724 E11.33445
G1 X169.905 Y151.089 E11.37996
G1 X169.806 Y151.959 E11.40909
G1 X169.766 Y152.212 E11.41761
G1 X169.708 Y152.544 E11.42882
G1 X169.528 Y153.476 E11.46039
G1 X169.346 Y154.356 E11.49028
G1 X168.722 Y158.011 E11.6136
G1 X168.693 Y158.204 E11.62009
G1 X168.578 Y158.837 E11.64149
G1 X168.353 Y159.712 E11.67154
G1 X168.19 Y160.202 E11.68872
G1 X167.815 Y161.24 E11.72542
G1 X167.31 Y162.599 E11.77364
G1 X167.06 Y163.256 E11.79702
G1 X166.702 Y164.085 E11.82706
G1 X166.272 Y164.879 E11.85709
G1 X165.773 Y165.632 E11.88714
G1 X165.21 Y166.337 E11.91714
G1 X164.69 Y166.889 E11.94237
G1 X164.616 Y166.962 E11.94582
G1 X163.928 Y167.582 E11.97663
G1 X161.872 Y169.271 E12.06513
G1 X159.909 Y170.979 E12.15167
G1 X159.727 Y171.145 E12.15986
G1 X158.731 Y172.038 E12.20436
G1 X158.291 Y172.411 E12.22354
G1 X157.952 Y172.682 E12.23798
G1 X157.573 Y172.971 E12.25383
G1 X156.822 Y173.473 E12.28387
G1 X156.03 Y173.907 E12.31391
G1 X155.596 Y174.107 E12.3298
G1 X155.209 Y174.275 E12.34384
G1 X154.365 Y174.598 E12.37389
G1 X153.496 Y174.845 E12.40394
G1 X152.676 Y175.004 E12.43172
G1 X152.221 Y175.073 E12.44703
G1 X151.323 Y175.168 E12.47706
G1 X150.42 Y175.184 E12.5071
G1 X149.51 Y175.119 E12.53745
G1 X149.09 Y175.07 E12.55151
G1 X148.199 Y174.926 E12.58153
G1 X147.323 Y174.703 E12.61159
G1 X146.512 Y174.421 E12.64015
G1 X146.101 Y174.258 E12.65486
G1 X145.277 Y173.888 E12.6849
G1 X144.489 Y173.447 E12.71494
G1 X143.793 Y172.975 E12.74291
G1 X143.439 Y172.713 E12.75755
G1 X143.167 Y172.505 E12.76894
G1 X142.943 Y172.325 E12.7785
G1 X141.112 Y170.833 E12.85706
G1 X139.055 Y169.251 E12.94337
G1 X137.272 Y167.948 E13.01682
G1 X136.569 Y167.381 E13.04686
G1 X135.92 Y166.753 E13.07689
G1 X135.328 Y166.071 E13.10693
G1 X134.598 Y165.022 E13.14944
G1 X134.578 Y164.989 E13.15072
G1 X134.145 Y164.196 E13.18077
G1 X133.655 Y163.018 E13.22321
G1 X133.432 Y162.37 E13.246
G1 X132.685 Y160.277 E13.31991
G1 X132.419 Y159.413 E13.34998
G1 X132.213 Y158.423 E13.38362
G1 X132.104 Y157.726 E13.40708
G1 X131.676 Y155.233 E13.49121
G1 X131.182 Y152.761 E13.57505
G1 X130.603 Y150.25 E13.66076
G1 X130.396 Y149.454 E13.68812
G1 X130.07 Y148.134 E13.73334
G1 X129.939 Y147.563 E13.75283
G1 X129.779 Y146.674 E13.78287
G1 X129.698 Y145.774 E13.81292
G1 X129.709 Y144.664 E13.84984
G1 X129.722 Y144.461 E13.85661
G1 X129.819 Y143.563 E13.88665
G1 X129.996 Y142.678 E13.91667
G1 X130.25 Y141.811 E13.94672
G1 X130.551 Y141.036 E13.97437
G1 X130.643 Y140.825 E13.98203
G1 X130.984 Y140.119 E14.0081
G1 X131.145 Y139.823 E14.01931
G1 X131.394 Y139.379 E14.03624
G1 X131.883 Y138.497 E14.06978
G1 X132.435 Y137.526 E14.10693
G1 X133.142 Y136.447 E14.14984
G1 X133.457 Y136.045 E14.16683
G1 X134.091 Y135.277 E14.19995
G1 X134.354 Y134.947 E14.21398
G1 X135.061 Y134.105 E14.25055
G1 X135.765 Y133.235 E14.28778
G1 X136.062 Y132.884 E14.30307
G1 X136.195 Y132.734 E14.30974
G1 X136.565 Y132.338 E14.32776
G1 F2700 E9.32776
;MESH:Hufflepuff_Ring.stl
G0 F6000 X144.948 Y137.847
G0 X145.422 Y138.726
G0 X144.08 Y140.436
G0 X143.688 Y141.352
G0 X143.63 Y141.978
G0 X143.934 Y141.777
G0 X146.125 Y139.117
G0 X149.923 Y137.956
G0 X150.17 Y137.607
G0 X150.497 Y137.524
G0 X152.288 Y138.974
G0 X152.45 Y139.185
G0 X152.817 Y140.272
G0 X153.382 Y140.131
G0 X154.185 Y140.41
G0 X154.437 Y140.673
G0 X154.536 Y140.994
G0 X154.552 Y142.513
G0 X154.399 Y143.72
G0 X156.005 Y144.755
G0 X156.525 Y144.903
;TYPE:WALL-INNER
G1 F2700 E14.32776
G1 F1200 X156.7 Y144.523 E14.34168
G1 X156.751 Y144.413 E14.34571
