;FLAVOR:Marlin
;TIME:809
;Filament used: 0.247359m
;Layer height: 0.2
;MINX:129.045
;MINY:124.019
;MINZ:0.2
;MAXX:170.965
;MAXY:175.981
;MAXZ:1.8
;Generated with Cura_SteamEngine 4.11.0
M140 S50
M105
M190 S50
M104 S200
M105
M109 S200
M82 ;absolute extrusion mode
M201 X500.00 Y500.00 Z100.00 E5000.00 ;Setup machine max acceleration
M203 X500.00 Y500.00 Z10.00 E50.00 ;Setup machine max feedrate
M204 P500.00 R1000.00 T500.00 ;Setup Print/Retract/Travel acceleration
M205 X8.00 Y8.00 Z0.40 E5.00 ;Setup Jerk
M220 S100 ;Reset Feedrate
M221 S100 ;Reset Flowrate

G28 ;Home

G92 E0 ;Reset Extruder
G1 Z2.0 F3000 ;Move Z Axis up
G1 X10.1 Y20 Z0.28 F5000.0 ;Move to start position
G1 X10.1 Y200.0 Z0.28 F1500.0 E15 ;Draw the first line
G1 X10.4 Y200.0 Z0.28 F5000.0 ;Move to side a little
G1 X10.4 Y20 Z0.28 F1500.0 E30 ;Draw the second line
G92 E0 ;Reset Extruder
G1 Z2.0 F3000 ;Move Z Axis up

G92 E0
G92 E0
G1 F2700 E-5
;LAYER_COUNT:10
;LAYER:0
M107
G0 F6000 X132.929 Y129.056 Z0.2
;TYPE:SKIRT
G1 F2700 E0
G1 F1200 X133.619 Y128.421 E0.03119
G1 X134.06 Y128.067 E0.05
G1 X134.79 Y127.512 E0.0805
G1 X135.529 Y126.967 E0.11104
G1 X135.948 Y126.643 E0.12865
G1 X136.512 Y126.22 E0.1521
G1 X137.286 Y125.69 E0.1833
G1 X138.102 Y125.227 E0.21451
G1 X138.954 Y124.836 E0.24569
G1 X139.837 Y124.519 E0.27689
G1 X140.743 Y124.278 E0.30807
G1 X141.667 Y124.115 E0.33928
G1 X142.601 Y124.032 E0.37047
G1 X143.871 Y124.046 E0.41271
G1 X146.555 Y124.197 E0.50212
G1 X149.07 Y124.266 E0.5858
G1 X151.595 Y124.264 E0.66978
G1 X154.065 Y124.192 E0.75197
G1 X156.201 Y124.063 E0.82314
G1 X157.008 Y124.024 E0.85002
G1 X157.946 Y124.019 E0.88122
G1 X158.881 Y124.093 E0.91241
G1 X159.806 Y124.247 E0.9436
G1 X160.715 Y124.479 E0.9748
G1 X161.6 Y124.788 E1.00598
G1 X162.456 Y125.171 E1.03717
G1 X163.011 Y125.468 E1.05811
G1 X163.804 Y125.968 E1.08929
G1 X164.266 Y126.305 E1.10831
G1 X164.437 Y126.437 E1.11549
G1 X166.348 Y127.875 E1.19504
G1 X166.481 Y127.973 E1.20053
G1 X167.211 Y128.562 E1.23173
G1 X167.888 Y129.21 E1.2629
G1 X168.508 Y129.914 E1.2941
G1 X169.066 Y130.669 E1.32533
G1 X169.557 Y131.467 E1.35649
G1 X169.979 Y132.305 E1.3877
G1 X170.327 Y133.176 E1.41889
G1 X170.6 Y134.073 E1.45008
G1 X170.796 Y134.99 E1.48127
G1 X170.913 Y135.921 E1.51247
G1 X170.95 Y136.775 E1.54091
G1 X170.956 Y138.203 E1.5884
G1 X170.954 Y138.539 E1.59958
G1 X170.964 Y139.164 E1.62037
G1 X170.965 Y139.82 E1.64219
G1 X170.96 Y140.142 E1.6529
G1 X170.922 Y141.385 E1.69426
G1 X170.917 Y141.489 E1.69772
G1 X170.874 Y144.001 E1.78128
G1 X170.901 Y146.536 E1.8656
G1 X170.957 Y148.242 E1.92237
G1 X170.921 Y149.564 E1.96636
G1 X170.81 Y150.828 E2.00856
G1 X170.781 Y151.113 E2.01809
G1 X170.61 Y153.365 E2.09321
G1 X170.547 Y154.32 E2.12504
G1 X170.446 Y155.252 E2.15622
G1 X170.343 Y155.827 E2.17565
G1 X170.287 Y156.096 E2.18479
G1 X169.78 Y158.731 E2.27404
G1 X169.365 Y161.256 E2.35915
G1 X169.333 Y161.463 E2.36611
G1 X169.152 Y162.383 E2.3973
G1 X168.806 Y163.531 E2.43718
G1 X168.48 Y164.432 E2.46905
G1 X167.725 Y166.451 E2.54074
G1 X167.36 Y167.315 E2.57194
G1 X166.922 Y168.144 E2.60312
G1 X166.415 Y168.933 E2.63431
G1 X165.842 Y169.676 E2.66552
G1 X164.967 Y170.603 E2.70792
G1 X164.758 Y170.8 E2.71747
G1 X164.049 Y171.413 E2.74864
G1 X162.971 Y172.168 E2.79242
G1 X162.691 Y172.34 E2.80335
G1 X162.314 Y172.561 E2.81788
G1 X162.166 Y172.644 E2.82353
G1 X161.831 Y172.824 E2.83618
G1 X161.463 Y173.014 E2.84995
G1 X161.119 Y173.184 E2.86271
G1 X160.815 Y173.326 E2.87387
G1 X160.006 Y173.69 E2.90338
G1 X158.405 Y174.378 E2.96134
G1 X157.399 Y174.827 E2.99798
G1 X156.526 Y175.172 E3.0292
G1 X155.628 Y175.442 E3.06039
G1 X154.704 Y175.635 E3.09178
G1 X153.809 Y175.782 E3.12195
G1 X153.262 Y175.862 E3.14034
G1 X152.329 Y175.957 E3.17153
G1 X151.836 Y175.974 E3.18793
G1 X151.297 Y175.981 E3.20586
G1 X150.948 Y175.98 E3.21747
G1 X150.427 Y175.97 E3.2348
G1 X149.975 Y175.957 E3.24984
G1 X149.035 Y175.924 E3.28113
G1 X148.766 Y175.911 E3.29008
G1 X148.414 Y175.89 E3.30181
G1 X147.801 Y175.837 E3.32228
G1 X147.301 Y175.779 E3.33902
G1 X146.923 Y175.728 E3.3517
G1 X146.52 Y175.667 E3.36526
G1 X145.599 Y175.487 E3.39647
G1 X144.697 Y175.23 E3.42767
G1 X143.957 Y174.954 E3.45394
G1 X142.629 Y174.404 E3.50174
G1 X142.487 Y174.338 E3.50695
G1 X141.898 Y174.101 E3.52807
G1 X141.654 Y174 E3.53685
G1 X141.314 Y173.87 E3.54896
G1 X141.053 Y173.766 E3.5583
G1 X140.823 Y173.671 E3.56658
G1 X140.23 Y173.419 E3.58801
G1 X139.831 Y173.24 E3.60256
G1 X139.435 Y173.052 E3.61714
G1 X139.017 Y172.851 E3.63256
G1 X138.68 Y172.682 E3.6451
G1 X138.344 Y172.506 E3.65772
G1 X137.532 Y172.036 E3.68892
G1 X136.764 Y171.498 E3.72011
G1 X136.044 Y170.897 E3.7513
G1 X135.63 Y170.5 E3.77038
G1 X134.996 Y169.809 E3.80157
G1 X134.422 Y169.067 E3.83277
G1 X133.915 Y168.278 E3.86397
G1 X133.476 Y167.45 E3.89514
G1 X133.025 Y166.353 E3.93459
G1 X132.638 Y165.246 E3.97359
G1 X132.531 Y164.973 E3.98334
G1 X132.198 Y164.003 E4.01745
G1 X132.067 Y163.639 E4.03032
G1 X131.787 Y162.744 E4.06151
G1 X131.56 Y161.691 E4.09734
G1 X131.139 Y159.132 E4.1836
G1 X130.657 Y156.639 E4.26805
G1 X130.123 Y154.243 E4.3497
G1 X129.794 Y152.961 E4.39372
G1 X129.76 Y152.8 E4.39919
G1 X129.432 Y151.475 E4.44459
G1 X129.322 Y150.993 E4.46103
G1 X129.141 Y149.942 E4.4965
G1 X129.119 Y149.762 E4.50254
G1 X129.045 Y148.827 E4.53373
G1 X129.051 Y147.889 E4.56493
G1 X129.094 Y147.317 E4.58401
G1 X129.252 Y145.769 E4.63576
G1 X129.265 Y145.656 E4.63955
G1 X129.478 Y143.189 E4.7219
G1 X129.625 Y140.635 E4.80699
G1 X129.697 Y138.146 E4.88981
G1 X129.7 Y137.791 E4.90162
G1 X129.719 Y136.642 E4.93984
G1 X129.774 Y135.706 E4.97102
G1 X129.909 Y134.778 E5.00221
G1 X130.123 Y133.865 E5.0334
G1 X130.413 Y132.973 E5.0646
G1 X130.779 Y132.109 E5.09581
G1 X131.216 Y131.28 E5.12698
G1 X131.723 Y130.491 E5.15817
G1 X132.295 Y129.747 E5.18938
G1 X132.929 Y129.056 E5.22058
G0 F6000 X133.32 Y129.231
G1 F1200 X134.302 Y128.386 E5.26366
G1 X135.163 Y127.733 E5.29961
G1 X135.747 Y127.303 E5.32373
G1 X136.043 Y127.073 E5.33619
G1 X136.752 Y126.54 E5.3657
G1 X137.512 Y126.02 E5.39632
G1 X138.314 Y125.568 E5.42694
G1 X139.152 Y125.187 E5.45756
G1 X140.02 Y124.881 E5.48817
G1 X140.912 Y124.651 E5.51881
G1 X141.82 Y124.499 E5.54943
G1 X142.738 Y124.427 E5.58006
G1 X143.844 Y124.445 E5.61685
G1 X143.99 Y124.455 E5.62172
G1 X146.522 Y124.597 E5.70606
G1 X149.06 Y124.666 E5.79051
G1 X151.607 Y124.664 E5.87522
G1 X154.102 Y124.591 E5.95824
G1 X156.22 Y124.462 E6.02882
G1 X157.027 Y124.423 E6.05569
G1 X157.948 Y124.419 E6.08632
G1 X158.866 Y124.494 E6.11696
G1 X159.773 Y124.649 E6.14756
G1 X160.664 Y124.882 E6.17819
G1 X161.531 Y125.191 E6.20881
G1 X162.368 Y125.575 E6.23943
G1 X162.812 Y125.816 E6.25624
G1 X163.591 Y126.307 E6.28686
G1 X164.022 Y126.622 E6.30462
G1 X164.249 Y126.797 E6.31415
G1 X166.079 Y128.174 E6.39033
G1 X166.243 Y128.295 E6.3971
G1 X166.96 Y128.874 E6.42776
G1 X167.623 Y129.512 E6.45836
G1 X168.229 Y130.205 E6.48898
G1 X168.772 Y130.949 E6.51961
G1 X169.249 Y131.736 E6.55022
G1 X169.655 Y132.562 E6.58083
G1 X169.988 Y133.42 E6.61144
G1 X170.246 Y134.304 E6.64207
G1 X170.426 Y135.207 E6.6727
G1 X170.527 Y136.122 E6.70332
G1 X170.55 Y136.776 E6.72508
G1 X170.556 Y138.201 E6.77248
G1 X170.554 Y138.544 E6.78389
G1 X170.565 Y139.343 E6.81046
G1 X170.565 Y139.82 E6.82633
G1 X170.56 Y140.13 E6.83664
G1 X170.523 Y141.367 E6.8778
G1 X170.517 Y141.498 E6.88216
G1 X170.474 Y144.003 E6.96549
G1 X170.5 Y146.523 E7.04931
G1 X170.557 Y148.255 E7.10695
G1 X170.523 Y149.529 E7.14934
G1 X170.412 Y150.787 E7.19134
G1 X170.381 Y151.093 E7.20157
G1 X170.211 Y153.334 E7.27632
G1 X170.148 Y154.294 E7.30832
G1 X170.048 Y155.209 E7.33893
G1 X169.952 Y155.746 E7.35708
G1 X169.878 Y156.102 E7.36917
G1 X169.384 Y158.668 E7.45609
G1 X168.97 Y161.191 E7.54112
G1 X168.938 Y161.402 E7.54822
G1 X168.759 Y162.305 E7.57884
G1 X168.43 Y163.395 E7.61671
G1 X168.106 Y164.292 E7.64843
G1 X167.351 Y166.311 E7.72012
G1 X166.991 Y167.158 E7.75073
G1 X166.559 Y167.971 E7.78135
G1 X166.058 Y168.744 E7.81199
G1 X165.493 Y169.47 E7.84259
G1 X164.693 Y170.312 E7.88122
G1 X164.484 Y170.509 E7.89077
G1 X163.787 Y171.11 E7.92138
G1 X162.761 Y171.827 E7.96301
G1 X162.481 Y171.999 E7.97394
G1 X162.118 Y172.212 E7.98794
G1 X161.97 Y172.295 E7.99359
G1 X161.648 Y172.469 E8.00576
G1 X161.28 Y172.659 E8.01953
G1 X160.948 Y172.823 E8.03185
G1 X160.65 Y172.962 E8.04279
G1 X160.021 Y173.246 E8.06574
G1 X158.297 Y173.989 E8.12818
G1 X157.236 Y174.462 E8.16682
G1 X156.379 Y174.8 E8.19746
G1 X155.497 Y175.062 E8.22806
G1 X154.639 Y175.24 E8.25721
G1 X153.744 Y175.387 E8.28737
G1 X153.205 Y175.467 E8.3055
G1 X151.831 Y175.574 E8.35133
G1 X151.292 Y175.581 E8.36926
G1 X150.955 Y175.58 E8.38047
G1 X150.437 Y175.57 E8.3977
G1 X149.989 Y175.557 E8.41261
G1 X149.049 Y175.524 E8.44389
G1 X148.79 Y175.512 E8.45252
G1 X148.438 Y175.491 E8.46425
G1 X147.848 Y175.439 E8.48394
G1 X147.348 Y175.381 E8.50069
G1 X146.983 Y175.333 E8.51293
G1 X146.58 Y175.272 E8.52649
G1 X145.676 Y175.094 E8.55713
G1 X144.792 Y174.84 E8.58772
G1 X144.11 Y174.584 E8.61195
G1 X142.782 Y174.034 E8.65976
G1 X142.641 Y173.968 E8.66494
G1 X142.05 Y173.731 E8.68612
G1 X141.605 Y173.554 E8.70205
G1 X141.201 Y173.394 E8.7165
G1 X140.979 Y173.303 E8.72448
G1 X140.386 Y173.051 E8.74591
G1 X140.002 Y172.878 E8.75992
G1 X139.608 Y172.692 E8.77441
G1 X139.19 Y172.491 E8.78983
G1 X138.866 Y172.328 E8.8019
G1 X138.53 Y172.152 E8.81451
G1 X137.733 Y171.69 E8.84515
G1 X136.98 Y171.16 E8.87578
G1 X135.953 Y170.257 E8.92126
G1 X135.913 Y170.217 E8.92315
G1 X135.291 Y169.539 E8.95375
G1 X134.73 Y168.809 E8.98437
G1 X134.234 Y168.033 E9.015
G1 X133.808 Y167.217 E9.04562
G1 X133.402 Y166.221 E9.08139
G1 X133.071 Y165.273 E9.11479
G1 X132.909 Y164.844 E9.13004
G1 X132.563 Y163.836 E9.16549
G1 X132.443 Y163.503 E9.17726
G1 X132.169 Y162.624 E9.20788
G1 X131.955 Y161.626 E9.24183
G1 X131.533 Y159.063 E9.32822
G1 X131.054 Y156.581 E9.4123
G1 X130.506 Y154.124 E9.49603
G1 X130.182 Y152.862 E9.53936
G1 X130.153 Y152.725 E9.54402
G1 X129.82 Y151.379 E9.59014
G1 X129.712 Y150.906 E9.60627
G1 X129.538 Y149.893 E9.64046
G1 X129.516 Y149.713 E9.64649
G1 X129.444 Y148.795 E9.67712
G1 X129.452 Y147.875 E9.70772
G1 X129.492 Y147.357 E9.725
G1 X129.649 Y145.815 E9.77655
G1 X129.662 Y145.703 E9.7803
G1 X129.88 Y143.175 E9.8647
G1 X130.023 Y140.703 E9.94705
G1 X130.097 Y138.121 E10.03296
G1 X130.099 Y137.798 E10.04371
G1 X130.118 Y136.649 E10.08193
G1 X130.174 Y135.73 E10.11255
G1 X130.308 Y134.819 E10.14318
G1 X130.522 Y133.923 E10.17382
G1 X130.812 Y133.05 E10.20441
G1 X131.177 Y132.204 E10.23506
G1 X131.613 Y131.394 E10.26565
G1 X132.119 Y130.625 E10.29627
G1 X132.689 Y129.902 E10.32689
G1 X133.32 Y129.231 E10.35753
G0 F6000 X133.711 Y129.411
G1 F1200 X134.544 Y128.704 E10.39387
G1 X135.4 Y128.055 E10.4296
G1 X136.008 Y127.608 E10.4547
G1 X136.428 Y127.283 E10.47236
G1 X136.992 Y126.86 E10.49581
G1 X137.738 Y126.351 E10.52584
G1 X138.526 Y125.909 E10.55589
G1 X139.35 Y125.539 E10.58594
G1 X140.203 Y125.244 E10.61596
G1 X141.079 Y125.025 E10.64599
G1 X141.971 Y124.884 E10.67603
G1 X142.872 Y124.823 E10.70606
G1 X143.816 Y124.844 E10.73747
G1 X146.524 Y124.997 E10.82768
G1 X149.05 Y125.066 E10.91173
G1 X151.584 Y125.064 E10.99601
G1 X154.137 Y124.989 E11.08096
G1 X156.24 Y124.862 E11.15103
G1 X157.047 Y124.823 E11.1779
G1 X157.95 Y124.819 E11.20794
G1 X158.85 Y124.896 E11.23798
G1 X159.739 Y125.051 E11.26799
G1 X160.612 Y125.285 E11.29806
G1 X161.46 Y125.595 E11.32809
G1 X162.614 Y126.163 E11.37087
G1 X163.377 Y126.645 E11.40088
G1 X163.778 Y126.939 E11.41742
G1 X163.956 Y127.076 E11.42489
G1 X166.006 Y128.617 E11.51019
G1 X166.708 Y129.185 E11.54022
G1 X167.357 Y129.813 E11.57026
G1 X167.949 Y130.495 E11.6003
G1 X168.477 Y131.228 E11.63034
G1 X168.939 Y132.004 E11.66038
G1 X169.33 Y132.818 E11.69042
G1 X169.648 Y133.663 E11.72045
G1 X169.889 Y134.533 E11.75047
G1 X170.053 Y135.422 E11.78054
G1 X170.138 Y136.321 E11.81057
G1 X170.15 Y136.778 E11.82578
G1 X170.156 Y138.198 E11.87301
G1 X170.154 Y138.547 E11.88462
G1 X170.165 Y139.343 E11.91109
G1 X170.165 Y139.82 E11.92696
G1 X170.161 Y140.119 E11.93691
G1 X170.13 Y141.177 E11.97211
G1 X170.117 Y141.472 E11.98193
G1 X170.073 Y144 E12.06603
G1 X170.101 Y146.57 E12.15151
G1 X170.157 Y148.268 E12.20802
G1 X170.124 Y149.494 E12.24881
G1 X170.014 Y150.747 E12.29064
G1 X169.982 Y151.062 E12.30117
G1 X169.812 Y153.304 E12.37596
G1 X169.749 Y154.268 E12.40809
G1 X169.65 Y155.165 E12.4381
G1 X169.56 Y155.665 E12.455
G1 X169.486 Y156.024 E12.46719
G1 X168.991 Y158.593 E12.55421
G1 X168.592 Y161.023 E12.63611
G1 X168.543 Y161.342 E12.64685
G1 X168.366 Y162.227 E12.67687
G1 X168.054 Y163.259 E12.71272
G1 X167.731 Y164.152 E12.74431
G1 X166.976 Y166.171 E12.816
G1 X166.622 Y167.002 E12.84605
G1 X166.197 Y167.798 E12.87606
G1 X165.702 Y168.554 E12.90611
G1 X165.143 Y169.263 E12.93614
G1 X164.418 Y170.02 E12.971
G1 X164.209 Y170.217 E12.98056
G1 X163.525 Y170.807 E13.0106
G1 X162.552 Y171.486 E13.05006
G1 X162.272 Y171.658 E13.06099
G1 X161.922 Y171.863 E13.07448
G1 X161.774 Y171.946 E13.08013
G1 X161.464 Y172.113 E13.09184
G1 X161.096 Y172.303 E13.10562
G1 X160.777 Y172.461 E13.11746
G1 X160.485 Y172.597 E13.12817
G1 X159.689 Y172.955 E13.1572
G1 X158.152 Y173.616 E13.21285
G1 X157.073 Y174.097 E13.25214
G1 X156.233 Y174.427 E13.28216
G1 X155.366 Y174.683 E13.31222
G1 X154.574 Y174.845 E13.33911
G1 X153.481 Y175.023 E13.37594
G1 X153.148 Y175.071 E13.38713
G1 X151.825 Y175.174 E13.43127
G1 X151.286 Y175.181 E13.4492
G1 X150.963 Y175.18 E13.45994
G1 X150.448 Y175.17 E13.47707
G1 X150.003 Y175.158 E13.49188
G1 X149.063 Y175.125 E13.52316
G1 X148.814 Y175.113 E13.53145
G1 X148.462 Y175.092 E13.54318
G1 X147.894 Y175.042 E13.56215
G1 X147.394 Y174.984 E13.57889
G1 X147.042 Y174.937 E13.5907
G1 X146.639 Y174.876 E13.60426
G1 X145.753 Y174.702 E13.63429
G1 X144.886 Y174.449 E13.66433
G1 X144.263 Y174.215 E13.68646
G1 X142.935 Y173.665 E13.73427
G1 X142.789 Y173.597 E13.73963
G1 X142.203 Y173.362 E13.76063
G1 X141.935 Y173.251 E13.77027
G1 X141.61 Y173.126 E13.78186
G1 X141.136 Y172.935 E13.79885
G1 X140.543 Y172.683 E13.82028
G1 X140.173 Y172.517 E13.83377
G1 X139.364 Y172.13 E13.8636
G1 X139.051 Y171.973 E13.87525
G1 X138.715 Y171.797 E13.88786
G1 X137.934 Y171.343 E13.91791
G1 X137.197 Y170.822 E13.94793
G1 X136.236 Y169.974 E13.99055
G1 X136.196 Y169.934 E13.99244
G1 X135.586 Y169.268 E14.02247
G1 X135.037 Y168.551 E14.05251
G1 X134.555 Y167.787 E14.08255
G1 X134.141 Y166.984 E14.1126
G1 X133.78 Y166.089 E14.1447
G1 X133.366 Y164.904 E14.18645
G1 X133.288 Y164.714 E14.19328
G1 X132.942 Y163.706 E14.22873
G1 X132.82 Y163.367 E14.24071
G1 X132.551 Y162.505 E14.27075
G1 X132.349 Y161.561 E14.30285
G1 X131.927 Y158.993 E14.38941
G1 X131.443 Y156.49 E14.4742
G1 X130.891 Y154.016 E14.55851
G1 X130.569 Y152.763 E14.60154
G1 X130.533 Y152.592 E14.60735
G1 X130.209 Y151.282 E14.65224
G1 X130.103 Y150.82 E14.668
G1 X129.935 Y149.844 E14.70094
G1 X129.913 Y149.664 E14.70697
G1 X129.844 Y148.764 E14.737
G1 X129.854 Y147.861 E14.76703
G1 X129.89 Y147.398 E14.78248
G1 X130.047 Y145.861 E14.83386
G1 X130.06 Y145.747 E14.83768
G1 X130.277 Y143.234 E14.92157
G1 X130.423 Y140.704 E15.00586
G1 X130.497 Y138.133 E15.09141
G1 X130.499 Y137.804 E15.10235
G1 X130.518 Y136.655 E15.14057
G1 X130.573 Y135.754 E15.1706
G1 X130.708 Y134.861 E15.20063
G1 X130.921 Y133.983 E15.23068
G1 X131.21 Y133.128 E15.2607
G1 X131.574 Y132.301 E15.29075
G1 X132.01 Y131.51 E15.3208
G1 X132.514 Y130.761 E15.35082
G1 X133.083 Y130.059 E15.38088
G1 X133.711 Y129.411 E15.41089
G1 F2700 E10.41089
;MESH:Hufflepuff_Name.stl
G0 F6000 X141.096 Y136.069
G0 X141.408 Y136.994
G0 X142.424 Y138.245
G0 X142.14 Y139.416
G0 X143.676 Y140.828
G0 X146.078 Y140.652
G0 X147.065 Y141.914
G0 X145.776 Y142.419
G0 X144.747 Y143.102
G0 X144.19 Y143.748
G0 X143.81 Y144.617
G0 X143.745 Y145.245
G0 X144.015 Y145.063
G0 X146.248 Y142.416
G0 X149.929 Y141.287
G0 X150.077 Y141.001
G0 X150.687 Y140.994
G0 X152.255 Y142.307
G0 X152.413 Y142.515
G0 X152.918 Y143.534
G0 X153.195 Y143.444
G0 X153.866 Y143.598
