;FLAVOR:Marlin
;TIME:847
;Filament used: 0.224587m
;Layer height: 0.2
;MINX:128.879
;MINY:124.026
;MINZ:0.2
;MAXX:171.116
;MAXY:175.986
;MAXZ:2
;Generated with Cura_SteamEngine 4.11.0
M140 S50
M105
M190 S50
M104 S200
M105
M109 S200
M82 ;absolute extrusion mode
M201 X500.00 Y500.00 Z100.00 E5000.00 ;Setup machine max acceleration
M203 X500.00 Y500.00 Z10.00 E50.00 ;Setup machine max feedrate
M204 P500.00 R1000.00 T500.00 ;Setup Print/Retract/Travel acceleration
M205 X8.00 Y8.00 Z0.40 E5.00 ;Setup Jerk
M220 S100 ;Reset Feedrate
M221 S100 ;Reset Flowrate

G28 ;Home

G92 E0 ;Reset Extruder
G1 Z2.0 F3000 ;Move Z Axis up
G1 X10.1 Y20 Z0.28 F5000.0 ;Move to start position
G1 X10.1 Y200.0 Z0.28 F1500.0 E15 ;Draw the first line
G1 X10.4 Y200.0 Z0.28 F5000.0 ;Move to side a little
G1 X10.4 Y20 Z0.28 F1500.0 E30 ;Draw the second line
G92 E0 ;Reset Extruder
G1 Z2.0 F3000 ;Move Z Axis up

G92 E0
G92 E0
G1 F2700 E-5
;LAYER_COUNT:10
;LAYER:0
M107
G0 F6000 X132.823 Y131.641 Z0.2
;TYPE:SKIRT
G1 F2700 E0
G1 F1200 X133.519 Y131.013 E0.03118
G1 X134.266 Y130.446 E0.06237
G1 X135.059 Y129.944 E0.09359
G1 X136.254 Y129.351 E0.13796
G1 X136.605 Y129.202 E0.15064
G1 X138.962 Y128.168 E0.23625
G1 X141.251 Y127.084 E0.32048
G1 X143.522 Y125.93 E0.40521
G1 X144.428 Y125.442 E0.43944
G1 X144.865 Y125.217 E0.45579
G1 X145.718 Y124.829 E0.48695
G1 X146.602 Y124.514 E0.51817
G1 X147.509 Y124.276 E0.54935
G1 X148.433 Y124.117 E0.58054
G1 X149.368 Y124.036 E0.61175
G1 X149.843 Y124.026 E0.62756
G1 X150.016 Y124.026 E0.63331
G1 X150.953 Y124.066 E0.6645
G1 X151.883 Y124.186 E0.69569
G1 X152.8 Y124.384 E0.72689
G1 X153.696 Y124.66 E0.75808
G1 X154.566 Y125.011 E0.78928
G1 X155.178 Y125.313 E0.81198
G1 X156.113 Y125.81 E0.8472
G1 X156.397 Y125.95 E0.85773
G1 X157.418 Y126.492 E0.89617
G1 X159.681 Y127.615 E0.9802
G1 X161.954 Y128.664 E1.06346
G1 X162.596 Y128.938 E1.08668
G1 X163.702 Y129.425 E1.12687
G1 X164.543 Y129.839 E1.15805
G1 X165.346 Y130.323 E1.18923
G1 X166.077 Y130.852 E1.21925
G1 X166.261 Y130.997 E1.22704
G1 X166.973 Y131.609 E1.25827
G1 X167.629 Y132.278 E1.28943
G1 X168.226 Y133.002 E1.32064
G1 X168.76 Y133.773 E1.35183
G1 X169.225 Y134.587 E1.38301
G1 X169.62 Y135.438 E1.41422
G1 X169.941 Y136.319 E1.4454
G1 X170.185 Y137.225 E1.47661
G1 X170.382 Y138.39 E1.51591
G1 X170.438 Y138.899 E1.53294
G1 X170.647 Y141.103 E1.60658
G1 X170.879 Y142.91 E1.66717
G1 X171.045 Y144.302 E1.7138
G1 X171.116 Y145.238 E1.74502
G1 X171.107 Y146.175 E1.77618
G1 X171.019 Y147.109 E1.80739
G1 X170.924 Y147.685 E1.8268
G1 X170.743 Y148.625 E1.85864
G1 X170.305 Y151.091 E1.94194
G1 X169.934 Y153.584 E2.02578
G1 X169.625 Y156.151 E2.11177
G1 X169.507 Y157.353 E2.15194
G1 X169.479 Y157.664 E2.16233
G1 X169.355 Y158.594 E2.19353
G1 X169.204 Y159.308 E2.21781
G1 X169.139 Y159.572 E2.22685
G1 X168.876 Y160.472 E2.25803
G1 X168.425 Y161.597 E2.29835
G1 X168.34 Y161.779 E2.30503
G1 X167.774 Y162.835 E2.34488
G1 X167.204 Y163.773 E2.38138
G1 X167.061 Y164.013 E2.39068
G1 X166.971 Y164.181 E2.39702
G1 X166.028 Y165.738 E2.45756
G1 X165.543 Y166.58 E2.48988
G1 X165.04 Y167.372 E2.52108
G1 X164.472 Y168.118 E2.55227
G1 X163.742 Y168.913 E2.58817
G1 X163.662 Y168.992 E2.59191
G1 X162.967 Y169.622 E2.62311
G1 X162.431 Y170.041 E2.64573
G1 X160.364 Y171.554 E2.73093
G1 X158.524 Y172.98 E2.80836
G1 X158.086 Y173.328 E2.82696
G1 X157.766 Y173.573 E2.84037
G1 X156.991 Y174.101 E2.87156
G1 X156.173 Y174.561 E2.90277
G1 X155.576 Y174.841 E2.9247
G1 X155.189 Y175.009 E2.93874
G1 X154.314 Y175.346 E2.96992
G1 X153.413 Y175.606 E3.00111
G1 X152.458 Y175.795 E3.03349
G1 X152.003 Y175.864 E3.0488
G1 X151.071 Y175.965 E3.07998
G1 X150.133 Y175.986 E3.11119
G1 X149.079 Y175.914 E3.14632
G1 X148.659 Y175.865 E3.16039
G1 X147.733 Y175.717 E3.19158
G1 X146.823 Y175.49 E3.22277
G1 X145.904 Y175.174 E3.25509
G1 X145.523 Y175.024 E3.26871
G1 X145.141 Y174.866 E3.28246
G1 X144.296 Y174.458 E3.31367
G1 X143.232 Y173.807 E3.35516
G1 X142.578 Y173.354 E3.38162
G1 X142.358 Y173.198 E3.39059
G1 X140.277 Y171.785 E3.47425
G1 X138.276 Y170.511 E3.55315
G1 X138.001 Y170.331 E3.56408
G1 X137.239 Y169.784 E3.59528
G1 X136.626 Y169.266 E3.62197
G1 X136.56 Y169.206 E3.62494
G1 X135.893 Y168.546 E3.65615
G1 X135.285 Y167.832 E3.68734
G1 X134.741 Y167.069 E3.71851
G1 X134.334 Y166.392 E3.74478
G1 X134.204 Y166.157 E3.75371
G1 X132.932 Y163.936 E3.83884
G1 X132.37 Y163.011 E3.87484
G1 X132.244 Y162.798 E3.88307
G1 X132.056 Y162.472 E3.89559
G1 X131.442 Y161.233 E3.94158
G1 X131.348 Y161.009 E3.94966
G1 X130.97 Y159.963 E3.98665
G1 X130.952 Y159.904 E3.9887
G1 X130.717 Y158.996 E4.0199
G1 X130.544 Y157.94 E4.05549
G1 X130.462 Y157.21 E4.07992
G1 X130.271 Y155.234 E4.14595
G1 X129.957 Y152.744 E4.22942
G1 X129.574 Y150.266 E4.31282
G1 X129.076 Y147.555 E4.4045
G1 X128.938 Y146.628 E4.43567
G1 X128.879 Y145.691 E4.46689
G1 X128.901 Y144.754 E4.49807
G1 X128.952 Y144.189 E4.51694
G1 X129.046 Y143.397 E4.54346
G1 X129.217 Y142.1 E4.58698
G1 X129.471 Y139.625 E4.66973
G1 X129.503 Y139.231 E4.68287
G1 X129.577 Y138.459 E4.70867
G1 X129.706 Y137.53 E4.73986
G1 X129.914 Y136.616 E4.77104
G1 X130.27 Y135.534 E4.80893
G1 X130.644 Y134.674 E4.84012
G1 X131.089 Y133.849 E4.87129
G1 X131.604 Y133.064 E4.90252
G1 X132.183 Y132.327 E4.93369
G1 X132.823 Y131.641 E4.9649
G0 F6000 X133.164 Y131.867
G1 F1200 X133.853 Y131.256 E4.99553
G1 X134.592 Y130.707 E5.02615
G1 X135.376 Y130.225 E5.05676
G1 X136.41 Y129.719 E5.09504
G1 X136.773 Y129.565 E5.10816
G1 X139.144 Y128.525 E5.19427
G1 X141.424 Y127.445 E5.27818
G1 X143.698 Y126.29 E5.36301
G1 X144.618 Y125.794 E5.39778
G1 X145.046 Y125.574 E5.41378
G1 X145.884 Y125.193 E5.4444
G1 X146.752 Y124.887 E5.47501
G1 X147.644 Y124.657 E5.50565
G1 X148.552 Y124.505 E5.53627
G1 X149.843 Y124.426 E5.57929
G1 X150.016 Y124.426 E5.58504
G1 X150.936 Y124.466 E5.61567
G1 X151.849 Y124.586 E5.6463
G1 X152.748 Y124.784 E5.67692
G1 X153.626 Y125.06 E5.70753
G1 X154.477 Y125.411 E5.73814
G1 X154.991 Y125.666 E5.75723
G1 X156.078 Y126.244 E5.79818
G1 X156.21 Y126.304 E5.803
G1 X157.247 Y126.854 E5.84204
G1 X159.485 Y127.965 E5.92514
G1 X161.795 Y129.031 E6.00976
G1 X162.435 Y129.304 E6.0329
G1 X163.541 Y129.791 E6.0731
G1 X164.366 Y130.198 E6.10369
G1 X165.154 Y130.675 E6.13433
G1 X165.83 Y131.166 E6.16212
G1 X166.014 Y131.311 E6.16991
G1 X166.712 Y131.912 E6.20055
G1 X167.354 Y132.571 E6.23115
G1 X167.938 Y133.283 E6.26177
G1 X168.457 Y134.044 E6.29241
G1 X168.909 Y134.846 E6.32303
G1 X169.289 Y135.685 E6.35366
G1 X169.594 Y136.553 E6.38426
G1 X169.824 Y137.445 E6.4149
G1 X169.985 Y138.435 E6.44826
G1 X170.04 Y138.937 E6.46506
G1 X170.248 Y141.131 E6.53836
G1 X170.481 Y142.958 E6.59962
G1 X170.647 Y144.35 E6.64624
G1 X170.717 Y145.268 E6.67687
G1 X170.706 Y146.188 E6.70747
G1 X170.615 Y147.105 E6.73812
G1 X170.531 Y147.609 E6.75511
G1 X170.357 Y148.514 E6.78576
G1 X169.91 Y151.029 E6.87072
G1 X169.534 Y153.549 E6.95547
G1 X169.232 Y156.066 E7.03978
G1 X169.1 Y157.406 E7.08457
G1 X169.08 Y157.628 E7.09198
G1 X168.958 Y158.541 E7.12262
G1 X168.816 Y159.212 E7.14543
G1 X168.751 Y159.476 E7.15447
G1 X168.492 Y160.36 E7.18511
G1 X168.062 Y161.427 E7.22337
G1 X167.977 Y161.609 E7.23005
G1 X167.432 Y162.627 E7.26846
G1 X166.771 Y163.718 E7.31089
G1 X166.629 Y163.974 E7.32062
G1 X165.666 Y165.565 E7.38248
G1 X165.196 Y166.38 E7.41377
G1 X164.702 Y167.157 E7.44439
G1 X164.142 Y167.888 E7.47502
G1 X163.461 Y168.628 E7.50847
G1 X163.381 Y168.707 E7.51221
G1 X162.698 Y169.325 E7.54284
G1 X162.195 Y169.718 E7.56408
G1 X160.129 Y171.231 E7.64925
G1 X158.27 Y172.671 E7.72746
G1 X157.837 Y173.015 E7.74585
G1 X157.527 Y173.253 E7.75885
G1 X156.765 Y173.77 E7.78948
G1 X155.962 Y174.219 E7.82008
G1 X155.417 Y174.474 E7.84009
G1 X155.03 Y174.642 E7.85412
G1 X154.17 Y174.972 E7.88476
G1 X153.285 Y175.226 E7.91538
G1 X152.398 Y175.399 E7.94544
G1 X151.943 Y175.468 E7.96075
G1 X151.028 Y175.567 E7.99136
G1 X150.107 Y175.585 E8.022
G1 X149.126 Y175.517 E8.0547
G1 X148.706 Y175.468 E8.06877
G1 X147.797 Y175.321 E8.09939
G1 X146.904 Y175.097 E8.13001
G1 X146.051 Y174.802 E8.16003
G1 X145.67 Y174.652 E8.17365
G1 X145.299 Y174.498 E8.18701
G1 X144.47 Y174.097 E8.21764
G1 X143.459 Y173.478 E8.25707
G1 X142.805 Y173.025 E8.28353
G1 X142.572 Y172.859 E8.29305
G1 X140.511 Y171.46 E8.37589
G1 X138.495 Y170.176 E8.45539
G1 X138.22 Y169.996 E8.46632
G1 X137.472 Y169.459 E8.49695
G1 X136.895 Y168.97 E8.52211
G1 X136.829 Y168.91 E8.52507
G1 X136.175 Y168.262 E8.55569
G1 X135.58 Y167.559 E8.58633
G1 X135.048 Y166.808 E8.61694
G1 X134.684 Y166.198 E8.64056
G1 X134.574 Y165.999 E8.64813
G1 X133.261 Y163.707 E8.73598
G1 X132.712 Y162.803 E8.77116
G1 X132.59 Y162.598 E8.77909
G1 X132.402 Y162.272 E8.79161
G1 X131.811 Y161.079 E8.83589
G1 X131.717 Y160.855 E8.84397
G1 X131.352 Y159.846 E8.87966
G1 X131.334 Y159.787 E8.88171
G1 X131.104 Y158.896 E8.91232
G1 X130.941 Y157.894 E8.94608
G1 X130.86 Y157.172 E8.97025
G1 X130.667 Y155.179 E9.03684
G1 X130.356 Y152.705 E9.11978
G1 X129.964 Y150.169 E9.20513
G1 X129.499 Y147.634 E9.29085
G1 X129.469 Y147.479 E9.2961
G1 X129.334 Y146.569 E9.3267
G1 X129.278 Y145.65 E9.35732
G1 X129.303 Y144.729 E9.38796
G1 X129.349 Y144.235 E9.40446
G1 X129.443 Y143.45 E9.43076
G1 X129.613 Y142.161 E9.474
G1 X129.87 Y139.657 E9.55772
G1 X129.901 Y139.27 E9.57064
G1 X129.975 Y138.498 E9.59643
G1 X130.103 Y137.586 E9.62706
G1 X130.309 Y136.689 E9.65767
G1 X130.644 Y135.678 E9.6931
G1 X131.011 Y134.834 E9.72371
G1 X131.45 Y134.025 E9.75432
G1 X131.958 Y133.257 E9.78495
G1 X132.531 Y132.536 E9.81558
G1 X133.164 Y131.867 E9.84621
G0 F6000 X133.504 Y132.095
G1 F1200 X134.185 Y131.502 E9.87625
G1 X134.916 Y130.971 E9.9063
G1 X135.691 Y130.508 E9.93632
G1 X136.566 Y130.088 E9.9686
G1 X136.88 Y129.955 E9.97995
G1 X139.326 Y128.881 E10.0688
G1 X141.598 Y127.806 E10.1524
G1 X143.874 Y126.649 E10.23732
G1 X144.808 Y126.146 E10.2726
G1 X145.227 Y125.93 E10.28828
G1 X146.049 Y125.558 E10.31829
G1 X146.902 Y125.259 E10.34835
G1 X147.777 Y125.037 E10.37838
G1 X148.669 Y124.894 E10.40842
G1 X149.843 Y124.826 E10.44753
G1 X150.016 Y124.826 E10.45329
G1 X150.918 Y124.866 E10.48332
G1 X151.813 Y124.986 E10.51335
G1 X152.694 Y125.184 E10.54339
G1 X153.554 Y125.459 E10.57342
G1 X154.387 Y125.81 E10.60348
G1 X154.803 Y126.019 E10.61897
G1 X155.847 Y126.574 E10.65829
G1 X156.022 Y126.657 E10.66473
G1 X157.045 Y127.2 E10.70325
G1 X159.319 Y128.329 E10.7877
G1 X161.637 Y129.398 E10.8726
G1 X162.273 Y129.67 E10.8956
G1 X163.379 Y130.157 E10.9358
G1 X164.189 Y130.557 E10.96584
G1 X164.96 Y131.027 E10.99588
G1 X165.582 Y131.481 E11.02149
G1 X165.766 Y131.626 E11.02928
G1 X166.45 Y132.215 E11.0593
G1 X167.079 Y132.863 E11.08934
G1 X167.648 Y133.565 E11.1194
G1 X168.153 Y134.313 E11.14941
G1 X168.59 Y135.104 E11.17947
G1 X168.955 Y135.93 E11.20951
G1 X169.246 Y136.785 E11.23954
G1 X169.46 Y137.662 E11.26957
G1 X169.587 Y138.481 E11.29714
G1 X169.642 Y138.974 E11.31363
G1 X169.852 Y141.192 E11.38773
G1 X170.084 Y143.005 E11.44853
G1 X170.25 Y144.397 E11.49515
G1 X170.317 Y145.298 E11.5252
G1 X170.305 Y146.201 E11.55524
G1 X170.138 Y147.534 E11.59992
G1 X169.975 Y148.379 E11.62855
G1 X169.515 Y150.971 E11.7161
G1 X169.136 Y153.514 E11.80162
G1 X168.834 Y156.029 E11.88587
G1 X168.702 Y157.366 E11.93055
G1 X168.682 Y157.593 E11.93813
G1 X168.561 Y158.488 E11.96817
G1 X168.427 Y159.117 E11.98956
G1 X168.362 Y159.381 E11.9986
G1 X168.108 Y160.247 E12.02862
G1 X167.7 Y161.258 E12.06488
G1 X167.615 Y161.44 E12.07156
G1 X167.09 Y162.42 E12.10854
G1 X166.527 Y163.347 E12.14461
G1 X166.287 Y163.767 E12.1607
G1 X165.337 Y165.336 E12.22171
G1 X164.85 Y166.181 E12.25415
G1 X164.364 Y166.942 E12.28418
G1 X163.814 Y167.658 E12.31421
G1 X163.18 Y168.344 E12.34528
G1 X163.1 Y168.423 E12.34902
G1 X162.43 Y169.028 E12.37904
G1 X161.958 Y169.395 E12.39893
G1 X159.91 Y170.894 E12.48334
G1 X158.071 Y172.319 E12.56072
G1 X157.589 Y172.702 E12.58119
G1 X157.288 Y172.932 E12.59379
G1 X156.541 Y173.439 E12.62382
G1 X155.751 Y173.877 E12.65387
G1 X155.258 Y174.107 E12.67196
G1 X154.871 Y174.275 E12.68599
G1 X154.027 Y174.598 E12.71605
G1 X153.158 Y174.845 E12.7461
G1 X152.338 Y175.004 E12.77388
G1 X151.883 Y175.073 E12.78918
G1 X150.985 Y175.168 E12.81922
G1 X150.082 Y175.184 E12.84926
G1 X149.172 Y175.119 E12.8796
G1 X148.752 Y175.07 E12.89366
G1 X147.861 Y174.926 E12.92368
G1 X146.985 Y174.703 E12.95375
G1 X146.197 Y174.43 E12.98149
G1 X145.816 Y174.28 E12.99511
G1 X145.458 Y174.131 E13.008
G1 X144.645 Y173.737 E13.03805
G1 X143.687 Y173.149 E13.07544
G1 X143.033 Y172.696 E13.1019
G1 X142.803 Y172.532 E13.11129
G1 X140.736 Y171.129 E13.19438
G1 X138.714 Y169.841 E13.27412
G1 X138.439 Y169.661 E13.28505
G1 X137.706 Y169.134 E13.31508
G1 X137.164 Y168.674 E13.33872
G1 X137.098 Y168.614 E13.34169
G1 X136.457 Y167.978 E13.37172
G1 X135.875 Y167.287 E13.40177
G1 X135.357 Y166.548 E13.43179
G1 X135.034 Y166.004 E13.45283
G1 X134.928 Y165.812 E13.46012
G1 X133.61 Y163.512 E13.54829
G1 X133.054 Y162.596 E13.58393
G1 X132.937 Y162.399 E13.59155
G1 X132.749 Y162.073 E13.60407
G1 X132.18 Y160.924 E13.64672
G1 X132.086 Y160.7 E13.65479
G1 X131.735 Y159.729 E13.68914
G1 X131.717 Y159.67 E13.69119
G1 X131.492 Y158.796 E13.7212
G1 X131.339 Y157.849 E13.75311
G1 X131.259 Y157.133 E13.77707
G1 X131.068 Y155.161 E13.84297
G1 X130.749 Y152.625 E13.92798
G1 X130.366 Y150.148 E14.01135
G1 X129.909 Y147.653 E14.09571
G1 X129.861 Y147.404 E14.10414
G1 X129.73 Y146.51 E14.1342
G1 X129.678 Y145.609 E14.16421
G1 X129.747 Y144.282 E14.20841
G1 X129.84 Y143.502 E14.23454
G1 X130.005 Y142.251 E14.27651
G1 X130.268 Y139.692 E14.36207
G1 X130.3 Y139.308 E14.37488
G1 X130.374 Y138.536 E14.40068
G1 X130.499 Y137.641 E14.43073
G1 X130.704 Y136.762 E14.46075
G1 X131.017 Y135.821 E14.49374
G1 X131.378 Y134.994 E14.52375
G1 X131.811 Y134.201 E14.5538
G1 X132.312 Y133.45 E14.58383
G1 X132.878 Y132.746 E14.61387
G1 X133.504 Y132.095 E14.64391
G1 F2700 E9.64391
;MESH:Gryffindor_Ring.stl
G0 F6000 X140.056 Y142.233
G0 X141.05 Y142.365
G0 X141.521 Y144.632
G0 X143.244 Y148.151
G0 X142.782 Y151.583
G0 X142.965 Y152.011
G0 X143.232 Y152.171
G0 X143.534 Y152.194
G0 X143.767 Y152.103
G0 X144.554 Y151.144
G0 X145.206 Y149.66
;TYPE:WALL-OUTER
G1 F2700 E14.64391
G1 F1200 X145.232 Y149.292 E14.65618
G1 X145.259 Y149.082 E14.66322
G1 X145.254 Y149.335 E14.67164
G1 X145.206 Y149.66 E14.68257
G0 F6000 X145.267 Y148.163
G1 F1200 X145.272 Y148.105 E14.6845
G1 X145.268 Y147.718 E14.69737
G1 X145.188 Y147.439 E14.70703
G1 X145.118 Y147.348 E14.71085
G1 X145.453 Y147.312 E14.72205
G1 X145.562 Y147.198 E14.7273
G1 X145.587 Y147.285 E14.73031
G1 X145.383 Y147.386 E14.73788
G1 X145.297 Y147.701 E14.74874
G1 X145.276 Y148.076 E14.76123
G1 X145.267 Y148.163 E14.76414
G1 F2700 E9.76414
G0 F6000 X144.777 Y151.286
G0 X143.992 Y151.892
G0 X143.658 Y152.215
G0 X143.021 Y152.27
G0 X142.809 Y152.466
G0 X142.678 Y153.021
G0 X142.545 Y155.332
G0 X142.589 Y155.581
G0 X144.908 Y158.286
G0 X144.888 Y160.052
G0 X145.05 Y160.288
G0 X145.615 Y160.484
G0 X148.099 Y160.87
G0 X149.704 Y160.988
G0 X151.689 Y160.922
G0 X153.264 Y160.705
G0 X154.473 Y160.348
G0 X154.704 Y160.123
G0 X156.779 Y156.377
G0 X157.079 Y156.29
G0 X157.287 Y156.128
G0 X157.372 Y155.84
G0 X157.164 Y151.137
G0 X157.083 Y149.974
G0 X156.752 Y149.613
G0 X156.396 Y149.664
G0 X153.478 Y150.695
G0 X153.322 Y150.927
G0 X153.393 Y153.287
G0 X153.033 Y152.787
G0 X152.362 Y152.823
G0 X152.085 Y153.197
G0 X147.982 Y147.389
G0 X147.74 Y146.871
G0 X145.652 Y145.833
G0 X145.495 Y145.297
G0 X144.961 Y144.453
G0 X144.981 Y141.908
;TYPE:WALL-INNER
G1 F2700 E14.76414
G1 F1200 X145.065 Y141.717 E14.77108
G1 X145.103 Y141.6 E14.77517
G1 X145.19 Y141.333 E14.78451
G1 X145.198 Y141.04 E14.79426
G1 X145.073 Y140.744 E14.80495
G1 X144.881 Y140.561 E14.81377
G1 X144.748 Y140.434 E14.81989
G1 X144.73 Y140.432 E14.82049
G1 X144.361 Y140.387 E14.83285
G1 X144.311 Y140.381 E14.83453
G1 X144.095 Y140.342 E14.84183
G1 X143.979 Y140.321 E14.84575
G1 X144.097 Y140.326 E14.84585
G1 X144.306 Y140.313 E14.84647
G1 X144.37 Y140.308
G1 X144.746 Y140.293 E14.84998
