;FLAVOR:Marlin
;TIME:843
;Filament used: 0.248281m
;Layer height: 0.2
;MINX:129.009
;MINY:124.016
;MINZ:0.2
;MAXX:170.986
;MAXY:175.982
;MAXZ:1.8
;Generated with Cura_SteamEngine 4.11.0
M140 S50
M105
M190 S50
M104 S200
M105
M109 S200
M82 ;absolute extrusion mode
M201 X500.00 Y500.00 Z100.00 E5000.00 ;Setup machine max acceleration
M203 X500.00 Y500.00 Z10.00 E50.00 ;Setup machine max feedrate
M204 P500.00 R1000.00 T500.00 ;Setup Print/Retract/Travel acceleration
M205 X8.00 Y8.00 Z0.40 E5.00 ;Setup Jerk
M220 S100 ;Reset Feedrate
M221 S100 ;Reset Flowrate

G28 ;Home

G92 E0 ;Reset Extruder
G1 Z2.0 F3000 ;Move Z Axis up
G1 X10.1 Y20 Z0.28 F5000.0 ;Move to start position
G1 X10.1 Y200.0 Z0.28 F1500.0 E15 ;Draw the first line
G1 X10.4 Y200.0 Z0.28 F5000.0 ;Move to side a little
G1 X10.4 Y20 Z0.28 F1500.0 E30 ;Draw the second line
G92 E0 ;Reset Extruder
G1 Z2.0 F3000 ;Move Z Axis up

G92 E0
G92 E0
G1 F2700 E-5
;LAYER_COUNT:10
;LAYER:0
M107
G0 F6000 X132.134 Y129.168 Z0.2
;TYPE:SKIRT
G1 F2700 E0
G1 F1200 X132.815 Y128.523 E0.0312
G1 X133.532 Y127.951 E0.0617
G1 X134.549 Y127.208 E0.10359
G1 X134.997 Y126.889 E0.12189
G1 X135.21 Y126.73 E0.13073
G1 X136.052 Y126.117 E0.16537
G1 X136.833 Y125.598 E0.19656
G1 X137.655 Y125.147 E0.22774
G1 X138.513 Y124.768 E0.25894
G1 X139.4 Y124.463 E0.29014
G1 X140.31 Y124.236 E0.32133
G1 X141.236 Y124.086 E0.35253
G1 X142.171 Y124.016 E0.38372
G1 X143.093 Y124.025 E0.41438
G1 X143.407 Y124.041 E0.42484
G1 X145.863 Y124.19 E0.50668
G1 X148.362 Y124.273 E0.58984
G1 X150.885 Y124.283 E0.67376
G1 X153.39 Y124.224 E0.7571
G1 X156.772 Y124.032 E0.86976
G1 X157.057 Y124.019 E0.87925
G1 X157.994 Y124.023 E0.91042
G1 X158.929 Y124.108 E0.94164
G1 X159.852 Y124.271 E0.97282
G1 X160.758 Y124.513 E1.00401
G1 X161.641 Y124.831 E1.03522
G1 X162.493 Y125.223 E1.06642
G1 X163.308 Y125.686 E1.09759
G1 X163.964 Y126.13 E1.12394
G1 X165.059 Y126.93 E1.16904
G1 X166.426 Y127.92 E1.22518
G1 X167.162 Y128.502 E1.25639
G1 X167.845 Y129.144 E1.28756
G1 X168.471 Y129.843 E1.31877
G1 X169.035 Y130.592 E1.34996
G1 X169.533 Y131.387 E1.38116
G1 X169.962 Y132.221 E1.41235
G1 X170.318 Y133.088 E1.44353
G1 X170.599 Y133.983 E1.47473
G1 X170.803 Y134.898 E1.50591
G1 X170.928 Y135.828 E1.53712
G1 X170.974 Y136.907 E1.57304
G1 X170.971 Y137.331 E1.58714
G1 X170.977 Y139.139 E1.64727
G1 X170.984 Y139.699 E1.6659
G1 X170.984 Y139.997 E1.67581
G1 X170.976 Y140.433 E1.69032
G1 X170.916 Y142.504 E1.75923
G1 X170.914 Y144.991 E1.84195
G1 X170.957 Y146.256 E1.88404
G1 X170.955 Y146.484 E1.89163
G1 X170.986 Y147.789 E1.93504
G1 X170.968 Y148.727 E1.96625
G1 X170.874 Y149.637 E1.99668
G1 X170.756 Y150.446 E2.02387
G1 X170.707 Y150.763 E2.03454
G1 X170.365 Y153.272 E2.11876
G1 X170.091 Y155.814 E2.2038
G1 X169.89 Y158.348 E2.28834
G1 X169.805 Y159.865 E2.33888
G1 X169.754 Y160.918 E2.37394
G1 X169.719 Y161.418 E2.39061
G1 X169.697 Y161.652 E2.39843
G1 X169.551 Y162.68 E2.43296
G1 X169.507 Y162.911 E2.44078
G1 X169.216 Y164.084 E2.48098
G1 X169.157 Y164.276 E2.48766
G1 X168.843 Y165.16 E2.51886
G1 X168.338 Y166.241 E2.55855
G1 X168.226 Y166.45 E2.56643
G1 X167.748 Y167.257 E2.59763
G1 X167.086 Y168.167 E2.63506
G1 X166.985 Y168.292 E2.6404
G1 X166.421 Y168.938 E2.66893
G1 X165.47 Y169.944 E2.71497
G1 X165.302 Y170.132 E2.72336
G1 X164.109 Y171.41 E2.7815
G1 X163.849 Y171.704 E2.79456
G1 X163.681 Y171.89 E2.80289
G1 X163.354 Y172.243 E2.8189
G1 X162.688 Y172.904 E2.85011
G1 X162.037 Y173.451 E2.87839
G1 X161.848 Y173.598 E2.88635
G1 X161.084 Y174.142 E2.91755
G1 X160.276 Y174.618 E2.94874
G1 X159.431 Y175.024 E2.97992
G1 X158.836 Y175.259 E3.0012
G1 X158.648 Y175.327 E3.00784
G1 X157.754 Y175.608 E3.03901
G1 X156.838 Y175.812 E3.07023
G1 X155.909 Y175.937 E3.1014
G1 X154.771 Y175.982 E3.13928
G1 X154.528 Y175.979 E3.14737
G1 X154.174 Y175.969 E3.15914
G1 X153.626 Y175.944 E3.17739
G1 X152.014 Y175.851 E3.23109
G1 X149.517 Y175.777 E3.31418
G1 X146.983 Y175.773 E3.39846
G1 X145.515 Y175.804 E3.4473
G1 X144.782 Y175.825 E3.47169
G1 X143.844 Y175.811 E3.50289
G1 X142.911 Y175.718 E3.53408
G1 X142.367 Y175.626 E3.55243
G1 X142.136 Y175.581 E3.56025
G1 X141.224 Y175.363 E3.59144
G1 X140.333 Y175.067 E3.62267
G1 X139.472 Y174.697 E3.65384
G1 X138.645 Y174.255 E3.68503
G1 X137.787 Y173.693 E3.71914
G1 X137.671 Y173.609 E3.7239
G1 X136.936 Y173.027 E3.75509
G1 X136.253 Y172.385 E3.78626
G1 X135.746 Y171.829 E3.81129
G1 X134.697 Y170.595 E3.86516
G1 X134.592 Y170.468 E3.87064
G1 X133.101 Y168.764 E3.94595
G1 X132.758 Y168.364 E3.96347
G1 X131.939 Y167.281 E4.00863
G1 X131.825 Y167.109 E4.0155
G1 X131.341 Y166.306 E4.04668
G1 X130.985 Y165.595 E4.07313
G1 X130.861 Y165.323 E4.08307
G1 X130.509 Y164.454 E4.11425
G1 X130.256 Y163.65 E4.14229
G1 X130.201 Y163.448 E4.14925
G1 X129.986 Y162.489 E4.18194
G1 X129.935 Y162.203 E4.1916
G1 X129.785 Y160.947 E4.23367
G1 X129.774 Y160.768 E4.23964
G1 X129.753 Y160.118 E4.26127
G1 X129.752 Y159.768 E4.27291
G1 X129.712 Y157.125 E4.36083
G1 X129.604 Y154.664 E4.44276
G1 X129.419 Y152.087 E4.52869
G1 X129.214 Y150.006 E4.59824
G1 X129.077 Y148.765 E4.63977
G1 X129.014 Y147.829 E4.67097
G1 X129.017 Y147.208 E4.69162
G1 X129.036 Y146.603 E4.71176
G1 X129.081 Y144.033 E4.79725
G1 X129.037 Y140.849 E4.90316
G1 X129.016 Y140.193 E4.92499
G1 X129.011 Y139.882 E4.93533
G1 X129.009 Y139.104 E4.96121
G1 X129.026 Y137.496 E5.01469
G1 X129.028 Y136.798 E5.03791
G1 X129.071 Y135.861 E5.06911
G1 X129.193 Y134.931 E5.1003
G1 X129.394 Y134.015 E5.1315
G1 X129.672 Y133.119 E5.1627
G1 X130.026 Y132.25 E5.19391
G1 X130.452 Y131.415 E5.22509
G1 X130.948 Y130.619 E5.25628
G1 X131.51 Y129.868 E5.28748
G1 X132.134 Y129.168 E5.31867
G0 F6000 X132.527 Y129.338
G1 F1200 X133.206 Y128.715 E5.34932
G1 X133.769 Y128.273 E5.37312
G1 X134.781 Y127.534 E5.4148
G1 X135.205 Y127.232 E5.43212
G1 X135.445 Y127.053 E5.44207
G1 X136.287 Y126.44 E5.47671
G1 X137.054 Y125.931 E5.50733
G1 X137.863 Y125.491 E5.53796
G1 X138.706 Y125.122 E5.56857
G1 X139.579 Y124.828 E5.59921
G1 X140.473 Y124.611 E5.6298
G1 X141.383 Y124.472 E5.66042
G1 X142.302 Y124.412 E5.69105
G1 X143.073 Y124.424 E5.7167
G1 X143.383 Y124.441 E5.72703
G1 X145.826 Y124.59 E5.80843
G1 X148.348 Y124.673 E5.89236
G1 X150.893 Y124.683 E5.97701
G1 X153.391 Y124.624 E6.06011
G1 X156.794 Y124.431 E6.17348
G1 X157.072 Y124.419 E6.18273
G1 X157.992 Y124.424 E6.21333
G1 X158.909 Y124.509 E6.24396
G1 X159.815 Y124.673 E6.27459
G1 X160.703 Y124.915 E6.3052
G1 X161.567 Y125.233 E6.33582
G1 X162.4 Y125.625 E6.36644
G1 X163.196 Y126.088 E6.39707
G1 X163.728 Y126.453 E6.41853
G1 X164.824 Y127.254 E6.46368
G1 X166.191 Y128.244 E6.51982
G1 X166.913 Y128.816 E6.55045
G1 X167.582 Y129.448 E6.58106
G1 X168.194 Y130.136 E6.61169
G1 X168.744 Y130.875 E6.64233
G1 X169.227 Y131.658 E6.67293
G1 X169.641 Y132.48 E6.70354
G1 X169.982 Y133.336 E6.73419
G1 X170.247 Y134.217 E6.76478
G1 X170.435 Y135.119 E6.79543
G1 X170.544 Y136.033 E6.82605
G1 X170.574 Y136.904 E6.85503
G1 X170.571 Y137.328 E6.86913
G1 X170.577 Y139.145 E6.92957
G1 X170.584 Y139.704 E6.94816
G1 X170.584 Y139.992 E6.95774
G1 X170.577 Y140.421 E6.97201
G1 X170.516 Y142.527 E7.04209
G1 X170.514 Y145.005 E7.12451
G1 X170.557 Y146.27 E7.1666
G1 X170.555 Y146.494 E7.17405
G1 X170.586 Y147.799 E7.21747
G1 X170.568 Y148.719 E7.24808
G1 X170.478 Y149.58 E7.27687
G1 X170.361 Y150.385 E7.30393
G1 X170.312 Y150.705 E7.31469
G1 X169.963 Y153.266 E7.40066
G1 X169.692 Y155.777 E7.48466
G1 X169.489 Y158.341 E7.57021
G1 X169.41 Y159.759 E7.61744
G1 X169.355 Y160.899 E7.6554
G1 X169.32 Y161.38 E7.67144
G1 X169.298 Y161.614 E7.67926
G1 X169.158 Y162.605 E7.71255
G1 X169.114 Y162.836 E7.72037
G1 X168.833 Y163.967 E7.75913
G1 X168.774 Y164.159 E7.76581
G1 X168.466 Y165.026 E7.79641
G1 X167.985 Y166.052 E7.8341
G1 X167.873 Y166.261 E7.84199
G1 X167.403 Y167.053 E7.87262
G1 X166.775 Y167.916 E7.90812
G1 X166.674 Y168.041 E7.91346
G1 X166.13 Y168.663 E7.94095
G1 X165.197 Y169.65 E7.98612
G1 X165.01 Y169.859 E7.99545
G1 X163.819 Y171.136 E8.05353
G1 X163.55 Y171.439 E8.067
G1 X163.06 Y171.971 E8.09106
G1 X162.406 Y172.619 E8.12168
G1 X161.792 Y173.135 E8.14836
G1 X161.603 Y173.282 E8.15632
G1 X160.852 Y173.815 E8.18695
G1 X160.058 Y174.281 E8.21757
G1 X159.227 Y174.677 E8.24819
G1 X158.7 Y174.883 E8.26701
G1 X158.512 Y174.951 E8.27366
G1 X157.634 Y175.226 E8.30426
G1 X156.735 Y175.424 E8.33488
G1 X155.822 Y175.543 E8.3655
G1 X154.776 Y175.582 E8.40031
G1 X154.533 Y175.579 E8.4084
G1 X154.192 Y175.569 E8.41974
G1 X153.649 Y175.544 E8.43782
G1 X152.049 Y175.452 E8.49113
G1 X149.53 Y175.377 E8.57495
G1 X146.975 Y175.373 E8.65993
G1 X145.491 Y175.405 E8.7093
G1 X144.77 Y175.425 E8.73329
G1 X143.85 Y175.411 E8.76389
G1 X142.934 Y175.317 E8.79451
G1 X142.443 Y175.233 E8.81108
G1 X142.212 Y175.188 E8.81891
G1 X141.317 Y174.973 E8.84952
G1 X140.444 Y174.681 E8.88014
G1 X139.599 Y174.315 E8.91077
G1 X138.79 Y173.876 E8.94138
G1 X138.022 Y173.369 E8.97199
G1 X137.906 Y173.285 E8.97676
G1 X137.184 Y172.714 E9.00737
G1 X136.515 Y172.081 E9.038
G1 X136.05 Y171.57 E9.06098
G1 X135.102 Y170.456 E9.10964
G1 X134.903 Y170.215 E9.12003
G1 X133.404 Y168.504 E9.19569
G1 X133.061 Y168.104 E9.21321
G1 X132.272 Y167.06 E9.25674
G1 X132.158 Y166.888 E9.2636
G1 X131.684 Y166.099 E9.29422
G1 X131.349 Y165.429 E9.31913
G1 X131.225 Y165.157 E9.32907
G1 X130.88 Y164.303 E9.35971
G1 X130.642 Y163.545 E9.38613
G1 X130.587 Y163.343 E9.3931
G1 X130.38 Y162.419 E9.42459
G1 X130.329 Y162.133 E9.43425
G1 X130.184 Y160.922 E9.47482
G1 X130.173 Y160.743 E9.48078
G1 X130.153 Y160.117 E9.50161
G1 X130.152 Y159.759 E9.51352
G1 X130.112 Y157.137 E9.60074
G1 X130.002 Y154.617 E9.68463
G1 X129.818 Y152.059 E9.76993
G1 X129.605 Y149.899 E9.84212
G1 X129.475 Y148.721 E9.88154
G1 X129.414 Y147.803 E9.91214
G1 X129.416 Y147.221 E9.9315
G1 X129.438 Y146.53 E9.95449
G1 X129.481 Y144.034 E10.03752
G1 X129.436 Y140.832 E10.14403
G1 X129.416 Y140.181 E10.1657
G1 X129.411 Y139.881 E10.17568
G1 X129.409 Y139.108 E10.20139
G1 X129.426 Y137.502 E10.2548
G1 X129.428 Y136.799 E10.27819
G1 X129.471 Y135.879 E10.30882
G1 X129.593 Y134.967 E10.33942
G1 X129.794 Y134.068 E10.37006
G1 X130.072 Y133.19 E10.40069
G1 X130.425 Y132.34 E10.43131
G1 X130.851 Y131.524 E10.46192
G1 X131.345 Y130.748 E10.49252
G1 X131.906 Y130.017 E10.52317
G1 X132.527 Y129.338 E10.55377
G0 F6000 X132.921 Y129.512
G1 F1200 X133.596 Y128.912 E10.58381
G1 X134.005 Y128.596 E10.601
G1 X135.013 Y127.86 E10.64251
G1 X135.456 Y127.544 E10.66061
G1 X135.681 Y127.377 E10.66993
G1 X136.523 Y126.764 E10.70457
G1 X137.276 Y126.265 E10.73461
G1 X138.07 Y125.835 E10.76465
G1 X138.899 Y125.477 E10.79468
G1 X139.756 Y125.193 E10.82471
G1 X140.635 Y124.987 E10.85474
G1 X141.529 Y124.859 E10.88477
G1 X142.431 Y124.81 E10.91482
G1 X143.052 Y124.824 E10.93548
G1 X143.358 Y124.84 E10.94567
G1 X145.824 Y124.99 E11.02784
G1 X148.332 Y125.073 E11.1113
G1 X150.901 Y125.083 E11.19675
G1 X153.393 Y125.024 E11.27966
G1 X156.817 Y124.83 E11.39372
G1 X157.087 Y124.818 E11.40271
G1 X157.99 Y124.824 E11.43275
G1 X158.889 Y124.91 E11.46278
G1 X159.777 Y125.074 E11.49282
G1 X160.647 Y125.317 E11.52286
G1 X161.492 Y125.636 E11.5529
G1 X162.305 Y126.028 E11.58292
G1 X163.081 Y126.49 E11.61296
G1 X163.492 Y126.776 E11.62961
G1 X164.59 Y127.578 E11.67484
G1 X165.957 Y128.568 E11.73098
G1 X166.664 Y129.129 E11.76099
G1 X167.319 Y129.751 E11.79104
G1 X167.916 Y130.429 E11.82108
G1 X168.451 Y131.156 E11.85111
G1 X168.92 Y131.928 E11.88115
G1 X169.318 Y132.739 E11.9112
G1 X169.643 Y133.581 E11.94122
G1 X169.893 Y134.449 E11.97126
G1 X170.064 Y135.336 E12.0013
G1 X170.157 Y136.235 E12.03136
G1 X170.174 Y136.901 E12.05352
G1 X170.171 Y137.325 E12.06763
G1 X170.177 Y139.151 E12.12836
G1 X170.184 Y139.709 E12.14692
G1 X170.184 Y139.986 E12.15613
G1 X170.177 Y140.41 E12.17024
G1 X170.116 Y142.516 E12.24031
G1 X170.114 Y145.019 E12.32356
G1 X170.157 Y146.284 E12.36566
G1 X170.155 Y146.503 E12.37294
G1 X170.186 Y147.808 E12.41636
G1 X170.168 Y148.711 E12.4464
G1 X170.083 Y149.522 E12.47352
G1 X169.965 Y150.324 E12.50048
G1 X169.924 Y150.589 E12.5094
G1 X169.563 Y153.241 E12.59842
G1 X169.294 Y155.738 E12.68195
G1 X169.092 Y158.284 E12.7669
G1 X169.006 Y159.82 E12.81807
G1 X168.955 Y160.88 E12.85336
G1 X168.922 Y161.343 E12.8688
G1 X168.9 Y161.577 E12.87662
G1 X168.765 Y162.531 E12.90867
G1 X168.721 Y162.762 E12.91649
G1 X168.451 Y163.849 E12.95374
G1 X168.392 Y164.041 E12.96042
G1 X168.089 Y164.892 E12.99047
G1 X167.632 Y165.863 E13.02616
G1 X167.52 Y166.072 E13.03405
G1 X167.059 Y166.848 E13.06407
G1 X166.464 Y167.665 E13.09768
G1 X166.363 Y167.79 E13.10303
G1 X165.839 Y168.388 E13.12947
G1 X164.914 Y169.366 E13.17425
G1 X164.718 Y169.586 E13.18405
G1 X163.509 Y170.881 E13.24297
G1 X163.25 Y171.174 E13.25598
G1 X163.094 Y171.347 E13.26373
G1 X162.767 Y171.7 E13.27973
G1 X162.124 Y172.334 E13.30976
G1 X161.546 Y172.819 E13.33486
G1 X161.357 Y172.966 E13.34282
G1 X160.62 Y173.489 E13.37288
G1 X159.84 Y173.944 E13.40291
G1 X159.023 Y174.328 E13.43294
G1 X158.564 Y174.507 E13.44933
G1 X158.376 Y174.575 E13.45598
G1 X157.514 Y174.844 E13.48601
G1 X156.632 Y175.036 E13.51603
G1 X155.736 Y175.149 E13.54607
G1 X154.781 Y175.182 E13.57785
G1 X154.538 Y175.179 E13.58593
G1 X154.21 Y175.17 E13.59685
G1 X153.672 Y175.145 E13.61476
G1 X152.084 Y175.053 E13.66767
G1 X149.507 Y174.977 E13.75342
G1 X146.967 Y174.973 E13.8379
G1 X145.475 Y175.005 E13.88753
G1 X144.759 Y175.025 E13.91136
G1 X143.856 Y175.011 E13.94139
G1 X142.52 Y174.841 E13.98619
G1 X142.289 Y174.796 E13.99401
G1 X141.411 Y174.584 E14.02406
G1 X140.555 Y174.295 E14.05411
G1 X139.728 Y173.932 E14.08414
G1 X138.937 Y173.497 E14.11417
G1 X138.257 Y173.045 E14.14133
G1 X138.141 Y172.961 E14.14609
G1 X137.433 Y172.4 E14.17613
G1 X136.778 Y171.778 E14.20618
G1 X136.355 Y171.31 E14.22716
G1 X135.314 Y170.085 E14.28063
G1 X135.211 Y169.96 E14.28601
G1 X133.708 Y168.244 E14.36189
G1 X133.365 Y167.844 E14.37941
G1 X132.606 Y166.839 E14.4213
G1 X132.492 Y166.667 E14.42816
G1 X132.027 Y165.893 E14.45819
G1 X131.713 Y165.263 E14.48161
G1 X131.589 Y164.991 E14.49155
G1 X131.251 Y164.154 E14.52157
G1 X131.028 Y163.44 E14.54645
G1 X130.973 Y163.238 E14.55341
G1 X130.773 Y162.349 E14.58372
G1 X130.722 Y162.063 E14.59338
G1 X130.583 Y160.898 E14.63241
G1 X130.572 Y160.719 E14.63837
G1 X130.553 Y160.116 E14.65844
G1 X130.552 Y159.74 E14.67094
G1 X130.512 Y157.113 E14.75833
G1 X130.402 Y154.607 E14.84176
G1 X130.217 Y152.031 E14.92766
G1 X129.997 Y149.797 E15.00232
G1 X129.873 Y148.677 E15.0398
G1 X129.813 Y147.776 E15.06983
G1 X129.816 Y147.233 E15.08789
G1 X129.838 Y146.542 E15.11089
G1 X129.881 Y144.036 E15.19425
G1 X129.836 Y140.813 E15.30146
G1 X129.816 Y140.168 E15.32292
G1 X129.811 Y139.88 E15.3325
G1 X129.809 Y139.112 E15.35804
G1 X129.826 Y137.508 E15.4114
G1 X129.828 Y136.8 E15.43495
G1 X129.871 Y135.898 E15.46498
G1 X129.993 Y135.003 E15.49502
G1 X130.193 Y134.122 E15.52507
G1 X130.471 Y133.263 E15.5551
G1 X130.824 Y132.432 E15.58513
G1 X131.249 Y131.635 E15.61517
G1 X131.743 Y130.879 E15.64521
G1 X132.301 Y130.169 E15.67524
G1 X132.921 Y129.512 E15.70529
G1 F2700 E10.70529
;MESH:Hogwarts_Name.stl
G0 F6000 X140.445 Y136.069
G0 X140.735 Y137
G0 X141.771 Y138.259
G0 X141.481 Y139.423
G0 X143.073 Y140.847
G0 X147.563 Y141.045
G0 X147.725 Y141.516
G0 X147.384 Y142.206
G0 X147.912 Y142.396
G0 X148.094 Y142.788
G0 X148.097 Y143.085
G0 X148.037 Y143.386
G0 X147.782 Y144.004
G0 X147.528 Y143.872
G0 X146.062 Y142.773
;TYPE:WALL-INNER
G1 F2700 E15.70529
G1 F1200 X146.039 Y142.749 E15.70639
G1 X146.051 Y142.741 E15.70687
G1 X146.062 Y142.773 E15.70691
G0 F6000 X146.892 Y143.421
G0 X147.324 Y144.063
G1 F1200 X147.385 Y144.096 E15.70922
G1 X147.677 Y144.257 E15.72031
G1 X147.705 Y144.336 E15.72309
G1 X147.748 Y144.454 E15.72727
G1 X147.945 Y144.731 E15.73858
G1 X148.335 Y144.881 E15.75247
G1 X148.338 Y145.465 E15.7719
G1 X148.314 Y145.755 E15.78158
G1 X148.287 Y146.03 E15.79077
G1 X148.18 Y146.341 E15.80171
G1 X148.06 Y146.47 E15.80757
G1 X148.047 Y146.591 E15.81161
G1 X147.856 Y146.752 E15.81992
G1 X147.759 Y146.775 E15.82324
