;FLAVOR:Marlin
;TIME:889
;Filament used: 0.253271m
;Layer height: 0.2
;MINX:129.009
;MINY:124.016
;MINZ:0.2
;MAXX:170.986
;MAXY:175.982
;MAXZ:1.8
;Generated with Cura_SteamEngine 4.11.0
M140 S50
M105
M190 S50
M104 S200
M105
M109 S200
M82 ;absolute extrusion mode
M201 X500.00 Y500.00 Z100.00 E5000.00 ;Setup machine max acceleration
M203 X500.00 Y500.00 Z10.00 E50.00 ;Setup machine max feedrate
M204 P500.00 R1000.00 T500.00 ;Setup Print/Retract/Travel acceleration
M205 X8.00 Y8.00 Z0.40 E5.00 ;Setup Jerk
M220 S100 ;Reset Feedrate
M221 S100 ;Reset Flowrate

G28 ;Home

G92 E0 ;Reset Extruder
G1 Z2.0 F3000 ;Move Z Axis up
G1 X10.1 Y20 Z0.28 F5000.0 ;Move to start position
G1 X10.1 Y200.0 Z0.28 F1500.0 E15 ;Draw the first line
G1 X10.4 Y200.0 Z0.28 F5000.0 ;Move to side a little
G1 X10.4 Y20 Z0.28 F1500.0 E30 ;Draw the second line
G92 E0 ;Reset Extruder
G1 Z2.0 F3000 ;Move Z Axis up

G92 E0
G92 E0
G1 F2700 E-5
;LAYER_COUNT:10
;LAYER:0
M107
G0 F6000 X132.134 Y129.168 Z0.2
;TYPE:SKIRT
G1 F2700 E0
G1 F1200 X132.815 Y128.523 E0.0312
G1 X133.532 Y127.951 E0.0617
G1 X134.549 Y127.208 E0.10359
G1 X134.997 Y126.889 E0.12189
G1 X135.21 Y126.73 E0.13073
G1 X136.052 Y126.117 E0.16537
G1 X136.833 Y125.598 E0.19656
G1 X137.655 Y125.147 E0.22774
G1 X138.513 Y124.768 E0.25894
G1 X139.4 Y124.463 E0.29014
G1 X140.31 Y124.236 E0.32133
G1 X141.236 Y124.086 E0.35253
G1 X142.171 Y124.016 E0.38372
G1 X143.093 Y124.025 E0.41438
G1 X143.407 Y124.041 E0.42484
G1 X145.863 Y124.19 E0.50668
G1 X148.362 Y124.273 E0.58984
G1 X150.885 Y124.283 E0.67376
G1 X153.39 Y124.224 E0.7571
G1 X156.772 Y124.032 E0.86976
G1 X157.057 Y124.019 E0.87925
G1 X157.994 Y124.023 E0.91042
G1 X158.929 Y124.108 E0.94164
G1 X159.852 Y124.271 E0.97282
G1 X160.758 Y124.513 E1.00401
G1 X161.641 Y124.831 E1.03522
G1 X162.493 Y125.223 E1.06642
G1 X163.308 Y125.686 E1.09759
G1 X163.964 Y126.13 E1.12394
G1 X165.059 Y126.93 E1.16904
G1 X166.426 Y127.92 E1.22518
G1 X167.162 Y128.502 E1.25639
G1 X167.845 Y129.144 E1.28756
G1 X168.471 Y129.843 E1.31877
G1 X169.035 Y130.592 E1.34996
G1 X169.533 Y131.387 E1.38116
G1 X169.962 Y132.221 E1.41235
G1 X170.318 Y133.088 E1.44353
G1 X170.599 Y133.983 E1.47473
G1 X170.803 Y134.898 E1.50591
G1 X170.928 Y135.828 E1.53712
G1 X170.974 Y136.907 E1.57304
G1 X170.971 Y137.331 E1.58714
G1 X170.977 Y139.139 E1.64727
G1 X170.984 Y139.699 E1.6659
G1 X170.984 Y139.997 E1.67581
G1 X170.976 Y140.433 E1.69032
G1 X170.916 Y142.504 E1.75923
G1 X170.914 Y144.991 E1.84195
G1 X170.957 Y146.256 E1.88404
G1 X170.955 Y146.484 E1.89163
G1 X170.986 Y147.789 E1.93504
G1 X170.968 Y148.727 E1.96625
G1 X170.874 Y149.637 E1.99668
G1 X170.756 Y150.446 E2.02387
G1 X170.707 Y150.763 E2.03454
G1 X170.365 Y153.272 E2.11876
G1 X170.091 Y155.814 E2.2038
G1 X169.89 Y158.348 E2.28834
G1 X169.805 Y159.865 E2.33888
G1 X169.754 Y160.918 E2.37394
G1 X169.714 Y161.462 E2.39208
G1 X169.688 Y161.727 E2.40094
G1 X169.529 Y162.8 E2.43702
G1 X169.489 Y163.001 E2.44383
G1 X169.141 Y164.319 E2.48917
G1 X169.064 Y164.551 E2.4973
G1 X168.731 Y165.428 E2.5285
G1 X168.324 Y166.273 E2.5597
G1 X168.007 Y166.827 E2.58093
G1 X167.873 Y167.046 E2.58947
G1 X167.35 Y167.825 E2.62067
G1 X166.981 Y168.298 E2.64063
G1 X166.911 Y168.383 E2.64429
G1 X166.413 Y168.947 E2.66931
G1 X165.588 Y169.819 E2.70924
G1 X165.495 Y169.925 E2.71393
G1 X164.108 Y171.411 E2.78154
G1 X163.849 Y171.704 E2.79455
G1 X163.681 Y171.89 E2.80288
G1 X163.354 Y172.243 E2.81889
G1 X162.688 Y172.904 E2.8501
G1 X162.037 Y173.451 E2.87838
G1 X161.848 Y173.598 E2.88634
G1 X161.084 Y174.142 E2.91754
G1 X160.276 Y174.618 E2.94873
G1 X159.431 Y175.024 E2.97991
G1 X158.836 Y175.259 E3.00118
G1 X158.648 Y175.327 E3.00783
G1 X157.754 Y175.608 E3.039
G1 X156.838 Y175.812 E3.07021
G1 X155.909 Y175.937 E3.10139
G1 X154.778 Y175.982 E3.13904
G1 X154.522 Y175.979 E3.14755
G1 X154.161 Y175.969 E3.15957
G1 X153.678 Y175.947 E3.17565
G1 X151.08 Y175.87 E3.26209
G1 X150.215 Y175.865 E3.29087
G1 X150.016 Y175.862 E3.29748
G1 X148.891 Y175.835 E3.33491
G1 X146.36 Y175.809 E3.4191
G1 X144.9 Y175.832 E3.46766
G1 X144.542 Y175.831 E3.47957
G1 X144.182 Y175.825 E3.49155
G1 X143.245 Y175.77 E3.52277
G1 X142.317 Y175.635 E3.55396
G1 X141.404 Y175.421 E3.58515
G1 X140.513 Y175.13 E3.61632
G1 X139.481 Y174.683 E3.65373
G1 X139.257 Y174.572 E3.66204
G1 X138.435 Y174.12 E3.69324
G1 X137.655 Y173.6 E3.72442
G1 X136.815 Y172.922 E3.76033
G1 X136.141 Y172.269 E3.79154
G1 X135.744 Y171.827 E3.8113
G1 X134.703 Y170.602 E3.86477
G1 X134.591 Y170.467 E3.8706
G1 X133.101 Y168.764 E3.94586
G1 X132.758 Y168.364 E3.96339
G1 X131.947 Y167.293 E4.00807
G1 X131.832 Y167.12 E4.01498
G1 X131.347 Y166.318 E4.04615
G1 X130.976 Y165.577 E4.07371
G1 X130.853 Y165.306 E4.08361
G1 X130.503 Y164.436 E4.1148
G1 X130.237 Y163.579 E4.14465
G1 X130.18 Y163.364 E4.15205
G1 X129.986 Y162.488 E4.18189
G1 X129.937 Y162.215 E4.19111
G1 X129.785 Y160.947 E4.23359
G1 X129.774 Y160.768 E4.23955
G1 X129.753 Y160.118 E4.26118
G1 X129.752 Y159.752 E4.27336
G1 X129.712 Y157.125 E4.36074
G1 X129.604 Y154.664 E4.44267
G1 X129.419 Y152.087 E4.52861
G1 X129.214 Y150.006 E4.59816
G1 X129.077 Y148.765 E4.63968
G1 X129.014 Y147.829 E4.67088
G1 X129.017 Y147.208 E4.69154
G1 X129.036 Y146.603 E4.71167
G1 X129.081 Y144.033 E4.79716
G1 X129.037 Y140.849 E4.90307
G1 X129.016 Y140.193 E4.9249
G1 X129.011 Y139.882 E4.93525
G1 X129.009 Y139.104 E4.96112
G1 X129.026 Y137.496 E5.01461
G1 X129.028 Y136.798 E5.03783
G1 X129.071 Y135.861 E5.06902
G1 X129.193 Y134.931 E5.10022
G1 X129.394 Y134.015 E5.13141
G1 X129.672 Y133.119 E5.16261
G1 X130.026 Y132.25 E5.19382
G1 X130.452 Y131.415 E5.225
G1 X130.948 Y130.619 E5.2562
G1 X131.51 Y129.868 E5.28739
G1 X132.134 Y129.168 E5.31858
G0 F6000 X132.527 Y129.338
G1 F1200 X133.206 Y128.715 E5.34923
G1 X133.769 Y128.273 E5.37304
G1 X134.781 Y127.534 E5.41472
G1 X135.205 Y127.232 E5.43203
G1 X135.445 Y127.053 E5.44199
G1 X136.287 Y126.44 E5.47663
G1 X137.054 Y125.931 E5.50725
G1 X137.863 Y125.491 E5.53788
G1 X138.706 Y125.122 E5.56848
G1 X139.579 Y124.828 E5.59912
G1 X140.473 Y124.611 E5.62972
G1 X141.383 Y124.472 E5.66034
G1 X142.302 Y124.412 E5.69097
G1 X143.073 Y124.424 E5.71662
G1 X143.383 Y124.441 E5.72694
G1 X145.826 Y124.59 E5.80835
G1 X148.348 Y124.673 E5.89227
G1 X150.893 Y124.683 E5.97692
G1 X153.391 Y124.624 E6.06003
G1 X156.794 Y124.431 E6.17339
G1 X157.072 Y124.419 E6.18265
G1 X157.992 Y124.424 E6.21325
G1 X158.909 Y124.509 E6.24388
G1 X159.815 Y124.673 E6.2745
G1 X160.703 Y124.915 E6.30512
G1 X161.567 Y125.233 E6.33574
G1 X162.4 Y125.625 E6.36636
G1 X163.196 Y126.088 E6.39698
G1 X163.728 Y126.453 E6.41844
G1 X164.824 Y127.254 E6.46359
G1 X166.191 Y128.244 E6.51973
G1 X166.913 Y128.816 E6.55037
G1 X167.582 Y129.448 E6.58098
G1 X168.194 Y130.136 E6.6116
G1 X168.744 Y130.875 E6.64224
G1 X169.227 Y131.658 E6.67284
G1 X169.641 Y132.48 E6.70345
G1 X169.982 Y133.336 E6.7341
G1 X170.247 Y134.217 E6.7647
G1 X170.435 Y135.119 E6.79535
G1 X170.544 Y136.033 E6.82596
G1 X170.574 Y136.904 E6.85495
G1 X170.571 Y137.328 E6.86905
G1 X170.577 Y139.145 E6.92948
G1 X170.584 Y139.704 E6.94808
G1 X170.584 Y139.992 E6.95766
G1 X170.577 Y140.421 E6.97193
G1 X170.516 Y142.527 E7.042
G1 X170.514 Y145.005 E7.12442
G1 X170.557 Y146.27 E7.16652
G1 X170.555 Y146.494 E7.17397
G1 X170.586 Y147.799 E7.21739
G1 X170.568 Y148.719 E7.24799
G1 X170.478 Y149.58 E7.27679
G1 X170.361 Y150.385 E7.30384
G1 X170.312 Y150.705 E7.31461
G1 X169.963 Y153.266 E7.40057
G1 X169.692 Y155.777 E7.48458
G1 X169.489 Y158.341 E7.57012
G1 X169.41 Y159.759 E7.61736
G1 X169.355 Y160.899 E7.65532
G1 X169.316 Y161.423 E7.67279
G1 X169.29 Y161.688 E7.68165
G1 X169.137 Y162.722 E7.71642
G1 X169.097 Y162.923 E7.72323
G1 X168.761 Y164.193 E7.76693
G1 X168.684 Y164.425 E7.77506
G1 X168.357 Y165.285 E7.80566
G1 X167.956 Y166.114 E7.83629
G1 X167.666 Y166.618 E7.85563
G1 X167.532 Y166.837 E7.86417
G1 X167.018 Y167.601 E7.89479
G1 X166.672 Y168.043 E7.91346
G1 X166.602 Y168.128 E7.91713
G1 X166.122 Y168.672 E7.94126
G1 X165.258 Y169.586 E7.98309
G1 X165.203 Y169.652 E7.98594
G1 X163.818 Y171.137 E8.05348
G1 X163.55 Y171.439 E8.06691
G1 X163.06 Y171.971 E8.09097
G1 X162.406 Y172.619 E8.12159
G1 X161.792 Y173.135 E8.14827
G1 X161.603 Y173.282 E8.15623
G1 X160.852 Y173.815 E8.18686
G1 X160.058 Y174.281 E8.21748
G1 X159.227 Y174.677 E8.2481
G1 X158.7 Y174.883 E8.26692
G1 X158.512 Y174.951 E8.27357
G1 X157.634 Y175.226 E8.30417
G1 X156.735 Y175.424 E8.33479
G1 X155.822 Y175.543 E8.36541
G1 X154.783 Y175.582 E8.39999
G1 X154.527 Y175.579 E8.40851
G1 X154.179 Y175.569 E8.42009
G1 X153.708 Y175.548 E8.43577
G1 X151.095 Y175.47 E8.52271
G1 X150.217 Y175.465 E8.55192
G1 X148.904 Y175.435 E8.5956
G1 X146.357 Y175.409 E8.68032
G1 X144.893 Y175.432 E8.72902
G1 X144.548 Y175.432 E8.74049
G1 X144.188 Y175.426 E8.75247
G1 X143.269 Y175.37 E8.78309
G1 X142.359 Y175.235 E8.81369
G1 X141.463 Y175.022 E8.84432
G1 X140.589 Y174.732 E8.87495
G1 X139.658 Y174.325 E8.90874
G1 X139.434 Y174.214 E8.91706
G1 X138.628 Y173.77 E8.94766
G1 X137.863 Y173.257 E8.9783
G1 X137.081 Y172.623 E9.01178
G1 X136.42 Y171.982 E9.0424
G1 X136.048 Y171.567 E9.06094
G1 X135.011 Y170.347 E9.1142
G1 X134.884 Y170.194 E9.12081
G1 X133.404 Y168.504 E9.19553
G1 X133.061 Y168.104 E9.21305
G1 X132.28 Y167.072 E9.2561
G1 X132.165 Y166.899 E9.26301
G1 X131.69 Y166.111 E9.29361
G1 X131.341 Y165.412 E9.3196
G1 X131.218 Y165.141 E9.32949
G1 X130.874 Y164.287 E9.36012
G1 X130.624 Y163.476 E9.38834
G1 X130.567 Y163.261 E9.39574
G1 X130.38 Y162.418 E9.42446
G1 X130.331 Y162.145 E9.43369
G1 X130.184 Y160.922 E9.47466
G1 X130.173 Y160.743 E9.48062
G1 X130.153 Y160.117 E9.50145
G1 X130.152 Y159.759 E9.51336
G1 X130.112 Y157.137 E9.60058
G1 X130.002 Y154.617 E9.68447
G1 X129.818 Y152.059 E9.76977
G1 X129.605 Y149.899 E9.84196
G1 X129.475 Y148.721 E9.88138
G1 X129.414 Y147.803 E9.91198
G1 X129.416 Y147.221 E9.93134
G1 X129.438 Y146.53 E9.95433
G1 X129.481 Y144.034 E10.03736
G1 X129.436 Y140.832 E10.14387
G1 X129.416 Y140.181 E10.16553
G1 X129.411 Y139.881 E10.17551
G1 X129.409 Y139.108 E10.20122
G1 X129.426 Y137.502 E10.25464
G1 X129.428 Y136.799 E10.27802
G1 X129.471 Y135.879 E10.30866
G1 X129.593 Y134.967 E10.33926
G1 X129.794 Y134.068 E10.3699
G1 X130.072 Y133.19 E10.40053
G1 X130.425 Y132.34 E10.43114
G1 X130.851 Y131.524 E10.46176
G1 X131.345 Y130.748 E10.49236
G1 X131.906 Y130.017 E10.523
G1 X132.527 Y129.338 E10.55361
G0 F6000 X132.921 Y129.512
G1 F1200 X133.596 Y128.912 E10.58365
G1 X134.005 Y128.596 E10.60084
G1 X135.013 Y127.86 E10.64235
G1 X135.456 Y127.544 E10.66045
G1 X135.681 Y127.377 E10.66977
G1 X136.523 Y126.764 E10.70441
G1 X137.276 Y126.265 E10.73445
G1 X138.07 Y125.835 E10.76448
G1 X138.899 Y125.477 E10.79452
G1 X139.756 Y125.193 E10.82455
G1 X140.635 Y124.987 E10.85457
G1 X141.529 Y124.859 E10.88461
G1 X142.431 Y124.81 E10.91466
G1 X143.052 Y124.824 E10.93532
G1 X143.358 Y124.84 E10.94551
G1 X145.824 Y124.99 E11.02768
G1 X148.332 Y125.073 E11.11114
G1 X150.901 Y125.083 E11.19659
G1 X153.393 Y125.024 E11.27949
G1 X156.817 Y124.83 E11.39356
G1 X157.087 Y124.818 E11.40255
G1 X157.99 Y124.824 E11.43258
G1 X158.889 Y124.91 E11.46262
G1 X159.777 Y125.074 E11.49266
G1 X160.647 Y125.317 E11.5227
G1 X161.492 Y125.636 E11.55274
G1 X162.305 Y126.028 E11.58276
G1 X163.081 Y126.49 E11.6128
G1 X163.492 Y126.776 E11.62945
G1 X164.59 Y127.578 E11.67468
G1 X165.957 Y128.568 E11.73081
G1 X166.664 Y129.129 E11.76083
G1 X167.319 Y129.751 E11.79087
G1 X167.916 Y130.429 E11.82092
G1 X168.451 Y131.156 E11.85094
G1 X168.92 Y131.928 E11.88099
G1 X169.318 Y132.739 E11.91103
G1 X169.643 Y133.581 E11.94105
G1 X169.893 Y134.449 E11.9711
G1 X170.064 Y135.336 E12.00114
G1 X170.157 Y136.235 E12.0312
G1 X170.174 Y136.901 E12.05336
G1 X170.171 Y137.325 E12.06746
G1 X170.177 Y139.151 E12.1282
G1 X170.184 Y139.709 E12.14676
G1 X170.184 Y139.986 E12.15597
G1 X170.177 Y140.41 E12.17007
G1 X170.116 Y142.516 E12.24015
G1 X170.114 Y145.019 E12.3234
G1 X170.157 Y146.284 E12.3655
G1 X170.155 Y146.503 E12.37278
G1 X170.186 Y147.808 E12.4162
G1 X170.168 Y148.711 E12.44624
G1 X170.083 Y149.522 E12.47336
G1 X169.965 Y150.324 E12.50032
G1 X169.924 Y150.589 E12.50924
G1 X169.563 Y153.241 E12.59826
G1 X169.294 Y155.738 E12.68179
G1 X169.092 Y158.284 E12.76674
G1 X169.006 Y159.82 E12.81791
G1 X168.955 Y160.88 E12.8532
G1 X168.918 Y161.384 E12.87001
G1 X168.892 Y161.649 E12.87887
G1 X168.745 Y162.644 E12.91232
G1 X168.705 Y162.845 E12.91914
G1 X168.382 Y164.067 E12.96118
G1 X168.305 Y164.299 E12.96931
G1 X167.983 Y165.143 E12.99935
G1 X167.587 Y165.955 E13.0294
G1 X167.325 Y166.41 E13.04686
G1 X167.191 Y166.629 E13.0554
G1 X166.686 Y167.377 E13.08542
G1 X166.364 Y167.789 E13.10281
G1 X166.294 Y167.874 E13.10647
G1 X165.832 Y168.398 E13.12971
G1 X164.964 Y169.316 E13.17173
G1 X164.91 Y169.379 E13.17449
G1 X163.526 Y170.862 E13.24196
G1 X163.25 Y171.174 E13.25581
G1 X163.094 Y171.347 E13.26356
G1 X162.767 Y171.7 E13.27956
G1 X162.124 Y172.334 E13.3096
G1 X161.546 Y172.819 E13.33469
G1 X161.357 Y172.966 E13.34266
G1 X160.62 Y173.489 E13.37271
G1 X159.84 Y173.944 E13.40275
G1 X159.023 Y174.328 E13.43277
G1 X158.564 Y174.507 E13.44916
G1 X158.376 Y174.575 E13.45581
G1 X157.514 Y174.844 E13.48584
G1 X156.632 Y175.036 E13.51586
G1 X155.736 Y175.149 E13.5459
G1 X154.787 Y175.182 E13.57748
G1 X154.531 Y175.179 E13.586
G1 X154.197 Y175.17 E13.59711
G1 X153.738 Y175.15 E13.61239
G1 X151.067 Y175.07 E13.70127
G1 X150.22 Y175.065 E13.72944
G1 X148.918 Y175.035 E13.77276
G1 X146.355 Y175.009 E13.85801
G1 X144.887 Y175.032 E13.90684
G1 X144.555 Y175.032 E13.91788
G1 X144.195 Y175.026 E13.92986
G1 X143.294 Y174.971 E13.95988
G1 X142.401 Y174.836 E13.98992
G1 X141.523 Y174.623 E14.01997
G1 X140.668 Y174.333 E14.05
G1 X139.836 Y173.966 E14.08024
G1 X139.612 Y173.855 E14.08856
G1 X138.821 Y173.419 E14.1186
G1 X138.072 Y172.914 E14.14864
G1 X137.346 Y172.324 E14.17976
G1 X136.699 Y171.694 E14.2098
G1 X136.353 Y171.308 E14.22704
G1 X135.319 Y170.091 E14.28015
G1 X135.207 Y169.956 E14.28599
G1 X133.708 Y168.244 E14.36167
G1 X133.365 Y167.844 E14.3792
G1 X132.614 Y166.851 E14.4206
G1 X132.499 Y166.678 E14.42751
G1 X132.032 Y165.904 E14.45758
G1 X131.705 Y165.247 E14.48199
G1 X131.582 Y164.976 E14.49189
G1 X131.245 Y164.138 E14.52193
G1 X131.011 Y163.374 E14.5485
G1 X130.954 Y163.159 E14.5559
G1 X130.773 Y162.347 E14.58357
G1 X130.724 Y162.074 E14.5928
G1 X130.583 Y160.898 E14.63219
G1 X130.572 Y160.719 E14.63816
G1 X130.553 Y160.116 E14.65822
G1 X130.552 Y159.74 E14.67073
G1 X130.512 Y157.113 E14.75811
G1 X130.402 Y154.607 E14.84154
G1 X130.217 Y152.031 E14.92744
G1 X129.997 Y149.797 E15.0021
G1 X129.873 Y148.677 E15.03958
G1 X129.813 Y147.776 E15.06962
G1 X129.816 Y147.233 E15.08768
G1 X129.838 Y146.542 E15.11067
G1 X129.881 Y144.036 E15.19403
G1 X129.836 Y140.813 E15.30124
G1 X129.816 Y140.168 E15.32271
G1 X129.811 Y139.88 E15.33229
G1 X129.809 Y139.112 E15.35783
G1 X129.826 Y137.508 E15.41118
G1 X129.828 Y136.8 E15.43473
G1 X129.871 Y135.898 E15.46476
G1 X129.993 Y135.003 E15.49481
G1 X130.193 Y134.122 E15.52486
G1 X130.471 Y133.263 E15.55488
G1 X130.824 Y132.432 E15.58491
G1 X131.249 Y131.635 E15.61496
G1 X131.743 Y130.879 E15.64499
G1 X132.301 Y130.169 E15.67503
G1 X132.921 Y129.512 E15.70507
G1 F2700 E10.70507
;MESH:Hogwarts_Name_Ring.stl
G0 F6000 X141.622 Y144.736
G0 X142.259 Y145.301
G0 X143.104 Y144.217
G0 X144.169 Y144.456
G0 X144.447 Y143.944
G0 X144.776 Y143.482
G0 X144.991 Y143.256
G0 X145.207 Y143.028
G0 X145.426 Y143.241
G0 X145.402 Y142.971
G0 X145.67 Y142.759
G0 X146.688 Y143.245
G0 X146.985 Y143.493
G0 X147.067 Y143.923
G0 X147.025 Y144.485
G0 X146.913 Y144.834
G0 X145.163 Y146.734
G0 X143.874 Y147.3
G0 X143.959 Y147.951
G0 X143.972 Y148.222
G0 X143.871 Y148.597
G0 X143.223 Y148.816
;TYPE:WALL-INNER
G1 F2700 E15.70507
G1 F1200 X143.22 Y148.817 E15.70518
G1 X143.221 Y148.815
G1 X143.223 Y148.816
G0 F6000 X143.87 Y148.907
G1 F1200 X144.072 Y148.889 E15.71192
G1 X144.234 Y148.248 E15.73391
G1 X144.204 Y147.537 E15.75758
G1 X144.161 Y147.368 E15.76338
G1 X144.122 Y147.215 E15.76863
G1 X144.047 Y147.038 E15.77503
