;FLAVOR:Marlin
;TIME:847
;Filament used: 0.241704m
;Layer height: 0.2
;MINX:129.337
;MINY:124.019
;MINZ:0.2
;MAXX:170.664
;MAXY:175.984
;MAXZ:1.8
;Generated with Cura_SteamEngine 4.11.0
M140 S50
M105
M190 S50
M104 S200
M105
M109 S200
M82 ;absolute extrusion mode
M201 X500.00 Y500.00 Z100.00 E5000.00 ;Setup machine max acceleration
M203 X500.00 Y500.00 Z10.00 E50.00 ;Setup machine max feedrate
M204 P500.00 R1000.00 T500.00 ;Setup Print/Retract/Travel acceleration
M205 X8.00 Y8.00 Z0.40 E5.00 ;Setup Jerk
M220 S100 ;Reset Feedrate
M221 S100 ;Reset Flowrate

G28 ;Home

G92 E0 ;Reset Extruder
G1 Z2.0 F3000 ;Move Z Axis up
G1 X10.1 Y20 Z0.28 F5000.0 ;Move to start position
G1 X10.1 Y200.0 Z0.28 F1500.0 E15 ;Draw the first line
G1 X10.4 Y200.0 Z0.28 F5000.0 ;Move to side a little
G1 X10.4 Y20 Z0.28 F1500.0 E30 ;Draw the second line
G92 E0 ;Reset Extruder
G1 Z2.0 F3000 ;Move Z Axis up

G92 E0
G92 E0
G1 F2700 E-5
;LAYER_COUNT:10
;LAYER:0
M107
G0 F6000 X133.226 Y128.989 Z0.2
;TYPE:SKIRT
G1 F2700 E0
G1 F1200 X133.916 Y128.353 E0.03121
G1 X134.396 Y127.969 E0.05166
G1 X135.618 Y127.049 E0.10253
G1 X135.838 Y126.887 E0.11162
G1 X136.26 Y126.562 E0.12933
G1 X136.773 Y126.18 E0.15061
G1 X137.549 Y125.653 E0.18181
G1 X138.367 Y125.195 E0.21299
G1 X139.222 Y124.808 E0.2442
G1 X140.106 Y124.496 E0.27538
G1 X141.013 Y124.259 E0.30656
G1 X141.938 Y124.101 E0.33777
G1 X142.872 Y124.022 E0.36895
G1 X143.964 Y124.031 E0.40527
G1 X146.385 Y124.171 E0.48593
G1 X148.877 Y124.245 E0.56885
G1 X151.4 Y124.249 E0.65276
G1 X153.877 Y124.182 E0.73518
G1 X155.581 Y124.082 E0.79195
G1 X156.782 Y124.024 E0.83194
G1 X157.72 Y124.019 E0.86314
G1 X158.655 Y124.093 E0.89434
G1 X159.58 Y124.247 E0.92553
G1 X160.489 Y124.479 E0.95673
G1 X161.375 Y124.788 E0.98794
G1 X162.231 Y125.171 E1.01913
G1 X163.051 Y125.626 E1.05032
G1 X164.023 Y126.294 E1.08955
G1 X164.175 Y126.411 E1.09593
G1 X166.259 Y127.978 E1.18265
G1 X166.984 Y128.573 E1.21384
G1 X167.656 Y129.227 E1.24503
G1 X168.269 Y129.937 E1.27623
G1 X168.82 Y130.696 E1.30743
G1 X169.304 Y131.499 E1.33861
G1 X169.718 Y132.341 E1.36982
G1 X170.059 Y133.215 E1.40102
G1 X170.324 Y134.114 E1.43219
G1 X170.511 Y135.033 E1.46339
G1 X170.619 Y135.965 E1.49459
G1 X170.649 Y136.693 E1.51883
G1 X170.659 Y138.114 E1.56609
G1 X170.659 Y139.155 E1.60071
G1 X170.664 Y139.545 E1.61369
G1 X170.664 Y139.837 E1.6234
G1 X170.65 Y140.794 E1.65523
G1 X170.618 Y141.931 E1.69306
G1 X170.618 Y144.468 E1.77744
G1 X170.658 Y146.033 E1.82951
G1 X170.661 Y146.432 E1.84278
G1 X170.659 Y146.618 E1.84897
G1 X170.609 Y147.555 E1.88018
G1 X170.461 Y148.583 E1.91472
G1 X170.346 Y149.18 E1.93495
G1 X169.891 Y151.739 E2.02139
G1 X169.531 Y154.161 E2.10283
G1 X169.119 Y157.763 E2.22342
G1 X169.094 Y158.019 E2.23197
G1 X169.058 Y158.347 E2.24295
G1 X169.029 Y158.577 E2.25066
G1 X168.872 Y159.502 E2.28186
G1 X168.637 Y160.41 E2.31306
G1 X168.282 Y161.4 E2.34804
G1 X168.187 Y161.63 E2.35632
G1 X167.859 Y162.35 E2.38263
G1 X167.838 Y162.392 E2.38419
G1 X167.408 Y163.172 E2.41382
G1 X167.115 Y163.654 E2.43258
G1 X166.793 Y164.174 E2.45292
G1 X166.546 Y164.582 E2.46878
G1 X165.736 Y165.977 E2.52244
G1 X165.244 Y166.805 E2.55447
G1 X164.66 Y167.688 E2.58968
G1 X164.564 Y167.819 E2.59508
G1 X163.977 Y168.551 E2.62629
G1 X163.331 Y169.231 E2.65749
G1 X162.629 Y169.853 E2.68868
G1 X162.243 Y170.153 E2.70494
G1 X161.413 Y170.767 E2.73928
G1 X160.707 Y171.276 E2.76823
G1 X158.235 Y173.176 E2.87193
G1 X157.997 Y173.365 E2.88204
G1 X157.239 Y173.918 E2.91324
G1 X156.437 Y174.404 E2.94443
G1 X155.495 Y174.864 E2.9793
G1 X155.119 Y175.026 E2.99292
G1 X154.242 Y175.36 E3.02413
G1 X153.341 Y175.618 E3.0553
G1 X152.402 Y175.802 E3.08713
G1 X151.983 Y175.865 E3.10122
G1 X151.05 Y175.965 E3.13243
G1 X150.112 Y175.984 E3.16363
G1 X149.086 Y175.914 E3.19784
G1 X148.67 Y175.866 E3.21177
G1 X147.744 Y175.719 E3.24295
G1 X146.834 Y175.494 E3.27413
G1 X145.867 Y175.161 E3.30815
G1 X145.462 Y175 E3.32264
G1 X144.607 Y174.617 E3.3538
G1 X143.786 Y174.162 E3.38502
G1 X143.279 Y173.832 E3.40514
G1 X142.251 Y173.122 E3.4467
G1 X140.154 Y171.708 E3.53082
G1 X138.741 Y170.812 E3.58647
G1 X138.282 Y170.511 E3.60472
G1 X137.523 Y169.961 E3.6359
G1 X137.071 Y169.584 E3.65547
G1 X136.944 Y169.472 E3.66111
G1 X136.268 Y168.822 E3.6923
G1 X135.649 Y168.117 E3.7235
G1 X135.093 Y167.362 E3.75469
G1 X134.704 Y166.74 E3.77909
G1 X134.347 Y166.121 E3.80285
G1 X133.668 Y164.908 E3.84909
G1 X132.727 Y163.337 E3.91
G1 X132.522 Y162.983 E3.9236
G1 X132.356 Y162.686 E3.93492
G1 X132.251 Y162.491 E3.94229
G1 X131.842 Y161.647 E3.97348
G1 X131.586 Y161.002 E3.99656
G1 X131.514 Y160.802 E4.00363
G1 X131.234 Y159.907 E4.03482
G1 X131.063 Y159.16 E4.06031
G1 X131.052 Y159.103 E4.06224
G1 X130.907 Y158.109 E4.09565
G1 X130.796 Y156.996 E4.13285
G1 X130.501 Y154.399 E4.21978
G1 X130.15 Y151.93 E4.30273
G1 X129.713 Y149.385 E4.38862
G1 X129.586 Y148.732 E4.41074
G1 X129.497 Y148.231 E4.42767
G1 X129.377 Y147.3 E4.45889
G1 X129.337 Y146.363 E4.49008
G1 X129.403 Y145.16 E4.53015
G1 X129.473 Y144.527 E4.55133
G1 X129.723 Y141.912 E4.63871
G1 X129.889 Y139.444 E4.72098
G1 X129.998 Y136.492 E4.81923
G1 X130.073 Y135.557 E4.85043
G1 X130.182 Y134.855 E4.87405
G1 X130.209 Y134.712 E4.87889
G1 X130.422 Y133.799 E4.91008
G1 X130.712 Y132.907 E4.94127
G1 X131.077 Y132.043 E4.97247
G1 X131.515 Y131.213 E5.00368
G1 X132.021 Y130.424 E5.03486
G1 X132.593 Y129.681 E5.06605
G1 X133.226 Y128.989 E5.09724
G0 F6000 X133.593 Y129.188
G1 F1200 X134.637 Y128.289 E5.14306
G1 X135.855 Y127.372 E5.19377
G1 X136.059 Y127.222 E5.20219
G1 X136.504 Y126.879 E5.22088
G1 X137.011 Y126.501 E5.24191
G1 X137.773 Y125.985 E5.27252
G1 X138.578 Y125.537 E5.30316
G1 X139.418 Y125.161 E5.33377
G1 X140.288 Y124.858 E5.36441
G1 X141.18 Y124.633 E5.39501
G1 X142.089 Y124.486 E5.42564
G1 X143.007 Y124.418 E5.45625
G1 X143.941 Y124.431 E5.48732
G1 X146.35 Y124.57 E5.56758
G1 X148.864 Y124.645 E5.65123
G1 X151.41 Y124.649 E5.73591
G1 X153.91 Y124.582 E5.81909
G1 X155.601 Y124.481 E5.87544
G1 X156.802 Y124.423 E5.91543
G1 X157.722 Y124.419 E5.94603
G1 X158.64 Y124.494 E5.97666
G1 X159.547 Y124.649 E6.00727
G1 X160.438 Y124.882 E6.0379
G1 X161.305 Y125.192 E6.06852
G1 X162.142 Y125.575 E6.09914
G1 X162.943 Y126.03 E6.12978
G1 X163.779 Y126.611 E6.16364
G1 X163.885 Y126.693 E6.16809
G1 X166.019 Y128.297 E6.25689
G1 X166.73 Y128.882 E6.28751
G1 X167.388 Y129.526 E6.31813
G1 X167.987 Y130.225 E6.34875
G1 X168.524 Y130.973 E6.37938
G1 X168.993 Y131.765 E6.40999
G1 X169.392 Y132.595 E6.44062
G1 X169.718 Y133.456 E6.47124
G1 X169.967 Y134.342 E6.50185
G1 X170.139 Y135.247 E6.53249
G1 X170.232 Y136.163 E6.56311
G1 X170.249 Y136.695 E6.58082
G1 X170.259 Y138.116 E6.62808
G1 X170.259 Y139.16 E6.6628
G1 X170.264 Y139.55 E6.67578
G1 X170.264 Y139.832 E6.68516
G1 X170.25 Y140.783 E6.71679
G1 X170.218 Y141.92 E6.75462
G1 X170.218 Y144.439 E6.8384
G1 X170.259 Y146.043 E6.89177
G1 X170.261 Y146.428 E6.90458
G1 X170.259 Y146.614 E6.91076
G1 X170.21 Y147.533 E6.94137
G1 X170.068 Y148.507 E6.97411
G1 X169.954 Y149.099 E6.99416
G1 X169.501 Y151.648 E7.08027
G1 X169.13 Y154.143 E7.16417
G1 X168.725 Y157.682 E7.28264
G1 X168.696 Y157.981 E7.29263
G1 X168.661 Y158.297 E7.30321
G1 X168.632 Y158.527 E7.31092
G1 X168.477 Y159.435 E7.34156
G1 X168.244 Y160.325 E7.37215
G1 X167.912 Y161.248 E7.40478
G1 X167.817 Y161.478 E7.41306
G1 X167.501 Y162.171 E7.43839
G1 X167.48 Y162.213 E7.43995
G1 X167.066 Y162.964 E7.46847
G1 X166.775 Y163.443 E7.48711
G1 X166.453 Y163.963 E7.50746
G1 X166.242 Y164.312 E7.52102
G1 X166.211 Y164.361 E7.52295
G1 X165.392 Y165.773 E7.57724
G1 X164.9 Y166.601 E7.60928
G1 X164.337 Y167.452 E7.64321
G1 X164.241 Y167.583 E7.64861
G1 X163.665 Y168.301 E7.67923
G1 X163.029 Y168.966 E7.70984
G1 X162.005 Y169.832 E7.75444
G1 X161.18 Y170.442 E7.78857
G1 X160.464 Y170.958 E7.81792
G1 X157.991 Y172.858 E7.92165
G1 X157.748 Y173.052 E7.93199
G1 X157.003 Y173.594 E7.96263
G1 X156.215 Y174.069 E7.99323
G1 X155.336 Y174.497 E8.02575
G1 X154.96 Y174.659 E8.03937
G1 X154.1 Y174.986 E8.06997
G1 X153.214 Y175.237 E8.1006
G1 X152.342 Y175.406 E8.13014
G1 X151.923 Y175.469 E8.14423
G1 X151.008 Y175.566 E8.17484
G1 X150.087 Y175.584 E8.20547
G1 X149.132 Y175.517 E8.23732
G1 X148.716 Y175.469 E8.25124
G1 X147.807 Y175.324 E8.28186
G1 X146.914 Y175.101 E8.31247
G1 X146.015 Y174.789 E8.34412
G1 X145.61 Y174.628 E8.35862
G1 X144.77 Y174.251 E8.38924
G1 X143.966 Y173.803 E8.41985
G1 X143.506 Y173.503 E8.43812
G1 X142.515 Y172.818 E8.47819
G1 X140.37 Y171.371 E8.56425
G1 X138.955 Y170.474 E8.61997
G1 X138.503 Y170.177 E8.63796
G1 X137.758 Y169.637 E8.66856
G1 X137.336 Y169.284 E8.68686
G1 X137.209 Y169.172 E8.69249
G1 X136.545 Y168.534 E8.72312
G1 X135.94 Y167.84 E8.75374
G1 X135.397 Y167.097 E8.78435
G1 X135.05 Y166.539 E8.80621
G1 X134.696 Y165.926 E8.82975
G1 X134.008 Y164.698 E8.87657
G1 X133.073 Y163.137 E8.93709
G1 X132.868 Y162.783 E8.95069
G1 X132.708 Y162.496 E8.96162
G1 X132.603 Y162.301 E8.96899
G1 X132.202 Y161.473 E8.99959
G1 X131.963 Y160.866 E9.02128
G1 X131.891 Y160.666 E9.02835
G1 X131.617 Y159.787 E9.05898
G1 X131.456 Y159.085 E9.08293
G1 X131.445 Y159.028 E9.08486
G1 X131.305 Y158.069 E9.1171
G1 X131.19 Y156.915 E9.15567
G1 X130.901 Y154.369 E9.24089
G1 X130.541 Y151.844 E9.32572
G1 X130.117 Y149.372 E9.40914
G1 X129.978 Y148.656 E9.4334
G1 X129.891 Y148.163 E9.45005
G1 X129.774 Y147.249 E9.4807
G1 X129.737 Y146.33 E9.51129
G1 X129.801 Y145.204 E9.5488
G1 X129.868 Y144.593 E9.56925
G1 X130.122 Y141.941 E9.65786
G1 X130.29 Y139.453 E9.7408
G1 X130.398 Y136.507 E9.83885
G1 X130.472 Y135.589 E9.86948
G1 X130.575 Y134.929 E9.8917
G1 X130.602 Y134.786 E9.89654
G1 X130.812 Y133.89 E9.92714
G1 X131.099 Y133.015 E9.95777
G1 X131.461 Y132.169 E9.98838
G1 X131.895 Y131.357 E10.019
G1 X132.397 Y130.585 E10.04963
G1 X132.965 Y129.86 E10.08026
G1 X133.593 Y129.188 E10.11085
G0 F6000 X133.96 Y129.389
G1 F1200 X134.878 Y128.608 E10.15094
G1 X136.092 Y127.694 E10.20148
G1 X136.328 Y127.521 E10.21122
G1 X136.9 Y127.081 E10.23522
G1 X137.249 Y126.822 E10.24967
G1 X137.998 Y126.317 E10.27972
G1 X138.788 Y125.879 E10.30976
G1 X139.614 Y125.513 E10.33981
G1 X140.468 Y125.222 E10.36982
G1 X141.346 Y125.007 E10.39988
G1 X142.238 Y124.871 E10.4299
G1 X143.14 Y124.815 E10.45995
G1 X143.918 Y124.83 E10.48584
G1 X146.315 Y124.969 E10.56569
G1 X148.887 Y125.045 E10.65128
G1 X151.421 Y125.049 E10.73556
G1 X153.914 Y124.982 E10.8185
G1 X155.62 Y124.881 E10.87535
G1 X156.821 Y124.823 E10.91534
G1 X157.724 Y124.819 E10.94537
G1 X158.624 Y124.896 E10.97542
G1 X159.514 Y125.051 E11.00546
G1 X160.386 Y125.285 E11.03549
G1 X161.234 Y125.595 E11.06552
G1 X162.052 Y125.979 E11.09558
G1 X162.832 Y126.433 E11.12559
G1 X163.535 Y126.928 E11.15419
G1 X165.779 Y128.617 E11.24761
G1 X166.476 Y129.191 E11.27764
G1 X167.119 Y129.825 E11.30767
G1 X167.704 Y130.513 E11.33771
G1 X168.226 Y131.25 E11.36775
G1 X168.681 Y132.03 E11.39778
G1 X169.065 Y132.848 E11.42784
G1 X169.375 Y133.696 E11.45787
G1 X169.609 Y134.568 E11.4879
G1 X169.764 Y135.458 E11.51794
G1 X169.849 Y136.698 E11.55928
G1 X169.859 Y138.119 E11.60655
G1 X169.859 Y139.165 E11.64134
G1 X169.864 Y139.555 E11.65431
G1 X169.864 Y139.826 E11.66332
G1 X169.85 Y140.772 E11.69479
G1 X169.818 Y141.909 E11.73262
G1 X169.818 Y144.449 E11.8171
G1 X169.859 Y146.053 E11.87047
G1 X169.861 Y146.424 E11.88281
G1 X169.859 Y146.61 E11.88899
G1 X169.81 Y147.511 E11.91901
G1 X169.676 Y148.431 E11.94993
G1 X169.547 Y149.1 E11.97259
G1 X169.104 Y151.59 E12.05671
G1 X168.736 Y154.07 E12.1401
G1 X168.326 Y157.648 E12.25988
G1 X168.298 Y157.943 E12.26974
G1 X168.264 Y158.247 E12.27991
G1 X168.235 Y158.477 E12.28762
G1 X168.082 Y159.367 E12.31766
G1 X167.852 Y160.24 E12.34768
G1 X167.542 Y161.095 E12.37793
G1 X167.447 Y161.325 E12.38621
G1 X167.143 Y161.993 E12.41062
G1 X167.122 Y162.035 E12.41218
G1 X166.724 Y162.757 E12.4396
G1 X166.435 Y163.232 E12.45809
G1 X166.141 Y163.706 E12.47665
G1 X165.989 Y163.96 E12.48649
G1 X165.868 Y164.155 E12.49412
G1 X165.048 Y165.568 E12.54846
G1 X164.556 Y166.396 E12.5805
G1 X164.014 Y167.215 E12.61316
G1 X163.918 Y167.346 E12.61856
G1 X163.353 Y168.05 E12.64859
G1 X162.727 Y168.702 E12.67865
G1 X161.766 Y169.51 E12.72041
G1 X160.946 Y170.118 E12.75436
G1 X160.216 Y170.644 E12.78429
G1 X157.733 Y172.552 E12.88844
G1 X157.498 Y172.739 E12.89843
G1 X156.768 Y173.27 E12.92845
G1 X155.993 Y173.734 E12.95849
G1 X155.178 Y174.13 E12.98863
G1 X154.802 Y174.292 E13.00225
G1 X153.958 Y174.612 E13.03227
G1 X153.088 Y174.856 E13.06232
G1 X152.283 Y175.011 E13.08959
G1 X151.864 Y175.074 E13.10368
G1 X150.965 Y175.168 E13.13375
G1 X150.062 Y175.183 E13.16378
G1 X149.178 Y175.12 E13.19326
G1 X148.762 Y175.072 E13.20719
G1 X147.87 Y174.929 E13.23723
G1 X146.995 Y174.707 E13.26726
G1 X146.163 Y174.418 E13.29655
G1 X145.758 Y174.257 E13.31105
G1 X144.934 Y173.886 E13.34111
G1 X144.147 Y173.444 E13.37113
G1 X143.733 Y173.173 E13.38758
G1 X142.708 Y172.465 E13.42902
G1 X140.586 Y171.034 E13.51414
G1 X139.009 Y170.033 E13.57627
G1 X138.723 Y169.844 E13.58767
G1 X137.993 Y169.313 E13.6177
G1 X137.6 Y168.984 E13.63474
G1 X137.473 Y168.872 E13.64037
G1 X136.823 Y168.245 E13.67041
G1 X136.231 Y167.564 E13.70042
G1 X135.701 Y166.832 E13.73048
G1 X135.396 Y166.338 E13.74979
G1 X135.045 Y165.73 E13.77314
G1 X134.357 Y164.502 E13.81996
G1 X133.419 Y162.937 E13.88065
G1 X133.214 Y162.583 E13.89425
G1 X133.06 Y162.307 E13.90476
G1 X132.955 Y162.112 E13.91213
G1 X132.563 Y161.298 E13.94218
G1 X132.339 Y160.731 E13.96246
G1 X132.267 Y160.531 E13.96953
G1 X131.999 Y159.669 E13.99955
G1 X131.849 Y159.009 E14.02206
G1 X131.838 Y158.952 E14.02399
G1 X131.703 Y158.03 E14.05498
G1 X131.59 Y156.899 E14.09279
G1 X131.295 Y154.299 E14.17982
G1 X130.938 Y151.79 E14.26411
G1 X130.507 Y149.28 E14.34882
G1 X130.371 Y148.58 E14.37253
G1 X130.285 Y148.095 E14.38892
G1 X130.171 Y147.199 E14.41896
G1 X130.137 Y146.296 E14.44901
G1 X130.198 Y145.247 E14.48396
G1 X130.278 Y144.52 E14.50829
G1 X130.519 Y142.005 E14.59232
G1 X130.69 Y139.463 E14.67706
G1 X130.798 Y136.521 E14.77498
G1 X130.871 Y135.621 E14.80501
G1 X130.968 Y135.004 E14.82578
G1 X130.995 Y134.861 E14.83062
G1 X131.202 Y133.981 E14.86069
G1 X131.485 Y133.124 E14.89071
G1 X131.844 Y132.295 E14.92075
G1 X132.274 Y131.501 E14.95079
G1 X132.773 Y130.748 E14.98083
G1 X133.336 Y130.042 E15.01087
G1 X133.96 Y129.389 E15.04091
G1 F2700 E10.04091
;MESH:Gryffindor_Name_Ring.stl
G0 F6000 X147.121 Y148.484
G0 X149.349 Y145.074
G1 F2700 E15.04091
G0 F6000 X149.539 Y145.11
;TYPE:WALL-OUTER
G1 F1200 X149.539 Y143.912 E15.08075
G1 X149.755 Y143.882 E15.088
G1 X149.785 Y143.859 E15.08926
G1 X149.783 Y144.943 E15.12532
G1 X149.6 Y145.024 E15.13197
G1 X149.539 Y145.11 E15.13548
G1 F2700 E10.13548
G0 F6000 X149.468 Y145.239
G0 X149.389 Y146.178
G0 X148.891 Y146.673
G0 X148.45 Y146.924
G0 X147.998 Y146.379
G0 X146.821 Y146.261
G0 X146.447 Y146.365
G0 X146.305 Y146.786
G0 X147.856 Y147.686
G0 X148.882 Y149.971
G0 X152.129 Y153.502
G0 X152.413 Y153.287
G0 X153.529 Y152.721
G0 X153.204 Y151.869
G0 X153.155 Y151.562
G0 X153.301 Y151.34
G0 X156.057 Y150.348
G0 X156.444 Y150.291
G0 X156.659 Y150.427
G0 X156.777 Y150.653
G0 X157.019 Y155.463
G0 X157.052 Y156.28
G0 X156.972 Y156.542
G0 X154.574 Y159.53
G0 X154.522 Y160.238
G0 X154.412 Y160.468
G0 X153.848 Y160.718
G0 X152.272 Y161.067
G0 X150.753 Y161.186
G0 X148.77 Y161.118
G0 X146.409 Y160.818
G0 X145.552 Y160.625
G0 X145.267 Y160.513
G0 X145.105 Y160.283
G0 X143.63 Y156.461
G0 X143.11 Y156.252
G0 X142.907 Y156.01
G0 X142.886 Y155.055
G0 X143.02 Y153.317
G0 X143.119 Y153.025
G0 X143.328 Y152.832
G0 X143.794 Y152.8
G0 X143.888 Y153.085
G0 X144.076 Y152.645
G0 X145.161 Y151.345
G0 X145.493 Y148.62
G1 F2700 E15.13548
G1 F1200 X145.448 Y148.309 E15.14593
G1 X145.359 Y148.159 E15.15173
G1 X145.663 Y148.122 E15.16192
G1 X145.759 Y148.031 E15.16632
G1 X145.776 Y148.084 E15.16817
G1 X145.579 Y148.182 E15.17549
G1 X145.502 Y148.484 E15.18585
G1 X145.493 Y148.62 E15.19039
G1 F2700 E10.19039
G0 F6000 X145.064 Y151.788
G0 X144.076 Y152.645
G0 X143.782 Y152.964
